Martins-Lucaas/RoboticArm/sensors/Data/20260621_173048__samples.csv
t_rel_s,cycle,phase,force_net_n,q1,q2,q3,q4,q5,q6,tcp_x,tcp_y,tcp_z,touch_value,touch_age_ms
0.0045,1,HOME,-0.0000,1.35075,0.48284,-2.09928,0.04573,1.57080,-3.01912,-0.09677,-0.44240,0.39130,,
0.0937,1,HOME,-0.0000,1.35075,0.48284,-2.09928,0.04573,1.57080,-3.01912,-0.09677,-0.44240,0.39130,,
0.0970,1,HOME,-0.0000,1.35075,0.48284,-2.09928,0.04573,1.57080,-3.01912,-0.09677,-0.44240,0.39130,,
0.1113,1,HOME,-0.0000,1.35075,0.48284,-2.09928,0.04573,1.57080,-3.01912,-0.09677,-0.44240,0.39130,,
0.1123,1,HOME,-0.0000,1.35075,0.48284,-2.09928,0.04573,1.57080,-3.01912,-0.09677,-0.44240,0.39130,,
0.1136,1,HOME,-0.0000,1.35075,0.48284,-2.09928,0.04573,1.57080,-3.01912,-0.09677,-0.44240,0.39130,,
0.1147,1,HOME,-0.0000,1.35075,0.48284,-2.09928,0.04573,1.57080,-3.01912,-0.09677,-0.44240,0.39130,,
0.1165,1,HOME,-0.0000,1.35075,0.48284,-2.09928,0.04573,1.57080,-3.01912,-0.09677,-0.44240,0.39130,,
0.1168,1,HOME,-0.0000,1.35075,0.48284,-2.09928,0.04573,1.57080,-3.01912,-0.09677,-0.44240,0.39130,,
0.1384,1,HOME,-0.0000,1.35075,0.48284,-2.09928,0.04573,1.57080,-3.01912,-0.09677,-0.44240,0.39130,,
0.1468,1,HOME,-0.0000,1.35075,0.48284,-2.09928,0.04573,1.57080,-3.01912,-0.09677,-0.44240,0.39130,,
0.1535,1,HOME,-0.0000,1.35075,0.48284,-2.09928,0.04573,1.57080,-3.01912,-0.09677,-0.44240,0.39130,,
0.1560,1,HOME,-0.0000,1.35075,0.48284,-2.09928,0.04573,1.57080,-3.01912,-0.09677,-0.44240,0.39130,,
0.1564,1,HOME,-0.0000,1.35075,0.48284,-2.09928,0.04573,1.57080,-3.01912,-0.09677,-0.44240,0.39130,,
0.1572,1,HOME,-0.0000,1.35075,0.48284,-2.09928,0.04573,1.57080,-3.01912,-0.09677,-0.44240,0.39130,,
0.1576,1,HOME,-0.0000,1.35075,0.48284,-2.09928,0.04573,1.57080,-3.01912,-0.09677,-0.44240,0.39130,,
0.1583,1,HOME,-0.0000,1.35075,0.48284,-2.09928,0.04573,1.57080,-3.01912,-0.09677,-0.44240,0.39130,,
0.1606,1,HOME,-0.0000,1.35075,0.48284,-2.09928,0.04573,1.57080,-3.01912,-0.09677,-0.44240,0.39130,,
0.1623,1,HOME,-0.0000,1.35075,0.48284,-2.09928,0.04573,1.57080,-3.01912,-0.09677,-0.44240,0.39130,,
0.1627,1,HOME,-0.0000,1.35075,0.48284,-2.09928,0.04573,1.57080,-3.01912,-0.09677,-0.44240,0.39130,,
0.1639,1,HOME,-0.0000,1.35075,0.48284,-2.09928,0.04573,1.57080,-3.01912,-0.09677,-0.44240,0.39130,,
0.1670,1,HOME,-0.0000,1.35075,0.48284,-2.09928,0.04573,1.57080,-3.01912,-0.09677,-0.44240,0.39130,,
0.1675,1,HOME,-0.0000,1.35075,0.48284,-2.09928,0.04573,1.57080,-3.01912,-0.09677,-0.44240,0.39130,,
0.1742,1,HOME,-0.0000,1.35075,0.48284,-2.09928,0.04573,1.57080,-3.01912,-0.09677,-0.44240,0.39130,,
0.1747,1,HOME,-0.0000,1.35075,0.48284,-2.09928,0.04573,1.57080,-3.01912,-0.09677,-0.44240,0.39130,,
0.1751,1,HOME,-0.0000,1.35075,0.48284,-2.09928,0.04573,1.57080,-3.01912,-0.09677,-0.44240,0.39130,,
0.1816,1,HOME,-0.0000,1.35075,0.48284,-2.09928,0.04573,1.57080,-3.01912,-0.09677,-0.44240,0.39130,,
0.1821,1,HOME,-0.0000,1.35075,0.48284,-2.09928,0.04573,1.57080,-3.01912,-0.09677,-0.44240,0.39130,,
0.1845,1,HOME,-0.0000,1.35075,0.48284,-2.09928,0.04573,1.57080,-3.01912,-0.09677,-0.44240,0.39130,,
0.1968,1,HOME,-0.0000,1.35075,0.48284,-2.09928,0.04573,1.57080,-3.01912,-0.09677,-0.44240,0.39130,,
0.1974,1,HOME,-0.0000,1.35075,0.48284,-2.09928,0.04573,1.57080,-3.01912,-0.09677,-0.44240,0.39130,,
0.1978,1,HOME,-0.0000,1.35075,0.48284,-2.09928,0.04573,1.57080,-3.01912,-0.09677,-0.44240,0.39130,,
0.1989,1,HOME,-0.0000,1.35075,0.48284,-2.09928,0.04573,1.57080,-3.01912,-0.09677,-0.44240,0.39130,,
0.2033,1,HOME,-0.0000,1.35075,0.48284,-2.09928,0.04573,1.57080,-3.01912,-0.09677,-0.44240,0.39130,,
0.2042,1,HOME,-0.0000,1.35075,0.48284,-2.09928,0.04573,1.57080,-3.01912,-0.09677,-0.44240,0.39130,,
0.2046,1,HOME,-0.0000,1.35075,0.48284,-2.09928,0.04573,1.57080,-3.01912,-0.09677,-0.44240,0.39130,,
0.2056,1,HOME,-0.0000,1.35075,0.48284,-2.09928,0.04573,1.57080,-3.01912,-0.09677,-0.44240,0.39130,,
0.2059,1,HOME,-0.0000,1.35075,0.48284,-2.09928,0.04573,1.57080,-3.01912,-0.09677,-0.44240,0.39130,,
0.2062,1,HOME,-0.0000,1.35075,0.48284,-2.09928,0.04573,1.57080,-3.01912,-0.09677,-0.44240,0.39130,,
0.2089,1,HOME,-0.0000,1.35075,0.48284,-2.09928,0.04573,1.57080,-3.01912,-0.09677,-0.44240,0.39130,,
0.2126,1,HOME,-0.0000,1.35075,0.48284,-2.09928,0.04573,1.57080,-3.01912,-0.09677,-0.44240,0.39130,,
0.2130,1,HOME,-0.0000,1.35075,0.48284,-2.09928,0.04573,1.57080,-3.01912,-0.09677,-0.44240,0.39130,,
0.2214,1,HOME,-0.0000,1.35075,0.48284,-2.09928,0.04573,1.57080,-3.01912,-0.09677,-0.44240,0.39130,,
0.2360,1,HOME,-0.0000,1.35075,0.48284,-2.09928,0.04573,1.57080,-3.01912,-0.09677,-0.44240,0.39130,,
0.2416,1,HOME,-0.0000,1.35075,0.48284,-2.09928,0.04573,1.57080,-3.01912,-0.09677,-0.44240,0.39130,,
0.2652,1,HOME,-0.0000,1.35075,0.48284,-2.09928,0.04573,1.57080,-3.01912,-0.09677,-0.44240,0.39130,,
0.2692,1,HOME,-0.0000,1.35075,0.48284,-2.09928,0.04573,1.57080,-3.01912,-0.09677,-0.44240,0.39130,,
0.2760,1,HOME,-0.0000,1.35075,0.48284,-2.09928,0.04573,1.57080,-3.01912,-0.09677,-0.44240,0.39130,,
0.2922,1,HOME,-0.0000,1.35075,0.48284,-2.09928,0.04573,1.57080,-3.01912,-0.09677,-0.44240,0.39130,,
0.2931,1,HOME,-0.0000,1.35075,0.48284,-2.09928,0.04573,1.57080,-3.01912,-0.09677,-0.44240,0.39130,,
0.3023,1,HOME,-0.0000,1.35075,0.48284,-2.09928,0.04573,1.57080,-3.01912,-0.09677,-0.44240,0.39130,,
0.3114,1,HOME,-0.0000,1.35075,0.48284,-2.09928,0.04573,1.57080,-3.01912,-0.09677,-0.44240,0.39130,,
0.3218,1,HOME,-0.0000,1.35075,0.48284,-2.09928,0.04573,1.57080,-3.01912,-0.09677,-0.44240,0.39130,,
0.3328,1,HOME,-0.0000,1.35075,0.48284,-2.09928,0.04573,1.57080,-3.01912,-0.09677,-0.44240,0.39130,,
0.3414,1,HOME,-0.0000,1.35075,0.48284,-2.09928,0.04573,1.57080,-3.01912,-0.09677,-0.44240,0.39130,,
0.3534,1,HOME,-0.0000,1.35075,0.48284,-2.09928,0.04573,1.57080,-3.01912,-0.09677,-0.44240,0.39130,,
0.3617,1,HOME,-0.0000,1.35075,0.48284,-2.09928,0.04573,1.57080,-3.01912,-0.09677,-0.44240,0.39130,,
0.3759,1,HOME,-0.0000,1.35075,0.48284,-2.09928,0.04573,1.57080,-3.01912,-0.09677,-0.44240,0.39130,,
0.3857,1,HOME,-0.0000,1.35075,0.48284,-2.09928,0.04573,1.57080,-3.01912,-0.09677,-0.44240,0.39130,,
0.3937,1,HOME,-0.0000,1.35075,0.48284,-2.09928,0.04573,1.57080,-3.01912,-0.09677,-0.44240,0.39130,,
0.4044,1,HOME,-0.0000,1.35075,0.48284,-2.09928,0.04573,1.57080,-3.01912,-0.09677,-0.44240,0.39130,,
0.4116,1,HOME,-0.0000,1.35075,0.48284,-2.09928,0.04573,1.57080,-3.01912,-0.09677,-0.44240,0.39130,,
0.4256,1,HOME,-0.0000,1.35075,0.48284,-2.09928,0.04573,1.57080,-3.01912,-0.09677,-0.44240,0.39130,,
0.4347,1,HOME,-0.0000,1.35075,0.48284,-2.09928,0.04573,1.57080,-3.01912,-0.09677,-0.44240,0.39130,,
0.4415,1,HOME,-0.0000,1.35075,0.48284,-2.09928,0.04573,1.57080,-3.01912,-0.09677,-0.44240,0.39130,,
0.4514,1,HOME,-0.0000,1.35075,0.48284,-2.09928,0.04573,1.57080,-3.01912,-0.09677,-0.44240,0.39130,,
0.4615,1,HOME,-0.0000,1.35075,0.48284,-2.09928,0.04573,1.57080,-3.01912,-0.09677,-0.44240,0.39130,,
0.4732,1,HOME,-0.0000,1.35075,0.48284,-2.09928,0.04573,1.57080,-3.01912,-0.09677,-0.44240,0.39130,,
0.4816,1,HOME,-0.0000,1.35075,0.48284,-2.09928,0.04573,1.57080,-3.01912,-0.09677,-0.44240,0.39130,,
0.4980,1,HOME,-0.0000,1.35075,0.48284,-2.09928,0.04573,1.57080,-3.01912,-0.09677,-0.44240,0.39130,,
0.5020,1,HOME,-0.0000,1.35075,0.48284,-2.09928,0.04573,1.57080,-3.01912,-0.09677,-0.44240,0.39130,,
0.5133,1,HOME,-0.0000,1.35075,0.48284,-2.09928,0.04573,1.57080,-3.01912,-0.09677,-0.44240,0.39130,,
0.5238,1,HOME,-0.0000,1.35075,0.48284,-2.09928,0.04573,1.57080,-3.01912,-0.09677,-0.44240,0.39130,,
0.5421,1,HOME,-0.0000,1.35075,0.48284,-2.09928,0.04573,1.57080,-3.01912,-0.09677,-0.44240,0.39130,,
0.5481,1,HOME,-0.0000,1.35075,0.48284,-2.09928,0.04573,1.57080,-3.01912,-0.09677,-0.44240,0.39130,,
0.5524,1,HOME,-0.0000,1.35075,0.48284,-2.09928,0.04573,1.57080,-3.01912,-0.09677,-0.44240,0.39130,,
0.5629,1,HOME,-0.0000,1.35075,0.48284,-2.09928,0.04573,1.57080,-3.01912,-0.09677,-0.44240,0.39130,,
0.5718,1,HOME,-0.0000,1.35075,0.48284,-2.09928,0.04573,1.57080,-3.01912,-0.09677,-0.44240,0.39130,,
0.5832,1,HOME,-0.0000,1.35075,0.48284,-2.09928,0.04573,1.57080,-3.01912,-0.09677,-0.44240,0.39130,,
0.5977,1,HOME,-0.0000,1.35075,0.48284,-2.09928,0.04573,1.57080,-3.01912,-0.09677,-0.44240,0.39130,,
0.6036,1,HOME,-0.0000,1.35075,0.48284,-2.09928,0.04573,1.57080,-3.01912,-0.09677,-0.44240,0.39130,,
0.6131,1,HOME,-0.0000,1.35075,0.48284,-2.09928,0.04573,1.57080,-3.01912,-0.09677,-0.44240,0.39130,,
0.6286,1,HOME,-0.0000,1.35075,0.48284,-2.09928,0.04573,1.57080,-3.01912,-0.09677,-0.44240,0.39130,,
0.6697,1,HOME,-0.0000,1.35075,0.48284,-2.09928,0.04573,1.57080,-3.01912,-0.09677,-0.44240,0.39130,,
0.6700,1,HOME,-0.0000,1.35075,0.48284,-2.09928,0.04573,1.57080,-3.01912,-0.09677,-0.44240,0.39130,,
0.6756,1,HOME,-0.0000,1.35075,0.48284,-2.09928,0.04573,1.57080,-3.01912,-0.09677,-0.44240,0.39130,,
0.6863,1,HOME,-0.0000,1.35075,0.48284,-2.09928,0.04573,1.57080,-3.01912,-0.09677,-0.44240,0.39130,,
0.7085,1,HOME,-0.0000,1.35075,0.48284,-2.09928,0.04573,1.57080,-3.01912,-0.09677,-0.44240,0.39130,,
0.7125,1,HOME,-0.0000,1.35075,0.48284,-2.09928,0.04573,1.57080,-3.01912,-0.09677,-0.44240,0.39130,,
0.7161,1,HOME,-0.0000,1.35075,0.48284,-2.09928,0.04573,1.57080,-3.01912,-0.09677,-0.44240,0.39130,,
0.7315,1,DESCENDING,-0.0000,1.35075,0.48284,-2.09928,0.04573,1.57080,-3.01912,-0.09677,-0.44240,0.39130,,
0.7592,1,DESCENDING,-0.0000,1.35075,0.48284,-2.09928,0.04573,1.57080,-3.01912,-0.09677,-0.44240,0.39130,,
0.7954,1,DESCENDING,-0.0000,1.35075,0.48284,-2.09928,0.04573,1.57080,-3.01912,-0.09677,-0.44240,0.39130,,
0.8043,1,DESCENDING,-0.0000,1.35075,0.48284,-2.09928,0.04573,1.57080,-3.01912,-0.09677,-0.44240,0.39130,,
0.8227,1,DESCENDING,-0.0000,1.35075,0.48284,-2.09928,0.04573,1.57080,-3.01912,-0.09677,-0.44240,0.39130,,
0.8230,1,DESCENDING,-0.0000,1.35075,0.48284,-2.09928,0.04573,1.57080,-3.01912,-0.09677,-0.44240,0.39130,,
0.8272,1,DESCENDING,-0.0000,1.35075,0.48284,-2.09928,0.04573,1.57080,-3.01912,-0.09677,-0.44240,0.39130,,
0.9582,1,DESCENDING,-0.0000,1.35075,0.48283,-2.09937,0.04583,1.57080,-3.01912,-0.09677,-0.44240,0.39125,,
0.9848,1,DESCENDING,-0.0000,1.35075,0.48283,-2.09942,0.04588,1.57080,-3.01912,-0.09677,-0.44240,0.39122,,
0.9932,1,DESCENDING,-0.0000,1.35075,0.48283,-2.09944,0.04590,1.57080,-3.01912,-0.09677,-0.44240,0.39121,,
1.0054,1,DESCENDING,-0.0000,1.35075,0.48283,-2.09949,0.04595,1.57080,-3.01912,-0.09677,-0.44240,0.39118,,
1.0296,1,DESCENDING,-0.0000,1.35075,0.48282,-2.09953,0.04599,1.57080,-3.01912,-0.09677,-0.44240,0.39116,,
1.0343,1,DESCENDING,-0.0000,1.35075,0.48282,-2.09954,0.04601,1.57080,-3.01912,-0.09677,-0.44240,0.39115,,
1.0691,1,DESCENDING,-0.0000,1.35075,0.48282,-2.09964,0.04611,1.57080,-3.01912,-0.09677,-0.44240,0.39109,,
1.0856,1,DESCENDING,-0.0000,1.35075,0.48282,-2.09965,0.04612,1.57080,-3.01912,-0.09677,-0.44240,0.39108,,
1.1021,1,DESCENDING,-0.0000,1.35075,0.48282,-2.09969,0.04616,1.57080,-3.01912,-0.09677,-0.44240,0.39106,,
1.1106,1,DESCENDING,-0.0000,1.35075,0.48281,-2.09970,0.04617,1.57080,-3.01912,-0.09677,-0.44240,0.39106,,
1.1361,1,DESCENDING,-0.0000,1.35075,0.48281,-2.09977,0.04625,1.57080,-3.01912,-0.09677,-0.44240,0.39101,,
1.1509,1,DESCENDING,-0.0000,1.35075,0.48281,-2.09981,0.04628,1.57080,-3.01912,-0.09677,-0.44240,0.39099,,
1.1718,1,DESCENDING,-0.0000,1.35075,0.48281,-2.09985,0.04633,1.57080,-3.01912,-0.09677,-0.44240,0.39097,,
1.1721,1,DESCENDING,-0.0000,1.35075,0.48281,-2.09985,0.04633,1.57080,-3.01912,-0.09677,-0.44240,0.39097,,
1.1725,1,DESCENDING,-0.0000,1.35075,0.48281,-2.09985,0.04633,1.57080,-3.01912,-0.09677,-0.44240,0.39097,,
1.2106,1,DESCENDING,-0.0000,1.35075,0.48280,-2.09995,0.04644,1.57080,-3.01912,-0.09677,-0.44240,0.39091,,
1.2216,1,DESCENDING,-0.0000,1.35075,0.48280,-2.09998,0.04647,1.57080,-3.01912,-0.09677,-0.44240,0.39089,,
1.2221,1,DESCENDING,-0.0000,1.35075,0.48280,-2.09998,0.04647,1.57080,-3.01912,-0.09677,-0.44240,0.39089,,
1.2282,1,DESCENDING,-0.0000,1.35075,0.48280,-2.09999,0.04647,1.57080,-3.01912,-0.09677,-0.44240,0.39089,,
1.2667,1,DESCENDING,-0.0000,1.35075,0.48279,-2.10008,0.04658,1.57080,-3.01912,-0.09677,-0.44240,0.39083,,
1.3743,1,DESCENDING,-0.0000,1.35075,0.48278,-2.10034,0.04685,1.57080,-3.01912,-0.09677,-0.44240,0.39068,,
1.3746,1,DESCENDING,-0.0000,1.35075,0.48278,-2.10034,0.04685,1.57080,-3.01912,-0.09677,-0.44240,0.39068,,
1.3850,1,DESCENDING,-0.0000,1.35075,0.48278,-2.10036,0.04687,1.57080,-3.01912,-0.09677,-0.44240,0.39067,,
1.3855,1,DESCENDING,-0.0000,1.35075,0.48278,-2.10036,0.04687,1.57080,-3.01912,-0.09677,-0.44240,0.39067,,
1.3921,1,DESCENDING,-0.0000,1.35075,0.48278,-2.10038,0.04688,1.57080,-3.01912,-0.09677,-0.44240,0.39066,,
1.7566,1,DESCENDING,-0.0000,1.35075,0.48274,-2.10121,0.04776,1.57080,-3.01912,-0.09677,-0.44240,0.39018,,
1.7572,1,DESCENDING,-0.0000,1.35075,0.48274,-2.10121,0.04776,1.57080,-3.01912,-0.09677,-0.44240,0.39018,,
1.7955,1,DESCENDING,-0.0000,1.35075,0.48273,-2.10129,0.04784,1.57080,-3.01912,-0.09677,-0.44240,0.39013,,
1.7960,1,DESCENDING,-0.0000,1.35075,0.48273,-2.10129,0.04784,1.57080,-3.01912,-0.09677,-0.44240,0.39013,,
1.8012,1,DESCENDING,-0.0000,1.35075,0.48273,-2.10130,0.04785,1.57080,-3.01912,-0.09677,-0.44240,0.39013,,
1.8491,1,DESCENDING,-0.0000,1.35075,0.48272,-2.10142,0.04798,1.57080,-3.01912,-0.09677,-0.44240,0.39005,,
1.8562,1,DESCENDING,-0.0000,1.35075,0.48272,-2.10142,0.04798,1.57080,-3.01912,-0.09677,-0.44240,0.39005,,
1.8756,1,DESCENDING,-0.0000,1.35075,0.48272,-2.10147,0.04804,1.57080,-3.01912,-0.09677,-0.44240,0.39002,,
1.8980,1,DESCENDING,-0.0000,1.35075,0.48272,-2.10152,0.04809,1.57080,-3.01912,-0.09677,-0.44240,0.38999,,
1.9083,1,DESCENDING,-0.0000,1.35075,0.48272,-2.10155,0.04812,1.57080,-3.01912,-0.09677,-0.44240,0.38998,,
1.9264,1,DESCENDING,-0.0000,1.35075,0.48272,-2.10159,0.04816,1.57080,-3.01912,-0.09677,-0.44240,0.38996,,
1.9420,1,DESCENDING,-0.0000,1.35075,0.48271,-2.10165,0.04822,1.57080,-3.01912,-0.09677,-0.44240,0.38992,,
1.9527,1,DESCENDING,-0.0000,1.35075,0.48271,-2.10166,0.04823,1.57080,-3.01912,-0.09677,-0.44240,0.38992,,
1.9531,1,DESCENDING,-0.0000,1.35075,0.48271,-2.10166,0.04823,1.57080,-3.01912,-0.09677,-0.44240,0.38992,,
2.0087,1,DESCENDING,-0.0000,1.35075,0.48270,-2.10179,0.04838,1.57080,-3.01912,-0.09677,-0.44240,0.38984,,
2.0169,1,DESCENDING,-0.0000,1.35075,0.48270,-2.10182,0.04840,1.57080,-3.01912,-0.09677,-0.44240,0.38982,,
2.0225,1,DESCENDING,-0.0000,1.35075,0.48270,-2.10183,0.04841,1.57080,-3.01912,-0.09677,-0.44240,0.38982,,
2.0420,1,DESCENDING,-0.0000,1.35075,0.48270,-2.10188,0.04846,1.57080,-3.01912,-0.09677,-0.44240,0.38979,,
2.0477,1,DESCENDING,-0.0000,1.35075,0.48270,-2.10188,0.04847,1.57080,-3.01912,-0.09677,-0.44240,0.38978,,
2.0624,1,DESCENDING,-0.0000,1.35075,0.48270,-2.10193,0.04852,1.57080,-3.01912,-0.09677,-0.44240,0.38976,,
2.0631,1,DESCENDING,-0.0000,1.35075,0.48270,-2.10193,0.04852,1.57080,-3.01912,-0.09677,-0.44240,0.38976,,
2.0732,1,DESCENDING,-0.0000,1.35075,0.48270,-2.10194,0.04853,1.57080,-3.01912,-0.09677,-0.44240,0.38975,,
2.0961,1,DESCENDING,-0.0000,1.35075,0.48269,-2.10201,0.04860,1.57080,-3.01912,-0.09677,-0.44240,0.38971,,
2.1039,1,DESCENDING,-0.0000,1.35075,0.48269,-2.10201,0.04860,1.57080,-3.01912,-0.09677,-0.44240,0.38971,,
2.1062,1,DESCENDING,-0.0000,1.35075,0.48269,-2.10202,0.04861,1.57080,-3.01912,-0.09677,-0.44240,0.38971,,
2.1131,1,DESCENDING,-0.0000,1.35075,0.48269,-2.10203,0.04863,1.57080,-3.01912,-0.09677,-0.44240,0.38970,,
2.1303,1,DESCENDING,-0.0000,1.35075,0.48269,-2.10206,0.04866,1.57080,-3.01912,-0.09677,-0.44240,0.38968,,
2.1452,1,DESCENDING,-0.0000,1.35075,0.48269,-2.10211,0.04871,1.57080,-3.01912,-0.09677,-0.44240,0.38965,,
2.1457,1,DESCENDING,-0.0000,1.35075,0.48269,-2.10211,0.04871,1.57080,-3.01912,-0.09677,-0.44240,0.38965,,
2.1651,1,DESCENDING,-0.0000,1.35075,0.48269,-2.10215,0.04875,1.57080,-3.01912,-0.09677,-0.44240,0.38963,,
2.1953,1,DESCENDING,-0.0000,1.35075,0.48268,-2.10220,0.04881,1.57080,-3.01912,-0.09677,-0.44240,0.38960,,
2.1958,1,DESCENDING,-0.0000,1.35075,0.48268,-2.10220,0.04881,1.57080,-3.01912,-0.09677,-0.44240,0.38960,,
2.2016,1,DESCENDING,-0.0000,1.35075,0.48268,-2.10223,0.04883,1.57080,-3.01912,-0.09677,-0.44240,0.38958,,
2.2448,1,DESCENDING,-0.0000,1.35075,0.48268,-2.10233,0.04894,1.57080,-3.01912,-0.09677,-0.44240,0.38953,,
2.2455,1,DESCENDING,-0.0000,1.35075,0.48268,-2.10233,0.04894,1.57080,-3.01912,-0.09677,-0.44240,0.38953,,
2.2516,1,DESCENDING,-0.0000,1.35075,0.48267,-2.10234,0.04895,1.57080,-3.01912,-0.09677,-0.44240,0.38952,,
2.2642,1,DESCENDING,-0.0000,1.35075,0.48267,-2.10235,0.04897,1.57080,-3.01912,-0.09677,-0.44240,0.38951,,
2.2867,1,DESCENDING,-0.0000,1.35075,0.48267,-2.10239,0.04901,1.57080,-3.01912,-0.09677,-0.44240,0.38949,,
2.2927,1,DESCENDING,-0.0000,1.35075,0.48267,-2.10240,0.04902,1.57080,-3.01912,-0.09677,-0.44240,0.38948,,
2.3036,1,DESCENDING,-0.0000,1.35075,0.48267,-2.10244,0.04906,1.57080,-3.01912,-0.09677,-0.44240,0.38946,,
2.3119,1,DESCENDING,-0.0000,1.35075,0.48267,-2.10245,0.04906,1.57080,-3.01912,-0.09677,-0.44240,0.38946,,
2.3477,1,DESCENDING,-0.0000,1.35075,0.48266,-2.10253,0.04915,1.57080,-3.01912,-0.09677,-0.44240,0.38941,,
2.3498,1,DESCENDING,-0.0000,1.35075,0.48266,-2.10254,0.04916,1.57080,-3.01912,-0.09677,-0.44240,0.38940,,
2.3526,1,DESCENDING,-0.0000,1.35075,0.48266,-2.10254,0.04916,1.57080,-3.01912,-0.09677,-0.44240,0.38940,,
2.3619,1,DESCENDING,-0.0000,1.35075,0.48266,-2.10258,0.04920,1.57080,-3.01912,-0.09677,-0.44240,0.38938,,
2.3715,1,DESCENDING,-0.0000,1.35075,0.48266,-2.10258,0.04920,1.57080,-3.01912,-0.09677,-0.44240,0.38938,,
2.3820,1,DESCENDING,-0.0000,1.35075,0.48266,-2.10261,0.04924,1.57080,-3.01912,-0.09677,-0.44240,0.38936,,
2.3943,1,DESCENDING,-0.0000,1.35075,0.48266,-2.10266,0.04929,1.57080,-3.01912,-0.09677,-0.44240,0.38933,,
2.4105,1,DESCENDING,-0.0000,1.35075,0.48266,-2.10267,0.04930,1.57080,-3.01912,-0.09677,-0.44240,0.38932,,
2.4142,1,DESCENDING,-0.0000,1.35075,0.48266,-2.10268,0.04931,1.57080,-3.01912,-0.09677,-0.44240,0.38932,,
2.4240,1,DESCENDING,-0.0000,1.35075,0.48265,-2.10271,0.04934,1.57080,-3.01912,-0.09677,-0.44240,0.38930,,
2.4333,1,DESCENDING,-0.0000,1.35075,0.48265,-2.10271,0.04934,1.57080,-3.01912,-0.09677,-0.44240,0.38930,,
2.4427,1,DESCENDING,-0.0000,1.35075,0.48265,-2.10274,0.04938,1.57080,-3.01912,-0.09677,-0.44240,0.38928,,
2.4511,1,DESCENDING,-0.0000,1.35075,0.48265,-2.10278,0.04941,1.57080,-3.01912,-0.09677,-0.44240,0.38926,,
2.4605,1,DESCENDING,-0.0000,1.35075,0.48265,-2.10279,0.04943,1.57080,-3.01912,-0.09677,-0.44240,0.38925,,
2.4729,1,DESCENDING,-0.0000,1.35075,0.48265,-2.10281,0.04944,1.57080,-3.01912,-0.09677,-0.44240,0.38925,,
2.4908,1,DESCENDING,-0.0000,1.35075,0.48265,-2.10285,0.04948,1.57080,-3.01912,-0.09677,-0.44240,0.38922,,
2.4917,1,DESCENDING,-0.0000,1.35075,0.48265,-2.10285,0.04948,1.57080,-3.01912,-0.09677,-0.44240,0.38922,,
2.5167,1,DESCENDING,-0.0000,1.35075,0.48264,-2.10293,0.04957,1.57080,-3.01912,-0.09677,-0.44240,0.38918,,
2.5374,1,DESCENDING,-0.0000,1.35075,0.48264,-2.10296,0.04960,1.57080,-3.01912,-0.09677,-0.44240,0.38916,,
2.5918,1,DESCENDING,-0.0000,1.35075,0.48263,-2.10309,0.04974,1.57080,-3.01912,-0.09677,-0.44240,0.38908,,
2.7032,1,DESCENDING,-0.0000,1.35075,0.48262,-2.10336,0.05003,1.57080,-3.01912,-0.09677,-0.44240,0.38892,,
2.7106,1,DESCENDING,-0.0000,1.35075,0.48262,-2.10338,0.05005,1.57080,-3.01912,-0.09677,-0.44240,0.38891,,
2.7559,1,DESCENDING,-0.0000,1.35075,0.48261,-2.10349,0.05017,1.57080,-3.01912,-0.09677,-0.44240,0.38885,,
2.7562,1,DESCENDING,-0.0000,1.35075,0.48261,-2.10349,0.05017,1.57080,-3.01912,-0.09677,-0.44240,0.38885,,
2.7689,1,DESCENDING,-0.0000,1.35075,0.48261,-2.10350,0.05018,1.57080,-3.01912,-0.09677,-0.44240,0.38884,,
2.7907,1,DESCENDING,-0.0000,1.35075,0.48261,-2.10358,0.05026,1.57080,-3.01912,-0.09677,-0.44240,0.38880,,
2.8226,1,DESCENDING,-0.0000,1.35075,0.48260,-2.10363,0.05031,1.57080,-3.01912,-0.09677,-0.44240,0.38877,,
2.8268,1,DESCENDING,-0.0000,1.35075,0.48260,-2.10364,0.05032,1.57080,-3.01912,-0.09677,-0.44240,0.38876,,
2.8356,1,DESCENDING,-0.0000,1.35075,0.48260,-2.10366,0.05035,1.57080,-3.01912,-0.09677,-0.44240,0.38875,,
2.8436,1,DESCENDING,-0.0000,1.35075,0.48260,-2.10369,0.05038,1.57080,-3.01912,-0.09677,-0.44240,0.38873,,
2.8541,1,DESCENDING,-0.0000,1.35075,0.48260,-2.10371,0.05040,1.57080,-3.01912,-0.09677,-0.44240,0.38872,,
2.8620,1,DESCENDING,-0.0000,1.35075,0.48260,-2.10372,0.05041,1.57080,-3.01912,-0.09677,-0.44240,0.38871,,
2.8719,1,DESCENDING,-0.0000,1.35075,0.48260,-2.10375,0.05044,1.57080,-3.01912,-0.09677,-0.44240,0.38870,,
2.8816,1,DESCENDING,-0.0000,1.35075,0.48260,-2.10376,0.05045,1.57080,-3.01912,-0.09677,-0.44240,0.38869,,
2.8929,1,DESCENDING,-0.0000,1.35075,0.48260,-2.10378,0.05047,1.57080,-3.01912,-0.09677,-0.44240,0.38868,,
2.9024,1,DESCENDING,-0.0000,1.35075,0.48259,-2.10383,0.05052,1.57080,-3.01912,-0.09677,-0.44240,0.38865,,
2.9120,1,DESCENDING,-0.0000,1.35075,0.48259,-2.10384,0.05054,1.57080,-3.01912,-0.09677,-0.44240,0.38864,,
2.9206,1,DESCENDING,-0.0000,1.35075,0.48259,-2.10385,0.05054,1.57080,-3.01912,-0.09677,-0.44240,0.38864,,
2.9308,1,DESCENDING,-0.0000,1.35075,0.48259,-2.10388,0.05058,1.57080,-3.01912,-0.09677,-0.44240,0.38862,,
2.9440,1,DESCENDING,-0.0000,1.35075,0.48259,-2.10390,0.05059,1.57080,-3.01912,-0.09677,-0.44240,0.38861,,
2.9597,1,DESCENDING,-0.0000,1.35075,0.48259,-2.10394,0.05064,1.57080,-3.01912,-0.09677,-0.44240,0.38858,,
2.9612,1,DESCENDING,-0.0000,1.35075,0.48259,-2.10394,0.05064,1.57080,-3.01912,-0.09677,-0.44240,0.38858,,
2.9712,1,DESCENDING,-0.0000,1.35075,0.48258,-2.10398,0.05068,1.57080,-3.01912,-0.09677,-0.44240,0.38856,,
2.9819,1,DESCENDING,-0.0000,1.35075,0.48258,-2.10399,0.05069,1.57080,-3.01912,-0.09677,-0.44240,0.38856,,
3.0006,1,DESCENDING,-0.0000,1.35075,0.48258,-2.10403,0.05073,1.57080,-3.01912,-0.09677,-0.44240,0.38853,,
3.0013,1,DESCENDING,-0.0000,1.35075,0.48258,-2.10403,0.05073,1.57080,-3.01912,-0.09677,-0.44240,0.38853,,
3.0151,1,DESCENDING,-0.0000,1.35075,0.48258,-2.10406,0.05077,1.57080,-3.01912,-0.09677,-0.44240,0.38851,,
3.0219,1,DESCENDING,-0.0000,1.35075,0.48258,-2.10409,0.05080,1.57080,-3.01912,-0.09677,-0.44240,0.38850,,
3.0309,1,DESCENDING,-0.0000,1.35075,0.48258,-2.10411,0.05082,1.57080,-3.01912,-0.09677,-0.44240,0.38849,,
3.0415,1,DESCENDING,-0.0000,1.35075,0.48258,-2.10412,0.05083,1.57080,-3.01912,-0.09677,-0.44240,0.38848,,
3.0567,1,DESCENDING,-0.0000,1.35075,0.48257,-2.10417,0.05089,1.57080,-3.01912,-0.09677,-0.44240,0.38845,,
3.0627,1,DESCENDING,-0.0000,1.35075,0.48257,-2.10418,0.05089,1.57080,-3.01912,-0.09677,-0.44240,0.38845,,
3.0727,1,DESCENDING,-0.0000,1.35075,0.48257,-2.10420,0.05091,1.57080,-3.01912,-0.09677,-0.44240,0.38844,,
3.0811,1,DESCENDING,-0.0000,1.35075,0.48257,-2.10422,0.05094,1.57080,-3.01912,-0.09677,-0.44240,0.38842,,
3.0985,1,DESCENDING,-0.0000,1.35075,0.48257,-2.10426,0.05098,1.57080,-3.01912,-0.09677,-0.44240,0.38840,,
3.1027,1,DESCENDING,-0.0000,1.35075,0.48257,-2.10428,0.05099,1.57080,-3.01912,-0.09677,-0.44240,0.38839,,
3.1171,1,DESCENDING,-0.0000,1.35075,0.48256,-2.10432,0.05104,1.57080,-3.01912,-0.09677,-0.44240,0.38836,,
3.1267,1,DESCENDING,-0.0000,1.35075,0.48256,-2.10433,0.05105,1.57080,-3.01912,-0.09677,-0.44240,0.38836,,
3.1354,1,DESCENDING,-0.0000,1.35075,0.48256,-2.10435,0.05108,1.57080,-3.01912,-0.09677,-0.44240,0.38834,,
3.1495,1,DESCENDING,-0.0000,1.35075,0.48256,-2.10440,0.05113,1.57080,-3.01912,-0.09677,-0.44240,0.38832,,
3.1514,1,DESCENDING,-0.0000,1.35075,0.48256,-2.10440,0.05113,1.57080,-3.01912,-0.09677,-0.44240,0.38832,,
3.1621,1,DESCENDING,-0.0000,1.35075,0.48256,-2.10442,0.05115,1.57080,-3.01912,-0.09677,-0.44240,0.38830,,
3.1708,1,DESCENDING,-0.0000,1.35075,0.48256,-2.10445,0.05118,1.57080,-3.01912,-0.09677,-0.44240,0.38829,,
3.1821,1,DESCENDING,-0.0000,1.35075,0.48256,-2.10447,0.05120,1.57080,-3.01912,-0.09677,-0.44240,0.38828,,
3.2055,1,DESCENDING,-0.0000,1.35075,0.48255,-2.10453,0.05126,1.57080,-3.01912,-0.09677,-0.44240,0.38824,,
3.2063,1,DESCENDING,-0.0000,1.35075,0.48255,-2.10455,0.05128,1.57080,-3.01912,-0.09677,-0.44240,0.38823,,
3.2110,1,DESCENDING,-0.0000,1.35075,0.48255,-2.10455,0.05128,1.57080,-3.01912,-0.09677,-0.44240,0.38823,,
3.2268,1,DESCENDING,-0.0000,1.35075,0.48255,-2.10458,0.05132,1.57080,-3.01912,-0.09677,-0.44240,0.38821,,
3.2330,1,DESCENDING,-0.0000,1.35075,0.48255,-2.10459,0.05133,1.57080,-3.01912,-0.09677,-0.44240,0.38820,,
3.2460,1,DESCENDING,-0.0000,1.35075,0.48255,-2.10463,0.05137,1.57080,-3.01912,-0.09677,-0.44240,0.38818,,
3.2523,1,DESCENDING,-0.0000,1.35075,0.48255,-2.10463,0.05137,1.57080,-3.01912,-0.09677,-0.44240,0.38818,,
3.2672,1,DESCENDING,-0.0000,1.35075,0.48254,-2.10468,0.05142,1.57080,-3.01912,-0.09677,-0.44240,0.38816,,
3.2701,1,DESCENDING,-0.0000,1.35075,0.48254,-2.10468,0.05142,1.57080,-3.01912,-0.09677,-0.44240,0.38816,,
3.2861,1,DESCENDING,-0.0000,1.35075,0.48254,-2.10471,0.05146,1.57080,-3.01912,-0.09677,-0.44240,0.38813,,
3.2914,1,DESCENDING,-0.0000,1.35075,0.48254,-2.10473,0.05147,1.57080,-3.01912,-0.09677,-0.44240,0.38813,,
3.3115,1,DESCENDING,-0.0000,1.35075,0.48254,-2.10477,0.05151,1.57080,-3.01912,-0.09677,-0.44240,0.38810,,
3.3166,1,DESCENDING,-0.0000,1.35075,0.48254,-2.10477,0.05152,1.57080,-3.01912,-0.09677,-0.44240,0.38810,,
3.3230,1,DESCENDING,-0.0000,1.35075,0.48254,-2.10480,0.05155,1.57080,-3.01912,-0.09677,-0.44240,0.38808,,
3.3327,1,DESCENDING,-0.0000,1.35075,0.48254,-2.10481,0.05156,1.57080,-3.01912,-0.09677,-0.44240,0.38808,,
3.3411,1,DESCENDING,-0.0000,1.35075,0.48254,-2.10482,0.05157,1.57080,-3.01912,-0.09677,-0.44240,0.38807,,
3.3543,1,DESCENDING,-0.0000,1.35075,0.48253,-2.10488,0.05163,1.57080,-3.01912,-0.09677,-0.44240,0.38804,,
3.3636,1,DESCENDING,-0.0000,1.35075,0.48253,-2.10489,0.05165,1.57080,-3.01912,-0.09677,-0.44240,0.38803,,
3.3721,1,DESCENDING,-0.0000,1.35075,0.48253,-2.10490,0.05165,1.57080,-3.01912,-0.09677,-0.44240,0.38802,,
3.3816,1,DESCENDING,-0.0000,1.35075,0.48253,-2.10492,0.05167,1.57080,-3.01912,-0.09677,-0.44240,0.38801,,
3.3942,1,DESCENDING,-0.0000,1.35075,0.48253,-2.10495,0.05170,1.57080,-3.01912,-0.09677,-0.44240,0.38800,,
3.4037,1,DESCENDING,-0.0000,1.35075,0.48253,-2.10497,0.05172,1.57080,-3.01912,-0.09677,-0.44240,0.38799,,
3.4109,1,DESCENDING,-0.0000,1.35075,0.48253,-2.10499,0.05175,1.57080,-3.01912,-0.09677,-0.44240,0.38797,,
3.4216,1,DESCENDING,-0.0000,1.35075,0.48252,-2.10503,0.05179,1.57080,-3.01912,-0.09677,-0.44240,0.38795,,
3.4353,1,DESCENDING,-0.0000,1.35075,0.48252,-2.10504,0.05180,1.57080,-3.01912,-0.09677,-0.44240,0.38794,,
3.4412,1,DESCENDING,-0.0000,1.35075,0.48252,-2.10505,0.05181,1.57080,-3.01912,-0.09677,-0.44240,0.38794,,
3.4511,1,DESCENDING,-0.0000,1.35075,0.48252,-2.10508,0.05184,1.57080,-3.01912,-0.09677,-0.44240,0.38792,,
3.4711,1,DESCENDING,-0.0000,1.35075,0.48252,-2.10513,0.05190,1.57080,-3.01912,-0.09677,-0.44240,0.38789,,
3.4722,1,DESCENDING,-0.0000,1.35075,0.48252,-2.10513,0.05190,1.57080,-3.01912,-0.09677,-0.44240,0.38789,,
3.4825,1,DESCENDING,-0.0000,1.35075,0.48252,-2.10516,0.05193,1.57080,-3.01912,-0.09677,-0.44240,0.38787,,
3.4913,1,DESCENDING,-0.0000,1.35075,0.48252,-2.10517,0.05194,1.57080,-3.01912,-0.09677,-0.44240,0.38787,,
3.5080,1,DESCENDING,-0.0000,1.35075,0.48251,-2.10521,0.05198,1.57080,-3.01912,-0.09677,-0.44240,0.38784,,
3.5128,1,DESCENDING,-0.0000,1.35075,0.48251,-2.10521,0.05198,1.57080,-3.01912,-0.09677,-0.44240,0.38784,,
3.5249,1,DESCENDING,-0.0000,1.35075,0.48251,-2.10523,0.05201,1.57080,-3.01912,-0.09677,-0.44240,0.38783,,
3.5337,1,DESCENDING,-0.0000,1.35075,0.48251,-2.10526,0.05204,1.57080,-3.01912,-0.09677,-0.44240,0.38781,,
3.5407,1,DESCENDING,-0.0000,1.35075,0.48251,-2.10529,0.05207,1.57080,-3.01912,-0.09677,-0.44240,0.38780,,
3.5527,1,DESCENDING,-0.0000,1.35075,0.48251,-2.10530,0.05208,1.57080,-3.01912,-0.09677,-0.44240,0.38779,,
3.5679,1,DESCENDING,-0.0000,1.35075,0.48251,-2.10534,0.05212,1.57080,-3.01912,-0.09677,-0.44240,0.38777,,
3.5742,1,DESCENDING,-0.0000,1.35075,0.48251,-2.10534,0.05212,1.57080,-3.01912,-0.09677,-0.44240,0.38777,,
3.5810,1,DESCENDING,-0.0000,1.35075,0.48251,-2.10535,0.05213,1.57080,-3.01912,-0.09677,-0.44240,0.38776,,
3.5954,1,DESCENDING,-0.0000,1.35075,0.48250,-2.10541,0.05219,1.57080,-3.01912,-0.09677,-0.44240,0.38773,,
3.6092,1,DESCENDING,-0.0000,1.35075,0.48250,-2.10543,0.05221,1.57080,-3.01912,-0.09677,-0.44240,0.38772,,
3.6152,1,DESCENDING,-0.0000,1.35075,0.48250,-2.10544,0.05223,1.57080,-3.01912,-0.09677,-0.44240,0.38771,,
3.6215,1,DESCENDING,-0.0000,1.35075,0.48250,-2.10545,0.05224,1.57080,-3.01912,-0.09677,-0.44240,0.38770,,
3.6315,1,DESCENDING,-0.0000,1.35075,0.48250,-2.10548,0.05226,1.57080,-3.01912,-0.09677,-0.44240,0.38769,,
3.6469,1,DESCENDING,-0.0000,1.35075,0.48250,-2.10551,0.05230,1.57080,-3.01912,-0.09677,-0.44240,0.38767,,
3.6525,1,DESCENDING,-0.0000,1.35075,0.48249,-2.10553,0.05232,1.57080,-3.01912,-0.09677,-0.44240,0.38766,,
3.6615,1,DESCENDING,-0.0000,1.35075,0.48249,-2.10556,0.05235,1.57080,-3.01912,-0.09677,-0.44240,0.38764,,
3.6769,1,DESCENDING,-0.0000,1.35075,0.48249,-2.10557,0.05237,1.57080,-3.01912,-0.09677,-0.44240,0.38763,,
3.6810,1,DESCENDING,-0.0000,1.35075,0.48249,-2.10558,0.05238,1.57080,-3.01912,-0.09677,-0.44240,0.38763,,
3.6991,1,DESCENDING,-0.0000,1.35075,0.48249,-2.10562,0.05242,1.57080,-3.01912,-0.09677,-0.44240,0.38760,,
3.7416,1,DESCENDING,-0.0000,1.35075,0.48248,-2.10572,0.05252,1.57080,-3.01912,-0.09677,-0.44240,0.38755,,
3.7446,1,DESCENDING,-0.0000,1.35075,0.48248,-2.10573,0.05253,1.57080,-3.01912,-0.09677,-0.44240,0.38754,,
3.7455,1,DESCENDING,-0.0000,1.35075,0.48248,-2.10573,0.05253,1.57080,-3.01912,-0.09677,-0.44240,0.38754,,
3.7464,1,DESCENDING,-0.0000,1.35075,0.48248,-2.10574,0.05255,1.57080,-3.01912,-0.09677,-0.44240,0.38753,,
3.7511,1,DESCENDING,-0.0000,1.35075,0.48248,-2.10574,0.05255,1.57080,-3.01912,-0.09677,-0.44240,0.38753,,
3.7574,1,DESCENDING,-0.0000,1.35075,0.48248,-2.10575,0.05255,1.57080,-3.01912,-0.09677,-0.44240,0.38753,,
3.7651,1,DESCENDING,-0.0000,1.35075,0.48248,-2.10576,0.05257,1.57080,-3.01912,-0.09677,-0.44240,0.38752,,
3.7850,1,DESCENDING,-0.0000,1.35075,0.48248,-2.10583,0.05263,1.57080,-3.01912,-0.09677,-0.44240,0.38748,,
3.7865,1,DESCENDING,-0.0000,1.35075,0.48248,-2.10583,0.05264,1.57080,-3.01912,-0.09677,-0.44240,0.38748,,
3.7928,1,DESCENDING,-0.0000,1.35075,0.48248,-2.10583,0.05264,1.57080,-3.01912,-0.09677,-0.44240,0.38748,,
3.8019,1,DESCENDING,-0.0000,1.35075,0.48248,-2.10585,0.05266,1.57080,-3.01912,-0.09677,-0.44240,0.38747,,
3.8140,1,DESCENDING,-0.0000,1.35075,0.48247,-2.10588,0.05269,1.57080,-3.01912,-0.09677,-0.44240,0.38745,,
3.8270,1,DESCENDING,-0.0000,1.35075,0.48247,-2.10591,0.05273,1.57080,-3.01912,-0.09677,-0.44240,0.38743,,
3.8330,1,DESCENDING,-0.0000,1.35075,0.48247,-2.10593,0.05274,1.57080,-3.01912,-0.09677,-0.44240,0.38743,,
3.8414,1,DESCENDING,-0.0000,1.35075,0.48247,-2.10596,0.05277,1.57080,-3.01912,-0.09677,-0.44240,0.38741,,
3.8513,1,DESCENDING,-0.0000,1.35075,0.48247,-2.10597,0.05278,1.57080,-3.01912,-0.09677,-0.44240,0.38740,,
3.8615,1,DESCENDING,-0.0000,1.35075,0.48247,-2.10598,0.05280,1.57080,-3.01912,-0.09677,-0.44240,0.38739,,
3.8755,1,DESCENDING,-0.0000,1.35075,0.48247,-2.10601,0.05283,1.57080,-3.01912,-0.09677,-0.44240,0.38738,,
3.8823,1,DESCENDING,-0.0000,1.35075,0.48247,-2.10602,0.05284,1.57080,-3.01912,-0.09677,-0.44240,0.38737,,
3.8955,1,DESCENDING,-0.0000,1.35075,0.48246,-2.10608,0.05290,1.57080,-3.01912,-0.09677,-0.44240,0.38734,,
3.9014,1,DESCENDING,-0.0000,1.35075,0.48246,-2.10609,0.05292,1.57080,-3.01912,-0.09677,-0.44240,0.38733,,
3.9248,1,DESCENDING,-0.0000,1.35075,0.48246,-2.10613,0.05296,1.57080,-3.01912,-0.09677,-0.44240,0.38731,,
3.9432,1,DESCENDING,-0.0000,1.35075,0.48246,-2.10616,0.05299,1.57080,-3.01912,-0.09677,-0.44240,0.38729,,
3.9442,1,DESCENDING,-0.0000,1.35075,0.48246,-2.10616,0.05299,1.57080,-3.01912,-0.09677,-0.44240,0.38729,,
3.9535,1,DESCENDING,-0.0000,1.35075,0.48246,-2.10619,0.05302,1.57080,-3.01912,-0.09677,-0.44240,0.38727,,
3.9633,1,DESCENDING,-0.0000,1.35075,0.48245,-2.10622,0.05306,1.57080,-3.01912,-0.09677,-0.44240,0.38725,,
3.9929,1,DESCENDING,-0.0000,1.35075,0.48245,-2.10628,0.05311,1.57080,-3.01912,-0.09677,-0.44240,0.38722,,
3.9945,1,DESCENDING,-0.0000,1.35075,0.48245,-2.10628,0.05311,1.57080,-3.01912,-0.09677,-0.44240,0.38722,,
3.9966,1,DESCENDING,-0.0000,1.35075,0.48245,-2.10628,0.05311,1.57080,-3.01912,-0.09677,-0.44240,0.38722,,
4.0222,1,DESCENDING,-0.0000,1.35075,0.48245,-2.10636,0.05320,1.57080,-3.01912,-0.09677,-0.44240,0.38717,,
4.0273,1,DESCENDING,-0.0000,1.35075,0.48245,-2.10636,0.05320,1.57080,-3.01912,-0.09677,-0.44240,0.38717,,
4.0320,1,DESCENDING,-0.0000,1.35075,0.48245,-2.10637,0.05321,1.57080,-3.01912,-0.09677,-0.44240,0.38717,,
4.0337,1,DESCENDING,-0.0000,1.35075,0.48245,-2.10637,0.05321,1.57080,-3.01912,-0.09677,-0.44240,0.38717,,
4.0431,1,DESCENDING,-0.0000,1.35075,0.48244,-2.10640,0.05324,1.57080,-3.01912,-0.09677,-0.44240,0.38715,,
4.0530,1,DESCENDING,-0.0000,1.35075,0.48244,-2.10641,0.05325,1.57080,-3.01912,-0.09677,-0.44240,0.38714,,
4.0647,1,DESCENDING,-0.0000,1.35075,0.48244,-2.10643,0.05327,1.57080,-3.01912,-0.09677,-0.44240,0.38713,,
4.0718,1,DESCENDING,-0.0000,1.35075,0.48244,-2.10646,0.05331,1.57080,-3.01912,-0.09677,-0.44240,0.38711,,
4.0831,1,DESCENDING,-0.0000,1.35075,0.48244,-2.10649,0.05334,1.57080,-3.01912,-0.09677,-0.44240,0.38710,,
4.0916,1,DESCENDING,-0.0000,1.35075,0.48244,-2.10650,0.05335,1.57080,-3.01912,-0.09677,-0.44240,0.38709,,
4.1027,1,DESCENDING,-0.0000,1.35075,0.48244,-2.10653,0.05338,1.57080,-3.01912,-0.09677,-0.44240,0.38707,,
4.1114,1,DESCENDING,-0.0000,1.35075,0.48243,-2.10654,0.05339,1.57080,-3.01912,-0.09677,-0.44240,0.38707,,
4.1222,1,DESCENDING,-0.0000,1.35075,0.48243,-2.10655,0.05340,1.57080,-3.01912,-0.09677,-0.44240,0.38706,,
4.1308,1,DESCENDING,-0.0000,1.35075,0.48243,-2.10659,0.05345,1.57080,-3.01912,-0.09677,-0.44240,0.38704,,
4.1423,1,DESCENDING,-0.0000,1.35075,0.48243,-2.10662,0.05348,1.57080,-3.01912,-0.09677,-0.44240,0.38702,,
4.1512,1,DESCENDING,-0.0000,1.35075,0.48243,-2.10663,0.05349,1.57080,-3.01912,-0.09677,-0.44240,0.38701,,
4.1616,1,DESCENDING,-0.0000,1.35075,0.48243,-2.10666,0.05352,1.57080,-3.01912,-0.09677,-0.44240,0.38700,,
4.1736,1,DESCENDING,-0.0000,1.35075,0.48243,-2.10669,0.05355,1.57080,-3.01912,-0.09677,-0.44240,0.38698,,
4.1837,1,DESCENDING,-0.0000,1.35075,0.48242,-2.10671,0.05357,1.57080,-3.01912,-0.09677,-0.44240,0.38697,,
4.1915,1,DESCENDING,-0.0000,1.35075,0.48242,-2.10674,0.05360,1.57080,-3.01912,-0.09677,-0.44240,0.38695,,
4.2023,1,DESCENDING,-0.0000,1.35075,0.48242,-2.10677,0.05363,1.57080,-3.01912,-0.09677,-0.44240,0.38693,,
4.2141,1,DESCENDING,-0.0000,1.35075,0.48242,-2.10678,0.05364,1.57080,-3.01912,-0.09677,-0.44240,0.38693,,
4.2243,1,DESCENDING,-0.0000,1.35075,0.48242,-2.10682,0.05369,1.57080,-3.01912,-0.09677,-0.44240,0.38690,,
4.2329,1,DESCENDING,-0.0000,1.35075,0.48242,-2.10683,0.05370,1.57080,-3.01912,-0.09677,-0.44240,0.38689,,
4.2431,1,DESCENDING,-0.0000,1.35075,0.48242,-2.10686,0.05372,1.57080,-3.01912,-0.09677,-0.44240,0.38688,,
4.2578,1,DESCENDING,-0.0000,1.35075,0.48241,-2.10690,0.05377,1.57080,-3.01912,-0.09677,-0.44240,0.38686,,
4.2622,1,DESCENDING,-0.0000,1.35075,0.48241,-2.10691,0.05379,1.57080,-3.01912,-0.09677,-0.44240,0.38685,,
4.2751,1,DESCENDING,-0.0000,1.35075,0.48241,-2.10694,0.05381,1.57080,-3.01912,-0.09677,-0.44240,0.38684,,
4.2852,1,DESCENDING,-0.0000,1.35075,0.48241,-2.10696,0.05384,1.57080,-3.01912,-0.09677,-0.44240,0.38682,,
4.2938,1,DESCENDING,-0.0000,1.35075,0.48241,-2.10699,0.05387,1.57080,-3.01912,-0.09677,-0.44240,0.38680,,
4.3022,1,DESCENDING,-0.0000,1.35075,0.48241,-2.10700,0.05387,1.57080,-3.01912,-0.09677,-0.44240,0.38680,,
4.3120,1,DESCENDING,-0.0000,1.35075,0.48241,-2.10702,0.05390,1.57080,-3.01912,-0.09677,-0.44240,0.38679,,
4.3319,1,DESCENDING,-0.0000,1.35075,0.48240,-2.10706,0.05394,1.57080,-3.01912,-0.09677,-0.44240,0.38677,,
4.3327,1,DESCENDING,-0.0000,1.35075,0.48240,-2.10706,0.05394,1.57080,-3.01912,-0.09677,-0.44240,0.38677,,
4.3418,1,DESCENDING,-0.0000,1.35075,0.48240,-2.10708,0.05396,1.57080,-3.01912,-0.09677,-0.44240,0.38675,,
4.3567,1,DESCENDING,-0.0000,1.35075,0.48240,-2.10713,0.05401,1.57080,-3.01912,-0.09677,-0.44240,0.38672,,
4.3638,1,DESCENDING,-0.0000,1.35075,0.48240,-2.10714,0.05402,1.57080,-3.01912,-0.09677,-0.44240,0.38672,,
4.3725,1,DESCENDING,-0.0000,1.35075,0.48240,-2.10715,0.05404,1.57080,-3.01912,-0.09677,-0.44240,0.38671,,
4.3873,1,DESCENDING,-0.0000,1.35075,0.48240,-2.10718,0.05407,1.57080,-3.01912,-0.09677,-0.44240,0.38669,,
4.3937,1,DESCENDING,-0.0000,1.35075,0.48240,-2.10719,0.05408,1.57080,-3.01912,-0.09677,-0.44240,0.38669,,
4.4014,1,DESCENDING,-0.0000,1.35075,0.48239,-2.10721,0.05411,1.57080,-3.01912,-0.09677,-0.44240,0.38667,,
4.4124,1,DESCENDING,-0.0000,1.35075,0.48239,-2.10726,0.05416,1.57080,-3.01912,-0.09677,-0.44240,0.38665,,
4.4475,1,DESCENDING,-0.0000,1.35075,0.48239,-2.10732,0.05421,1.57080,-3.01912,-0.09677,-0.44240,0.38661,,
4.4541,1,DESCENDING,-0.0000,1.35075,0.48239,-2.10732,0.05422,1.57080,-3.01912,-0.09677,-0.44240,0.38661,,
4.4819,1,DESCENDING,-0.0000,1.35075,0.48238,-2.10740,0.05430,1.57080,-3.01912,-0.09677,-0.44240,0.38657,,
4.4950,1,DESCENDING,-0.0000,1.35075,0.48238,-2.10743,0.05434,1.57080,-3.01912,-0.09677,-0.44240,0.38655,,
4.4957,1,DESCENDING,-0.0000,1.35075,0.48238,-2.10743,0.05434,1.57080,-3.01912,-0.09677,-0.44240,0.38655,,
4.5030,1,DESCENDING,-0.0000,1.35075,0.48238,-2.10745,0.05435,1.57080,-3.01912,-0.09677,-0.44240,0.38654,,
4.5080,1,DESCENDING,-0.0000,1.35075,0.48238,-2.10745,0.05435,1.57080,-3.01912,-0.09677,-0.44240,0.38654,,
4.5083,1,DESCENDING,-0.0000,1.35075,0.48238,-2.10745,0.05435,1.57080,-3.01912,-0.09677,-0.44240,0.38654,,
4.5151,1,DESCENDING,-0.0000,1.35075,0.48238,-2.10747,0.05437,1.57080,-3.01912,-0.09677,-0.44240,0.38653,,
4.5215,1,DESCENDING,-0.0000,1.35075,0.48238,-2.10748,0.05439,1.57080,-3.01912,-0.09677,-0.44240,0.38652,,
4.5374,1,DESCENDING,-0.0000,1.35075,0.48238,-2.10753,0.05444,1.57080,-3.01912,-0.09677,-0.44240,0.38649,,
4.5420,1,DESCENDING,-0.0000,1.35075,0.48238,-2.10753,0.05444,1.57080,-3.01912,-0.09677,-0.44240,0.38649,,
4.5515,1,DESCENDING,-0.0000,1.35075,0.48237,-2.10755,0.05446,1.57080,-3.01912,-0.09677,-0.44240,0.38647,,
4.5613,1,DESCENDING,-0.0000,1.35075,0.48237,-2.10758,0.05449,1.57080,-3.01912,-0.09677,-0.44240,0.38646,,
4.5741,1,DESCENDING,-0.0000,1.35075,0.48237,-2.10759,0.05450,1.57080,-3.01912,-0.09677,-0.44240,0.38645,,
4.5878,1,DESCENDING,-0.0000,1.35075,0.48237,-2.10765,0.05456,1.57080,-3.01912,-0.09677,-0.44240,0.38642,,
4.5931,1,DESCENDING,-0.0000,1.35075,0.48237,-2.10766,0.05458,1.57080,-3.01912,-0.09677,-0.44240,0.38641,,
4.6058,1,DESCENDING,-0.0000,1.35075,0.48237,-2.10767,0.05459,1.57080,-3.01912,-0.09677,-0.44240,0.38641,,
4.6124,1,DESCENDING,-0.0000,1.35075,0.48237,-2.10770,0.05462,1.57080,-3.01912,-0.09677,-0.44240,0.38639,,
4.6390,1,DESCENDING,-0.0000,1.35075,0.48236,-2.10776,0.05468,1.57080,-3.01912,-0.09677,-0.44240,0.38635,,
4.6421,1,DESCENDING,-0.0000,1.35075,0.48236,-2.10776,0.05468,1.57080,-3.01912,-0.09677,-0.44240,0.38635,,
4.6533,1,DESCENDING,-0.0000,1.35075,0.48236,-2.10781,0.05473,1.57080,-3.01912,-0.09677,-0.44240,0.38633,,
4.6632,1,DESCENDING,-0.0000,1.35075,0.48236,-2.10782,0.05474,1.57080,-3.01912,-0.09677,-0.44240,0.38632,,
4.6727,1,DESCENDING,-0.0000,1.35075,0.48236,-2.10784,0.05477,1.57080,-3.01912,-0.09677,-0.44240,0.38631,,
4.6874,1,DESCENDING,-0.0000,1.35075,0.48235,-2.10787,0.05480,1.57080,-3.01912,-0.09677,-0.44240,0.38629,,
4.6949,1,DESCENDING,-0.0000,1.35075,0.48235,-2.10789,0.05482,1.57080,-3.01912,-0.09677,-0.44240,0.38628,,
4.7038,1,DESCENDING,-0.0000,1.35075,0.48235,-2.10792,0.05485,1.57080,-3.01912,-0.09677,-0.44240,0.38626,,
4.7116,1,DESCENDING,-0.0000,1.35075,0.48235,-2.10795,0.05489,1.57080,-3.01912,-0.09677,-0.44240,0.38624,,
4.7225,1,DESCENDING,-0.0000,1.35075,0.48235,-2.10795,0.05489,1.57080,-3.01912,-0.09677,-0.44240,0.38624,,
4.7356,1,DESCENDING,-0.0000,1.35075,0.48235,-2.10800,0.05494,1.57080,-3.01912,-0.09677,-0.44240,0.38621,,
4.7459,1,DESCENDING,-0.0000,1.35075,0.48235,-2.10802,0.05496,1.57080,-3.01912,-0.09677,-0.44240,0.38620,,
4.7513,1,DESCENDING,-0.0000,1.35075,0.48234,-2.10803,0.05497,1.57080,-3.01912,-0.09677,-0.44240,0.38620,,
4.7621,1,DESCENDING,-0.0000,1.35075,0.48234,-2.10805,0.05499,1.57080,-3.01912,-0.09677,-0.44240,0.38618,,
4.7713,1,DESCENDING,-0.0000,1.35075,0.48234,-2.10810,0.05504,1.57080,-3.01912,-0.09677,-0.44240,0.38616,,
4.7833,1,DESCENDING,-0.0000,1.35075,0.48234,-2.10811,0.05505,1.57080,-3.01912,-0.09677,-0.44240,0.38615,,
4.7981,1,DESCENDING,-0.0000,1.35075,0.48234,-2.10815,0.05509,1.57080,-3.01912,-0.09677,-0.44240,0.38613,,
4.8031,1,DESCENDING,-0.0000,1.35075,0.48234,-2.10818,0.05513,1.57080,-3.01912,-0.09677,-0.44240,0.38611,,
4.8142,1,DESCENDING,-0.0000,1.35075,0.48234,-2.10818,0.05513,1.57080,-3.01912,-0.09677,-0.44240,0.38611,,
4.8214,1,DESCENDING,-0.0000,1.35075,0.48233,-2.10819,0.05514,1.57080,-3.01912,-0.09677,-0.44240,0.38610,,
4.8475,1,DESCENDING,-0.0000,1.35075,0.48233,-2.10825,0.05520,1.57080,-3.01912,-0.09677,-0.44240,0.38607,,
4.8544,1,DESCENDING,-0.0000,1.35075,0.48233,-2.10826,0.05522,1.57080,-3.01912,-0.09677,-0.44240,0.38606,,
4.8569,1,DESCENDING,-0.0000,1.35075,0.48233,-2.10828,0.05523,1.57080,-3.01912,-0.09677,-0.44240,0.38605,,
4.8637,1,DESCENDING,-0.0000,1.35075,0.48233,-2.10831,0.05527,1.57080,-3.01912,-0.09677,-0.44240,0.38603,,
4.8741,1,DESCENDING,-0.0000,1.35075,0.48233,-2.10831,0.05527,1.57080,-3.01912,-0.09677,-0.44240,0.38603,,
4.8837,1,DESCENDING,-0.0000,1.35075,0.48233,-2.10834,0.05529,1.57080,-3.01912,-0.09677,-0.44240,0.38602,,
4.8918,1,DESCENDING,-0.0000,1.35075,0.48232,-2.10836,0.05532,1.57080,-3.01912,-0.09677,-0.44240,0.38600,,
4.9022,1,DESCENDING,-0.0000,1.35075,0.48232,-2.10836,0.05532,1.57080,-3.01912,-0.09677,-0.44240,0.38600,,
4.9114,1,DESCENDING,-0.0000,1.35075,0.48232,-2.10840,0.05536,1.57080,-3.01912,-0.09677,-0.44240,0.38598,,
4.9214,1,DESCENDING,-0.0000,1.35075,0.48232,-2.10843,0.05539,1.57080,-3.01912,-0.09677,-0.44240,0.38596,,
4.9478,1,DESCENDING,-0.0000,1.35075,0.48232,-2.10848,0.05545,1.57080,-3.01912,-0.09677,-0.44240,0.38593,,
4.9520,1,DESCENDING,-0.0000,1.35075,0.48232,-2.10849,0.05546,1.57080,-3.01912,-0.09677,-0.44240,0.38593,,
4.9528,1,DESCENDING,-0.0000,1.35075,0.48232,-2.10849,0.05546,1.57080,-3.01912,-0.09677,-0.44240,0.38593,,
4.9615,1,DESCENDING,-0.0000,1.35075,0.48232,-2.10850,0.05547,1.57080,-3.01912,-0.09677,-0.44240,0.38592,,
4.9742,1,DESCENDING,-0.0000,1.35075,0.48231,-2.10853,0.05550,1.57080,-3.01912,-0.09677,-0.44240,0.38590,,
4.9862,1,DESCENDING,-0.0000,1.35075,0.48231,-2.10858,0.05555,1.57080,-3.01912,-0.09677,-0.44240,0.38588,,
4.9975,1,DESCENDING,-0.0000,1.35075,0.48231,-2.10858,0.05556,1.57080,-3.01912,-0.09677,-0.44240,0.38587,,
5.0071,1,DESCENDING,-0.0000,1.35075,0.48231,-2.10861,0.05559,1.57080,-3.01912,-0.09677,-0.44240,0.38586,,
5.0153,1,DESCENDING,-0.0000,1.35075,0.48231,-2.10863,0.05560,1.57080,-3.01912,-0.09677,-0.44240,0.38585,,
5.0222,1,DESCENDING,-0.0000,1.35075,0.48231,-2.10863,0.05561,1.57080,-3.01912,-0.09677,-0.44240,0.38585,,
5.0321,1,DESCENDING,-0.0000,1.35075,0.48231,-2.10866,0.05564,1.57080,-3.01912,-0.09677,-0.44240,0.38583,,
5.0434,1,DESCENDING,-0.0000,1.35075,0.48230,-2.10871,0.05569,1.57080,-3.01912,-0.09677,-0.44240,0.38580,,
5.0513,1,DESCENDING,-0.0000,1.35075,0.48230,-2.10871,0.05569,1.57080,-3.01912,-0.09677,-0.44240,0.38580,,
5.0631,1,DESCENDING,-0.0000,1.35075,0.48230,-2.10873,0.05572,1.57080,-3.01912,-0.09677,-0.44240,0.38578,,
5.0967,1,DESCENDING,-0.0000,1.35075,0.48230,-2.10881,0.05580,1.57080,-3.01912,-0.09677,-0.44240,0.38574,,
5.1014,1,DESCENDING,-0.0000,1.35075,0.48230,-2.10883,0.05582,1.57080,-3.01912,-0.09677,-0.44240,0.38573,,
5.1045,1,DESCENDING,-0.0000,1.35075,0.48229,-2.10884,0.05583,1.57080,-3.01912,-0.09677,-0.44240,0.38572,,
5.1116,1,DESCENDING,-0.0000,1.35075,0.48229,-2.10884,0.05583,1.57080,-3.01912,-0.09677,-0.44240,0.38572,,
5.1125,1,DESCENDING,-0.0000,1.35075,0.48229,-2.10884,0.05583,1.57080,-3.01912,-0.09677,-0.44240,0.38572,,
5.1215,1,DESCENDING,-0.0000,1.35075,0.48229,-2.10886,0.05585,1.57080,-3.01912,-0.09677,-0.44240,0.38571,,
5.1329,1,DESCENDING,-0.0000,1.35075,0.48229,-2.10889,0.05589,1.57080,-3.01912,-0.09677,-0.44240,0.38569,,
5.1551,1,DESCENDING,-0.0000,1.35075,0.48229,-2.10894,0.05594,1.57080,-3.01912,-0.09677,-0.44240,0.38566,,
5.1570,1,DESCENDING,-0.0000,1.35075,0.48229,-2.10894,0.05594,1.57080,-3.01912,-0.09677,-0.44240,0.38566,,
5.1644,1,DESCENDING,-0.0000,1.35075,0.48229,-2.10897,0.05597,1.57080,-3.01912,-0.09677,-0.44240,0.38564,,
5.1792,1,DESCENDING,-0.0000,1.35075,0.48228,-2.10899,0.05599,1.57080,-3.01912,-0.09677,-0.44240,0.38563,,
5.1814,1,DESCENDING,-0.0000,1.35075,0.48228,-2.10899,0.05599,1.57080,-3.01912,-0.09677,-0.44240,0.38563,,
5.1975,1,DESCENDING,-0.0000,1.35075,0.48228,-2.10903,0.05603,1.57080,-3.01912,-0.09677,-0.44240,0.38561,,
5.2072,1,DESCENDING,-0.0000,1.35075,0.48228,-2.10905,0.05605,1.57080,-3.01912,-0.09677,-0.44240,0.38560,,
5.2126,1,DESCENDING,-0.0000,1.35075,0.48228,-2.10906,0.05607,1.57080,-3.01912,-0.09677,-0.44240,0.38559,,
5.2211,1,DESCENDING,-0.0000,1.35075,0.48228,-2.10909,0.05610,1.57080,-3.01912,-0.09677,-0.44240,0.38557,,
5.2327,1,DESCENDING,-0.0000,1.35075,0.48228,-2.10911,0.05612,1.57080,-3.01912,-0.09677,-0.44240,0.38556,,
5.2534,1,DESCENDING,-0.0000,1.35075,0.48227,-2.10916,0.05617,1.57080,-3.01912,-0.09677,-0.44240,0.38554,,
5.2555,1,DESCENDING,-0.0000,1.35075,0.48227,-2.10916,0.05617,1.57080,-3.01912,-0.09677,-0.44240,0.38554,,
5.2612,1,DESCENDING,-0.0000,1.35075,0.48227,-2.10916,0.05617,1.57080,-3.01912,-0.09677,-0.44240,0.38553,,
5.2736,1,DESCENDING,-0.0000,1.35075,0.48227,-2.10919,0.05621,1.57080,-3.01912,-0.09677,-0.44240,0.38552,,
5.2824,1,DESCENDING,-0.0000,1.35075,0.48227,-2.10923,0.05624,1.57080,-3.01912,-0.09677,-0.44240,0.38550,,
5.2934,1,DESCENDING,-0.0000,1.35075,0.48227,-2.10924,0.05626,1.57080,-3.01912,-0.09677,-0.44240,0.38549,,
5.3016,1,DESCENDING,-0.0000,1.35075,0.48227,-2.10926,0.05627,1.57080,-3.01912,-0.09677,-0.44240,0.38548,,
5.3155,1,DESCENDING,-0.0000,1.35075,0.48227,-2.10929,0.05631,1.57080,-3.01912,-0.09677,-0.44240,0.38546,,
5.3216,1,DESCENDING,-0.0000,1.35075,0.48227,-2.10929,0.05631,1.57080,-3.01912,-0.09677,-0.44240,0.38546,,
5.3334,1,DESCENDING,-0.0000,1.35075,0.48226,-2.10933,0.05635,1.57080,-3.01912,-0.09677,-0.44240,0.38544,,
5.3521,1,DESCENDING,-0.0000,1.35075,0.48226,-2.10938,0.05640,1.57080,-3.01912,-0.09677,-0.44240,0.38541,,
5.3559,1,DESCENDING,-0.0000,1.35075,0.48226,-2.10938,0.05641,1.57080,-3.01912,-0.09677,-0.44240,0.38541,,
5.3631,1,DESCENDING,-0.0000,1.35075,0.48226,-2.10940,0.05643,1.57080,-3.01912,-0.09677,-0.44240,0.38540,,
5.3717,1,DESCENDING,-0.0000,1.35075,0.48226,-2.10942,0.05645,1.57080,-3.01912,-0.09677,-0.44240,0.38538,,
5.3838,1,DESCENDING,-0.0000,1.35075,0.48226,-2.10943,0.05646,1.57080,-3.01912,-0.09677,-0.44240,0.38537,,
5.4015,1,DESCENDING,-0.0000,1.35075,0.48225,-2.10949,0.05652,1.57080,-3.01912,-0.09677,-0.44240,0.38534,,
5.4023,1,DESCENDING,-0.0000,1.35075,0.48225,-2.10949,0.05652,1.57080,-3.01912,-0.09677,-0.44240,0.38534,,
5.4317,1,DESCENDING,-0.0000,1.35075,0.48225,-2.10957,0.05661,1.57080,-3.01912,-0.09677,-0.44240,0.38529,,
5.4404,1,DESCENDING,-0.0000,1.35075,0.48225,-2.10957,0.05661,1.57080,-3.01912,-0.09677,-0.44240,0.38529,,
5.4574,1,DESCENDING,-0.0000,1.35075,0.48225,-2.10962,0.05666,1.57080,-3.01912,-0.09677,-0.44240,0.38527,,
5.4647,1,DESCENDING,-0.0000,1.35075,0.48224,-2.10965,0.05669,1.57080,-3.01912,-0.09677,-0.44240,0.38525,,
5.4678,1,DESCENDING,-0.0000,1.35075,0.48224,-2.10965,0.05669,1.57080,-3.01912,-0.09677,-0.44240,0.38525,,
5.4733,1,DESCENDING,-0.0000,1.35075,0.48224,-2.10965,0.05670,1.57080,-3.01912,-0.09677,-0.44240,0.38525,,
5.5236,1,DESCENDING,-0.0000,1.35075,0.48223,-2.10980,0.05685,1.57080,-3.01912,-0.09677,-0.44240,0.38516,,
5.5255,1,DESCENDING,-0.0000,1.35075,0.48223,-2.10980,0.05685,1.57080,-3.01912,-0.09677,-0.44240,0.38516,,
5.5260,1,DESCENDING,-0.0000,1.35075,0.48223,-2.10980,0.05685,1.57080,-3.01912,-0.09677,-0.44240,0.38516,,
5.5264,1,DESCENDING,-0.0000,1.35075,0.48223,-2.10980,0.05685,1.57080,-3.01912,-0.09677,-0.44240,0.38516,,
5.5329,1,DESCENDING,-0.0000,1.35075,0.48223,-2.10980,0.05685,1.57080,-3.01912,-0.09677,-0.44240,0.38516,,
5.5414,1,DESCENDING,-0.0000,1.35075,0.48223,-2.10982,0.05687,1.57080,-3.01912,-0.09677,-0.44240,0.38515,,
5.5708,1,DESCENDING,-0.0000,1.35075,0.48223,-2.10988,0.05694,1.57080,-3.01912,-0.09677,-0.44240,0.38511,,
5.5740,1,DESCENDING,-0.0000,1.35075,0.48223,-2.10990,0.05695,1.57080,-3.01912,-0.09677,-0.44240,0.38510,,
5.5820,1,DESCENDING,-0.0000,1.35075,0.48223,-2.10993,0.05699,1.57080,-3.01912,-0.09677,-0.44240,0.38509,,
5.6301,1,DESCENDING,-0.0000,1.35075,0.48222,-2.11003,0.05709,1.57080,-3.01912,-0.09677,-0.44240,0.38503,,
5.6653,1,DESCENDING,-0.0000,1.35075,0.48221,-2.11012,0.05719,1.57080,-3.01912,-0.09677,-0.44240,0.38497,,
5.6660,1,DESCENDING,-0.0000,1.35075,0.48221,-2.11012,0.05719,1.57080,-3.01912,-0.09677,-0.44240,0.38497,,
5.6683,1,DESCENDING,-0.0000,1.35075,0.48221,-2.11014,0.05721,1.57080,-3.01912,-0.09677,-0.44240,0.38496,,
5.6688,1,DESCENDING,-0.0000,1.35075,0.48221,-2.11014,0.05721,1.57080,-3.01912,-0.09677,-0.44240,0.38496,,
5.6725,1,DESCENDING,-0.0000,1.35075,0.48221,-2.11015,0.05723,1.57080,-3.01912,-0.09677,-0.44240,0.38496,,
5.6734,1,DESCENDING,-0.0000,1.35075,0.48221,-2.11015,0.05723,1.57080,-3.01912,-0.09677,-0.44240,0.38496,,
5.6835,1,DESCENDING,-0.0000,1.35075,0.48221,-2.11016,0.05724,1.57080,-3.01912,-0.09677,-0.44240,0.38495,,
5.6917,1,DESCENDING,-0.0000,1.35075,0.48221,-2.11019,0.05726,1.57080,-3.01912,-0.09677,-0.44240,0.38494,,
5.7037,1,DESCENDING,-0.0000,1.35075,0.48221,-2.11023,0.05731,1.57080,-3.01912,-0.09677,-0.44240,0.38491,,
5.7116,1,DESCENDING,-0.0000,1.35075,0.48221,-2.11023,0.05731,1.57080,-3.01912,-0.09677,-0.44240,0.38491,,
5.7239,1,DESCENDING,-0.0000,1.35075,0.48220,-2.11027,0.05735,1.57080,-3.01912,-0.09677,-0.44240,0.38489,,
5.7318,1,DESCENDING,-0.0000,1.35075,0.48220,-2.11030,0.05738,1.57080,-3.01912,-0.09677,-0.44240,0.38487,,
5.7409,1,DESCENDING,-0.0000,1.35075,0.48220,-2.11030,0.05738,1.57080,-3.01912,-0.09677,-0.44240,0.38487,,
5.7510,1,DESCENDING,-0.0000,1.35075,0.48220,-2.11032,0.05740,1.57080,-3.01912,-0.09677,-0.44240,0.38486,,
5.7645,1,DESCENDING,-0.0000,1.35075,0.48220,-2.11038,0.05746,1.57080,-3.01912,-0.09677,-0.44240,0.38482,,
5.7715,1,DESCENDING,-0.0000,1.35075,0.48220,-2.11038,0.05747,1.57080,-3.01912,-0.09677,-0.44240,0.38482,,
5.7811,1,DESCENDING,-0.0000,1.35075,0.48220,-2.11040,0.05749,1.57080,-3.01912,-0.09677,-0.44240,0.38481,,
5.7939,1,DESCENDING,-0.0000,1.35075,0.48219,-2.11044,0.05753,1.57080,-3.01912,-0.09677,-0.44240,0.38479,,
5.8030,1,DESCENDING,-0.0000,1.35075,0.48219,-2.11046,0.05755,1.57080,-3.01912,-0.09677,-0.44240,0.38478,,
5.8123,1,DESCENDING,-0.0000,1.35075,0.48219,-2.11047,0.05757,1.57080,-3.01912,-0.09677,-0.44240,0.38477,,
5.8265,1,DESCENDING,-0.0000,1.35075,0.48219,-2.11051,0.05760,1.57080,-3.01912,-0.09677,-0.44240,0.38475,,
5.8311,1,DESCENDING,-0.0000,1.35075,0.48219,-2.11051,0.05760,1.57080,-3.01912,-0.09677,-0.44240,0.38475,,
5.8491,1,DESCENDING,-0.0000,1.35075,0.48218,-2.11056,0.05766,1.57080,-3.01912,-0.09677,-0.44240,0.38472,,
5.8528,1,DESCENDING,-0.0000,1.35075,0.48218,-2.11057,0.05768,1.57080,-3.01912,-0.09677,-0.44240,0.38471,,
5.8725,1,DESCENDING,-0.0000,1.35075,0.48218,-2.11060,0.05771,1.57080,-3.01912,-0.09677,-0.44240,0.38469,,
5.8792,1,DESCENDING,-0.0000,1.35075,0.48218,-2.11061,0.05772,1.57080,-3.01912,-0.09677,-0.44240,0.38468,,
5.9082,1,DESCENDING,-0.0000,1.35075,0.48218,-2.11069,0.05780,1.57080,-3.01912,-0.09677,-0.44240,0.38464,,
5.9088,1,DESCENDING,-0.0000,1.35075,0.48218,-2.11069,0.05780,1.57080,-3.01912,-0.09677,-0.44240,0.38464,,
5.9239,1,DESCENDING,-0.0000,1.35075,0.48217,-2.11072,0.05783,1.57080,-3.01912,-0.09677,-0.44240,0.38462,,
6.0657,1,DESCENDING,-0.0000,1.35075,0.48215,-2.11104,0.05817,1.57080,-3.01912,-0.09677,-0.44240,0.38444,,
6.0661,1,DESCENDING,-0.0000,1.35075,0.48215,-2.11104,0.05817,1.57080,-3.01912,-0.09677,-0.44240,0.38444,,
6.0749,1,DESCENDING,-0.0000,1.35075,0.48215,-2.11104,0.05817,1.57080,-3.01912,-0.09677,-0.44240,0.38443,,
6.0754,1,DESCENDING,-0.0000,1.35075,0.48215,-2.11104,0.05817,1.57080,-3.01912,-0.09677,-0.44240,0.38443,,
6.1374,1,DESCENDING,-0.0000,1.35075,0.48214,-2.11118,0.05832,1.57080,-3.01912,-0.09677,-0.44240,0.38435,,
6.1378,1,DESCENDING,-0.0000,1.35075,0.48214,-2.11118,0.05832,1.57080,-3.01912,-0.09677,-0.44240,0.38435,,
6.1886,1,DESCENDING,-0.0000,1.35075,0.48214,-2.11130,0.05845,1.57080,-3.01912,-0.09677,-0.44240,0.38428,,
6.1892,1,DESCENDING,-0.0000,1.35075,0.48214,-2.11130,0.05845,1.57080,-3.01912,-0.09677,-0.44240,0.38428,,
6.2300,1,DESCENDING,-0.0000,1.35075,0.48213,-2.11139,0.05855,1.57080,-3.01912,-0.09677,-0.44240,0.38423,,
6.2565,1,DESCENDING,-0.0000,1.35075,0.48213,-2.11145,0.05861,1.57080,-3.01912,-0.09677,-0.44240,0.38420,,
6.2570,1,DESCENDING,-0.0000,1.35075,0.48213,-2.11145,0.05861,1.57080,-3.01912,-0.09677,-0.44240,0.38420,,
6.2819,1,DESCENDING,-0.0000,1.35075,0.48212,-2.11152,0.05868,1.57080,-3.01912,-0.09677,-0.44240,0.38415,,
6.2856,1,DESCENDING,-0.0000,1.35075,0.48212,-2.11152,0.05868,1.57080,-3.01912,-0.09677,-0.44240,0.38415,,
6.2963,1,DESCENDING,-0.0000,1.35075,0.48212,-2.11155,0.05872,1.57080,-3.01912,-0.09677,-0.44240,0.38413,,
6.3794,1,DESCENDING,-0.0000,1.35075,0.48211,-2.11174,0.05892,1.57080,-3.01912,-0.09677,-0.44240,0.38403,,
6.3799,1,DESCENDING,-0.0000,1.35075,0.48211,-2.11175,0.05893,1.57080,-3.01912,-0.09677,-0.44240,0.38402,,
6.3860,1,DESCENDING,-0.0000,1.35075,0.48211,-2.11176,0.05894,1.57080,-3.01912,-0.09677,-0.44240,0.38401,,
6.3865,1,DESCENDING,-0.0000,1.35075,0.48211,-2.11176,0.05894,1.57080,-3.01912,-0.09677,-0.44240,0.38401,,
6.3964,1,DESCENDING,-0.0000,1.35075,0.48210,-2.11181,0.05899,1.57080,-3.01912,-0.09677,-0.44240,0.38398,,
6.4059,1,DESCENDING,-0.0000,1.35075,0.48210,-2.11181,0.05899,1.57080,-3.01912,-0.09677,-0.44240,0.38398,,
6.4144,1,DESCENDING,-0.0000,1.35075,0.48210,-2.11183,0.05901,1.57080,-3.01912,-0.09677,-0.44240,0.38397,,
6.4345,1,DESCENDING,-0.0000,1.35075,0.48210,-2.11188,0.05906,1.57080,-3.01912,-0.09677,-0.44240,0.38394,,
6.4587,1,DESCENDING,-0.0000,1.35075,0.48209,-2.11195,0.05914,1.57080,-3.01912,-0.09677,-0.44240,0.38390,,
6.4592,1,DESCENDING,-0.0000,1.35075,0.48209,-2.11195,0.05914,1.57080,-3.01912,-0.09677,-0.44240,0.38390,,
6.4628,1,DESCENDING,-0.0000,1.35075,0.48209,-2.11195,0.05914,1.57080,-3.01912,-0.09677,-0.44240,0.38390,,
6.5130,1,DESCENDING,-0.0000,1.35075,0.48209,-2.11207,0.05927,1.57080,-3.01912,-0.09677,-0.44240,0.38383,,
6.5166,1,DESCENDING,-0.0000,1.35075,0.48208,-2.11208,0.05928,1.57080,-3.01912,-0.09677,-0.44240,0.38382,,
6.5986,1,DESCENDING,-0.0000,1.35075,0.48207,-2.11225,0.05946,1.57080,-3.01912,-0.09677,-0.44240,0.38372,,
6.5989,1,DESCENDING,-0.0000,1.35075,0.48207,-2.11225,0.05946,1.57080,-3.01912,-0.09677,-0.44240,0.38372,,
6.6235,1,DESCENDING,-0.0000,1.35075,0.48207,-2.11231,0.05952,1.57080,-3.01912,-0.09677,-0.44240,0.38369,,
6.6240,1,DESCENDING,-0.0000,1.35075,0.48207,-2.11231,0.05952,1.57080,-3.01912,-0.09677,-0.44240,0.38369,,
6.6614,1,DESCENDING,-0.0000,1.35075,0.48206,-2.11240,0.05962,1.57080,-3.01912,-0.09677,-0.44240,0.38364,,
6.6703,1,DESCENDING,-0.0000,1.35075,0.48206,-2.11243,0.05966,1.57080,-3.01912,-0.09677,-0.44240,0.38362,,
6.6812,1,DESCENDING,-0.0000,1.35075,0.48206,-2.11244,0.05966,1.57080,-3.01912,-0.09677,-0.44240,0.38361,,
6.6980,1,DESCENDING,-0.0000,1.35075,0.48206,-2.11248,0.05971,1.57080,-3.01912,-0.09677,-0.44240,0.38359,,
6.7084,1,DESCENDING,-0.0000,1.35075,0.48206,-2.11249,0.05972,1.57080,-3.01912,-0.09677,-0.44240,0.38358,,
6.7123,1,DESCENDING,-0.0000,1.35075,0.48206,-2.11250,0.05973,1.57080,-3.01912,-0.09677,-0.44240,0.38358,,
6.8136,1,DESCENDING,-0.0000,1.35075,0.48204,-2.11273,0.05998,1.57080,-3.01912,-0.09677,-0.44240,0.38344,,
6.8140,1,DESCENDING,-0.0000,1.35075,0.48204,-2.11273,0.05998,1.57080,-3.01912,-0.09677,-0.44240,0.38344,,
6.8217,1,DESCENDING,-0.0000,1.35075,0.48204,-2.11275,0.05999,1.57080,-3.01912,-0.09677,-0.44240,0.38343,,
6.8222,1,DESCENDING,-0.0000,1.35075,0.48204,-2.11275,0.05999,1.57080,-3.01912,-0.09677,-0.44240,0.38343,,
6.8225,1,DESCENDING,-0.0000,1.35075,0.48204,-2.11275,0.05999,1.57080,-3.01912,-0.09677,-0.44240,0.38343,,
6.8448,1,DESCENDING,-0.0000,1.35075,0.48204,-2.11281,0.06006,1.57080,-3.01912,-0.09677,-0.44240,0.38339,,
6.9739,1,DESCENDING,-0.0000,1.35075,0.48201,-2.11312,0.06039,1.57080,-3.01912,-0.09677,-0.44240,0.38322,,
6.9744,1,DESCENDING,-0.0000,1.35075,0.48201,-2.11312,0.06039,1.57080,-3.01912,-0.09677,-0.44240,0.38322,,
7.1828,1,DESCENDING,-0.0000,1.35075,0.48198,-2.11363,0.06094,1.57080,-3.01912,-0.09677,-0.44240,0.38291,,
7.1943,1,DESCENDING,-0.0000,1.35075,0.48198,-2.11364,0.06095,1.57080,-3.01912,-0.09677,-0.44240,0.38291,,
7.1947,1,DESCENDING,-0.0000,1.35075,0.48198,-2.11364,0.06095,1.57080,-3.01912,-0.09677,-0.44240,0.38291,,
7.1951,1,DESCENDING,-0.0000,1.35075,0.48198,-2.11364,0.06095,1.57080,-3.01912,-0.09677,-0.44240,0.38291,,
7.2037,1,DESCENDING,-0.0000,1.35075,0.48198,-2.11366,0.06097,1.57080,-3.01912,-0.09677,-0.44240,0.38290,,
7.2131,1,DESCENDING,-0.0000,1.35075,0.48198,-2.11368,0.06099,1.57080,-3.01912,-0.09677,-0.44240,0.38288,,
7.2269,1,DESCENDING,-0.0000,1.35075,0.48197,-2.11371,0.06102,1.57080,-3.01912,-0.09677,-0.44240,0.38287,,
7.2335,1,DESCENDING,-0.0000,1.35075,0.48197,-2.11373,0.06105,1.57080,-3.01912,-0.09677,-0.44240,0.38285,,
7.2454,1,DESCENDING,-0.0000,1.35075,0.48197,-2.11375,0.06107,1.57080,-3.01912,-0.09677,-0.44240,0.38284,,
7.2607,1,DESCENDING,-0.0000,1.35075,0.48197,-2.11380,0.06112,1.57080,-3.01912,-0.09677,-0.44240,0.38282,,
7.2655,1,DESCENDING,-0.0000,1.35075,0.48197,-2.11382,0.06113,1.57080,-3.01912,-0.09677,-0.44240,0.38281,,
7.2708,1,DESCENDING,-0.0000,1.35075,0.48197,-2.11383,0.06115,1.57080,-3.01912,-0.09677,-0.44240,0.38280,,
7.2852,1,DESCENDING,-0.0000,1.35075,0.48196,-2.11385,0.06117,1.57080,-3.01912,-0.09677,-0.44240,0.38279,,
7.2955,1,DESCENDING,-0.0000,1.35075,0.48196,-2.11388,0.06120,1.57080,-3.01912,-0.09677,-0.44240,0.38277,,
7.3012,1,DESCENDING,-0.0000,1.35075,0.48196,-2.11391,0.06123,1.57080,-3.01912,-0.09677,-0.44240,0.38275,,
7.3137,1,DESCENDING,-0.0000,1.35075,0.48196,-2.11392,0.06124,1.57080,-3.01912,-0.09677,-0.44240,0.38275,,
7.3233,1,DESCENDING,-0.0000,1.35075,0.48196,-2.11394,0.06126,1.57080,-3.01912,-0.09677,-0.44240,0.38274,,
7.3361,1,DESCENDING,-0.0000,1.35075,0.48196,-2.11396,0.06129,1.57080,-3.01912,-0.09677,-0.44240,0.38272,,
7.3576,1,DESCENDING,-0.0000,1.35075,0.48195,-2.11403,0.06136,1.57080,-3.01912,-0.09677,-0.44240,0.38268,,
7.3588,1,DESCENDING,-0.0000,1.35075,0.48195,-2.11403,0.06136,1.57080,-3.01912,-0.09677,-0.44240,0.38268,,
7.3738,1,DESCENDING,-0.0000,1.35075,0.48195,-2.11405,0.06138,1.57080,-3.01912,-0.09677,-0.44240,0.38267,,
7.3759,1,DESCENDING,-0.0000,1.35075,0.48195,-2.11405,0.06138,1.57080,-3.01912,-0.09677,-0.44240,0.38267,,
7.4065,1,DESCENDING,-0.0000,1.35075,0.48195,-2.11412,0.06145,1.57080,-3.01912,-0.09677,-0.44240,0.38263,,
7.4070,1,DESCENDING,-0.0000,1.35075,0.48195,-2.11412,0.06145,1.57080,-3.01912,-0.09677,-0.44240,0.38263,,
7.4108,1,DESCENDING,-0.0000,1.35075,0.48195,-2.11413,0.06147,1.57080,-3.01912,-0.09677,-0.44240,0.38262,,
7.4247,1,DESCENDING,-0.0000,1.35075,0.48194,-2.11418,0.06152,1.57080,-3.01912,-0.09677,-0.44240,0.38260,,
7.4333,1,DESCENDING,-0.0000,1.35075,0.48194,-2.11419,0.06153,1.57080,-3.01912,-0.09677,-0.44240,0.38259,,
7.4452,1,DESCENDING,-0.0000,1.35075,0.48194,-2.11423,0.06157,1.57080,-3.01912,-0.09677,-0.44240,0.38257,,
7.4744,1,DESCENDING,-0.0000,1.35075,0.48193,-2.11429,0.06164,1.57080,-3.01912,-0.09677,-0.44240,0.38253,,
7.4811,1,DESCENDING,-0.0000,1.35075,0.48193,-2.11432,0.06167,1.57080,-3.01912,-0.09677,-0.44240,0.38251,,
7.4912,1,DESCENDING,-0.0000,1.35075,0.48193,-2.11432,0.06168,1.57080,-3.01912,-0.09677,-0.44240,0.38251,,
7.5013,1,DESCENDING,-0.0000,1.35075,0.48193,-2.11435,0.06171,1.57080,-3.01912,-0.09677,-0.44240,0.38249,,
7.5160,1,DESCENDING,-0.0000,1.35075,0.48193,-2.11439,0.06174,1.57080,-3.01912,-0.09677,-0.44240,0.38247,,
7.5276,1,DESCENDING,-0.0000,1.35075,0.48193,-2.11441,0.06176,1.57080,-3.01912,-0.09677,-0.44240,0.38246,,
7.5328,1,DESCENDING,-0.0000,1.35075,0.48192,-2.11443,0.06179,1.57080,-3.01912,-0.09677,-0.44240,0.38244,,
7.5485,1,DESCENDING,-0.0000,1.35075,0.48192,-2.11447,0.06183,1.57080,-3.01912,-0.09677,-0.44240,0.38243,,
7.5529,1,DESCENDING,-0.0000,1.35075,0.48192,-2.11447,0.06184,1.57080,-3.01912,-0.09677,-0.44240,0.38242,,
7.5626,1,DESCENDING,-0.0000,1.35075,0.48192,-2.11450,0.06186,1.57080,-3.01912,-0.09677,-0.44240,0.38241,,
7.5707,1,DESCENDING,-0.0000,1.35075,0.48192,-2.11453,0.06190,1.57080,-3.01912,-0.09677,-0.44240,0.38239,,
7.5813,1,DESCENDING,-0.0000,1.35075,0.48192,-2.11455,0.06191,1.57080,-3.01912,-0.09677,-0.44240,0.38238,,
7.5910,1,DESCENDING,-0.0000,1.35075,0.48192,-2.11456,0.06193,1.57080,-3.01912,-0.09677,-0.44240,0.38237,,
7.6090,1,DESCENDING,-0.0000,1.35075,0.48191,-2.11460,0.06197,1.57080,-3.01912,-0.09677,-0.44240,0.38235,,
7.6122,1,DESCENDING,-0.0000,1.35075,0.48191,-2.11460,0.06197,1.57080,-3.01912,-0.09677,-0.44240,0.38235,,
7.6210,1,DESCENDING,-0.0000,1.35075,0.48191,-2.11463,0.06201,1.57080,-3.01912,-0.09677,-0.44240,0.38233,,
7.6394,1,DESCENDING,-0.0000,1.35075,0.48191,-2.11468,0.06206,1.57080,-3.01912,-0.09677,-0.44240,0.38230,,
7.6413,1,DESCENDING,-0.0000,1.35075,0.48191,-2.11468,0.06206,1.57080,-3.01912,-0.09677,-0.44240,0.38230,,
7.6551,1,DESCENDING,-0.0000,1.35075,0.48191,-2.11470,0.06208,1.57080,-3.01912,-0.09677,-0.44240,0.38229,,
7.6737,1,DESCENDING,-0.0000,1.35075,0.48190,-2.11474,0.06212,1.57080,-3.01912,-0.09677,-0.44240,0.38227,,
7.6860,1,DESCENDING,-0.0000,1.35075,0.48190,-2.11478,0.06216,1.57080,-3.01912,-0.09677,-0.44240,0.38224,,
7.6911,1,DESCENDING,-0.0000,1.35075,0.48190,-2.11480,0.06218,1.57080,-3.01912,-0.09677,-0.44240,0.38223,,
7.7129,1,DESCENDING,-0.0000,1.35075,0.48190,-2.11484,0.06222,1.57080,-3.01912,-0.09677,-0.44240,0.38221,,
7.7265,1,DESCENDING,-0.0000,1.35075,0.48189,-2.11486,0.06225,1.57080,-3.01912,-0.09677,-0.44240,0.38219,,
7.7310,1,DESCENDING,-0.0000,1.35075,0.48189,-2.11486,0.06225,1.57080,-3.01912,-0.09677,-0.44240,0.38219,,
7.7427,1,DESCENDING,-0.0000,1.35075,0.48189,-2.11490,0.06229,1.57080,-3.01912,-0.09677,-0.44240,0.38217,,
7.7515,1,DESCENDING,-0.0000,1.35075,0.48189,-2.11493,0.06232,1.57080,-3.01912,-0.09677,-0.44240,0.38215,,
7.7677,1,DESCENDING,-0.0000,1.35075,0.48189,-2.11495,0.06235,1.57080,-3.01912,-0.09677,-0.44240,0.38214,,
7.7724,1,DESCENDING,-0.0000,1.35075,0.48189,-2.11496,0.06236,1.57080,-3.01912,-0.09677,-0.44240,0.38214,,
7.7826,1,DESCENDING,-0.0000,1.35075,0.48188,-2.11499,0.06239,1.57080,-3.01912,-0.09677,-0.44240,0.38212,,
7.7920,1,DESCENDING,-0.0000,1.35075,0.48188,-2.11500,0.06240,1.57080,-3.01912,-0.09677,-0.44240,0.38211,,
7.8081,1,DESCENDING,-0.0000,1.35075,0.48188,-2.11504,0.06245,1.57080,-3.01912,-0.09677,-0.44240,0.38209,,
7.8130,1,DESCENDING,-0.0000,1.35075,0.48188,-2.11508,0.06248,1.57080,-3.01912,-0.09677,-0.44240,0.38207,,
7.8210,1,DESCENDING,-0.0000,1.35075,0.48188,-2.11508,0.06248,1.57080,-3.01912,-0.09677,-0.44240,0.38207,,
7.8331,1,DESCENDING,-0.0000,1.35075,0.48188,-2.11510,0.06251,1.57080,-3.01912,-0.09677,-0.44240,0.38205,,
7.8457,1,DESCENDING,-0.0000,1.35075,0.48188,-2.11513,0.06253,1.57080,-3.01912,-0.09677,-0.44240,0.38204,,
7.8533,1,DESCENDING,-0.0000,1.35075,0.48187,-2.11514,0.06255,1.57080,-3.01912,-0.09677,-0.44240,0.38203,,
7.8754,1,DESCENDING,-0.0000,1.35075,0.48187,-2.11521,0.06262,1.57080,-3.01912,-0.09677,-0.44240,0.38199,,
7.8759,1,DESCENDING,-0.0000,1.35075,0.48187,-2.11521,0.06262,1.57080,-3.01912,-0.09677,-0.44240,0.38199,,
7.8813,1,DESCENDING,-0.0000,1.35075,0.48187,-2.11521,0.06262,1.57080,-3.01912,-0.09677,-0.44240,0.38199,,
7.8935,1,DESCENDING,-0.0000,1.35075,0.48187,-2.11523,0.06265,1.57080,-3.01912,-0.09677,-0.44240,0.38198,,
7.9011,1,DESCENDING,-0.0000,1.35075,0.48187,-2.11526,0.06268,1.57080,-3.01912,-0.09677,-0.44240,0.38196,,
7.9114,1,DESCENDING,-0.0000,1.35075,0.48187,-2.11526,0.06268,1.57080,-3.01912,-0.09677,-0.44240,0.38196,,
7.9237,1,DESCENDING,-0.0000,1.35075,0.48186,-2.11529,0.06271,1.57080,-3.01912,-0.09677,-0.44240,0.38194,,
7.9440,1,DESCENDING,-0.0000,1.35075,0.48186,-2.11534,0.06277,1.57080,-3.01912,-0.09677,-0.44240,0.38191,,
7.9450,1,DESCENDING,-0.0000,1.35075,0.48186,-2.11535,0.06277,1.57080,-3.01912,-0.09677,-0.44240,0.38191,,
7.9536,1,DESCENDING,-0.0000,1.35075,0.48186,-2.11537,0.06279,1.57080,-3.01912,-0.09677,-0.44240,0.38190,,
7.9637,1,DESCENDING,-0.0000,1.35075,0.48186,-2.11539,0.06282,1.57080,-3.01912,-0.09677,-0.44240,0.38188,,
7.9776,1,DESCENDING,-0.0000,1.35075,0.48186,-2.11541,0.06284,1.57080,-3.01912,-0.09677,-0.44240,0.38187,,
7.9834,1,DESCENDING,-0.0000,1.35075,0.48185,-2.11543,0.06286,1.57080,-3.01912,-0.09677,-0.44240,0.38186,,
7.9956,1,DESCENDING,-0.0000,1.35075,0.48185,-2.11547,0.06291,1.57080,-3.01912,-0.09677,-0.44240,0.38183,,
8.0034,1,DESCENDING,-0.0000,1.35075,0.48185,-2.11547,0.06291,1.57080,-3.01912,-0.09677,-0.44240,0.38183,,
8.0122,1,DESCENDING,-0.0000,1.35075,0.48185,-2.11549,0.06292,1.57080,-3.01912,-0.09677,-0.44240,0.38183,,
8.0228,1,DESCENDING,-0.0000,1.35075,0.48185,-2.11552,0.06296,1.57080,-3.01912,-0.09677,-0.44240,0.38181,,
8.0334,1,DESCENDING,-0.0000,1.35075,0.48185,-2.11553,0.06297,1.57080,-3.01912,-0.09677,-0.44240,0.38180,,
8.0414,1,DESCENDING,-0.0000,1.35075,0.48184,-2.11556,0.06300,1.57080,-3.01912,-0.09677,-0.44240,0.38178,,
8.0521,1,DESCENDING,-0.0000,1.35075,0.48184,-2.11559,0.06303,1.57080,-3.01912,-0.09677,-0.44240,0.38177,,
8.0653,1,DESCENDING,-0.0000,1.35075,0.48184,-2.11561,0.06306,1.57080,-3.01912,-0.09677,-0.44240,0.38175,,
8.0750,1,DESCENDING,-0.0000,1.35075,0.48184,-2.11563,0.06308,1.57080,-3.01912,-0.09677,-0.44240,0.38174,,
8.0836,1,DESCENDING,-0.0000,1.35075,0.48184,-2.11566,0.06310,1.57080,-3.01912,-0.09677,-0.44240,0.38173,,
8.0930,1,DESCENDING,-0.0000,1.35075,0.48184,-2.11567,0.06311,1.57080,-3.01912,-0.09677,-0.44240,0.38172,,
8.1144,1,DESCENDING,-0.0000,1.35075,0.48183,-2.11574,0.06319,1.57080,-3.01912,-0.09677,-0.44240,0.38168,,
8.1148,1,DESCENDING,-0.0000,1.35075,0.48183,-2.11574,0.06319,1.57080,-3.01912,-0.09677,-0.44240,0.38168,,
8.1264,1,DESCENDING,-0.0000,1.35075,0.48183,-2.11575,0.06320,1.57080,-3.01912,-0.09677,-0.44240,0.38167,,
8.1311,1,DESCENDING,-0.0000,1.35075,0.48183,-2.11576,0.06321,1.57080,-3.01912,-0.09677,-0.44240,0.38167,,
8.1413,1,DESCENDING,-0.0000,1.35075,0.48183,-2.11580,0.06326,1.57080,-3.01912,-0.09677,-0.44240,0.38164,,
8.1525,1,DESCENDING,-0.0000,1.35075,0.48183,-2.11582,0.06328,1.57080,-3.01912,-0.09677,-0.44240,0.38163,,
8.1611,1,DESCENDING,-0.0000,1.35075,0.48183,-2.11583,0.06329,1.57080,-3.01912,-0.09677,-0.44240,0.38162,,
8.1739,1,DESCENDING,-0.0000,1.35075,0.48182,-2.11587,0.06333,1.57080,-3.01912,-0.09677,-0.44240,0.38160,,
8.1818,1,DESCENDING,-0.0000,1.35075,0.48182,-2.11587,0.06333,1.57080,-3.01912,-0.09677,-0.44240,0.38160,,
8.1954,1,DESCENDING,-0.0000,1.35075,0.48182,-2.11590,0.06337,1.57080,-3.01912,-0.09677,-0.44240,0.38158,,
8.2014,1,DESCENDING,-0.0000,1.35075,0.48182,-2.11594,0.06340,1.57080,-3.01912,-0.09677,-0.44240,0.38156,,
8.2230,1,DESCENDING,-0.0000,1.35075,0.48182,-2.11597,0.06343,1.57080,-3.01912,-0.09677,-0.44240,0.38155,,
8.2277,1,DESCENDING,-0.0000,1.35075,0.48182,-2.11598,0.06345,1.57080,-3.01912,-0.09677,-0.44240,0.38154,,
8.2310,1,DESCENDING,-0.0000,1.35075,0.48181,-2.11599,0.06346,1.57080,-3.01912,-0.09677,-0.44240,0.38153,,
8.2439,1,DESCENDING,-0.0000,1.35075,0.48181,-2.11600,0.06347,1.57080,-3.01912,-0.09677,-0.44240,0.38152,,
8.2514,1,DESCENDING,-0.0000,1.35075,0.48181,-2.11602,0.06350,1.57080,-3.01912,-0.09677,-0.44240,0.38151,,
8.2635,1,DESCENDING,-0.0000,1.35075,0.48181,-2.11607,0.06354,1.57080,-3.01912,-0.09677,-0.44240,0.38149,,
8.2716,1,DESCENDING,-0.0000,1.35075,0.48181,-2.11608,0.06356,1.57080,-3.01912,-0.09677,-0.44240,0.38148,,
8.2852,1,DESCENDING,-0.0000,1.35075,0.48181,-2.11611,0.06359,1.57080,-3.01912,-0.09677,-0.44240,0.38146,,
8.2951,1,DESCENDING,-0.0000,1.35075,0.48180,-2.11613,0.06361,1.57080,-3.01912,-0.09677,-0.44240,0.38145,,
8.3013,1,DESCENDING,-0.0000,1.35075,0.48180,-2.11614,0.06362,1.57080,-3.01912,-0.09677,-0.44240,0.38145,,
8.3117,1,DESCENDING,-0.0000,1.35075,0.48180,-2.11615,0.06364,1.57080,-3.01912,-0.09677,-0.44240,0.38143,,
8.3214,1,DESCENDING,-0.0000,1.35075,0.48180,-2.11620,0.06369,1.57080,-3.01912,-0.09677,-0.44240,0.38141,,
8.3310,1,DESCENDING,-0.0000,1.35075,0.48180,-2.11622,0.06370,1.57080,-3.01912,-0.09677,-0.44240,0.38140,,
8.3455,1,DESCENDING,-0.0000,1.35075,0.48180,-2.11624,0.06373,1.57080,-3.01912,-0.09677,-0.44240,0.38138,,
8.3536,1,DESCENDING,-0.0000,1.35075,0.48179,-2.11627,0.06376,1.57080,-3.01912,-0.09677,-0.44240,0.38137,,
8.3676,1,DESCENDING,-0.0000,1.35075,0.48179,-2.11628,0.06377,1.57080,-3.01912,-0.09677,-0.44240,0.38136,,
8.3726,1,DESCENDING,-0.0000,1.35075,0.48179,-2.11629,0.06378,1.57080,-3.01912,-0.09677,-0.44240,0.38136,,
8.3868,1,DESCENDING,-0.0000,1.35075,0.48179,-2.11635,0.06384,1.57080,-3.01912,-0.09677,-0.44240,0.38132,,
8.3937,1,DESCENDING,-0.0000,1.35075,0.48179,-2.11635,0.06385,1.57080,-3.01912,-0.09677,-0.44240,0.38132,,
8.4012,1,DESCENDING,-0.0000,1.35075,0.48179,-2.11636,0.06386,1.57080,-3.01912,-0.09677,-0.44240,0.38131,,
8.4122,1,DESCENDING,-0.0000,1.35075,0.48179,-2.11639,0.06388,1.57080,-3.01912,-0.09677,-0.44240,0.38130,,
8.4225,1,DESCENDING,-0.0000,1.35075,0.48178,-2.11640,0.06390,1.57080,-3.01912,-0.09677,-0.44240,0.38129,,
8.4310,1,DESCENDING,-0.0000,1.35075,0.48178,-2.11642,0.06392,1.57080,-3.01912,-0.09677,-0.44240,0.38128,,
8.4410,1,DESCENDING,-0.0000,1.35075,0.48178,-2.11645,0.06395,1.57080,-3.01912,-0.09677,-0.44240,0.38126,,
8.4509,1,DESCENDING,-0.0000,1.35075,0.48178,-2.11648,0.06399,1.57080,-3.01912,-0.09677,-0.44240,0.38124,,
8.4614,1,DESCENDING,-0.0000,1.35075,0.48178,-2.11650,0.06400,1.57080,-3.01912,-0.09677,-0.44240,0.38123,,
8.4742,1,DESCENDING,-0.0000,1.35075,0.48178,-2.11653,0.06404,1.57080,-3.01912,-0.09677,-0.44240,0.38121,,
8.4854,1,DESCENDING,-0.0000,1.35075,0.48177,-2.11654,0.06405,1.57080,-3.01912,-0.09677,-0.44240,0.38121,,
8.4919,1,DESCENDING,-0.0000,1.35075,0.48177,-2.11655,0.06406,1.57080,-3.01912,-0.09677,-0.44240,0.38120,,
8.5016,1,DESCENDING,-0.0000,1.35075,0.48177,-2.11660,0.06411,1.57080,-3.01912,-0.09677,-0.44240,0.38117,,
8.5122,1,DESCENDING,-0.0000,1.35075,0.48177,-2.11661,0.06413,1.57080,-3.01912,-0.09677,-0.44240,0.38117,,
8.5333,1,DESCENDING,-0.0000,1.35075,0.48177,-2.11666,0.06418,1.57080,-3.01912,-0.09677,-0.44240,0.38114,,
8.5442,1,DESCENDING,-0.0000,1.35075,0.48177,-2.11667,0.06418,1.57080,-3.01912,-0.09677,-0.44240,0.38113,,
8.5533,1,DESCENDING,-0.0000,1.35075,0.48176,-2.11670,0.06422,1.57080,-3.01912,-0.09677,-0.44240,0.38111,,
8.5779,1,DESCENDING,-0.0000,1.35075,0.48176,-2.11675,0.06428,1.57080,-3.01912,-0.09677,-0.44240,0.38108,,
8.5822,1,DESCENDING,-0.0000,1.35075,0.48176,-2.11676,0.06429,1.57080,-3.01912,-0.09677,-0.44240,0.38108,,
8.5844,1,DESCENDING,-0.0000,1.35075,0.48176,-2.11676,0.06429,1.57080,-3.01912,-0.09677,-0.44240,0.38108,,
8.5947,1,DESCENDING,-0.0000,1.35075,0.48176,-2.11680,0.06432,1.57080,-3.01912,-0.09677,-0.44240,0.38106,,
8.6016,1,DESCENDING,-0.0000,1.35075,0.48176,-2.11680,0.06433,1.57080,-3.01912,-0.09677,-0.44240,0.38106,,
8.6172,1,DESCENDING,-0.0000,1.35075,0.48175,-2.11685,0.06438,1.57080,-3.01912,-0.09677,-0.44240,0.38103,,
8.6263,1,DESCENDING,-0.0000,1.35075,0.48175,-2.11688,0.06441,1.57080,-3.01912,-0.09677,-0.44240,0.38101,,
8.6339,1,DESCENDING,-0.0000,1.35075,0.48175,-2.11688,0.06441,1.57080,-3.01912,-0.09677,-0.44240,0.38101,,
8.7311,1,DESCENDING,-0.0000,1.35075,0.48173,-2.11708,0.06463,1.57080,-3.01912,-0.09677,-0.44240,0.38089,,
8.7351,1,DESCENDING,-0.0000,1.35075,0.48173,-2.11710,0.06465,1.57080,-3.01912,-0.09677,-0.44240,0.38088,,
8.7355,1,DESCENDING,-0.0000,1.35075,0.48173,-2.11710,0.06465,1.57080,-3.01912,-0.09677,-0.44240,0.38088,,
8.7577,1,DESCENDING,-0.0000,1.35075,0.48173,-2.11715,0.06471,1.57080,-3.01912,-0.09677,-0.44240,0.38085,,
8.7679,1,DESCENDING,-0.0000,1.35075,0.48173,-2.11718,0.06473,1.57080,-3.01912,-0.09677,-0.44240,0.38083,,
8.7903,1,DESCENDING,-0.0000,1.35075,0.48172,-2.11723,0.06479,1.57080,-3.01912,-0.09677,-0.44240,0.38080,,
8.7969,1,DESCENDING,-0.0000,1.35075,0.48172,-2.11726,0.06482,1.57080,-3.01912,-0.09677,-0.44240,0.38079,,
8.7979,1,DESCENDING,-0.0000,1.35075,0.48172,-2.11726,0.06482,1.57080,-3.01912,-0.09677,-0.44240,0.38079,,
8.8013,1,DESCENDING,-0.0000,1.35075,0.48172,-2.11727,0.06483,1.57080,-3.01912,-0.09677,-0.44240,0.38078,,
8.8110,1,DESCENDING,-0.0000,1.35075,0.48172,-2.11729,0.06485,1.57080,-3.01912,-0.09677,-0.44240,0.38077,,
8.8213,1,DESCENDING,-0.0000,1.35075,0.48172,-2.11731,0.06487,1.57080,-3.01912,-0.09677,-0.44240,0.38076,,
8.8372,1,DESCENDING,-0.0000,1.35075,0.48172,-2.11735,0.06492,1.57080,-3.01912,-0.09677,-0.44240,0.38073,,
8.8416,1,DESCENDING,-0.0000,1.35075,0.48172,-2.11735,0.06492,1.57080,-3.01912,-0.09677,-0.44240,0.38073,,
8.8516,1,DESCENDING,-0.0000,1.35075,0.48171,-2.11737,0.06494,1.57080,-3.01912,-0.09677,-0.44240,0.38072,,
8.8620,1,DESCENDING,-0.0000,1.35075,0.48171,-2.11742,0.06499,1.57080,-3.01912,-0.09677,-0.44240,0.38069,,
8.8753,1,DESCENDING,-0.0000,1.35075,0.48171,-2.11743,0.06501,1.57080,-3.01912,-0.09677,-0.44240,0.38068,,
8.8834,1,DESCENDING,-0.0000,1.35075,0.48171,-2.11745,0.06503,1.57080,-3.01912,-0.09677,-0.44240,0.38067,,
8.9022,1,DESCENDING,-0.0000,1.35075,0.48170,-2.11751,0.06509,1.57080,-3.01912,-0.09677,-0.44240,0.38064,,
8.9028,1,DESCENDING,-0.0000,1.35075,0.48170,-2.11751,0.06509,1.57080,-3.01912,-0.09677,-0.44240,0.38064,,
8.9141,1,DESCENDING,-0.0000,1.35075,0.48170,-2.11753,0.06511,1.57080,-3.01912,-0.09677,-0.44240,0.38063,,
8.9229,1,DESCENDING,-0.0000,1.35075,0.48170,-2.11755,0.06513,1.57080,-3.01912,-0.09677,-0.44240,0.38062,,
8.9338,1,DESCENDING,-0.0000,1.35075,0.48170,-2.11756,0.06515,1.57080,-3.01912,-0.09677,-0.44240,0.38061,,
8.9453,1,DESCENDING,-0.0000,1.35075,0.48170,-2.11760,0.06518,1.57080,-3.01912,-0.09677,-0.44240,0.38059,,
8.9574,1,DESCENDING,-0.0000,1.35075,0.48169,-2.11764,0.06523,1.57080,-3.01912,-0.09677,-0.44240,0.38056,,
8.9932,1,DESCENDING,-0.0000,1.35075,0.48169,-2.11770,0.06529,1.57080,-3.01912,-0.09677,-0.44240,0.38053,,
8.9937,1,DESCENDING,-0.0000,1.35075,0.48169,-2.11770,0.06529,1.57080,-3.01912,-0.09677,-0.44240,0.38053,,
8.9980,1,DESCENDING,-0.0000,1.35075,0.48169,-2.11770,0.06530,1.57080,-3.01912,-0.09677,-0.44240,0.38052,,
9.0021,1,DESCENDING,-0.0000,1.35075,0.48169,-2.11772,0.06531,1.57080,-3.01912,-0.09677,-0.44240,0.38052,,
9.0138,1,DESCENDING,-0.0000,1.35075,0.48169,-2.11776,0.06536,1.57080,-3.01912,-0.09677,-0.44240,0.38049,,
9.0220,1,DESCENDING,-0.0000,1.35075,0.48168,-2.11778,0.06538,1.57080,-3.01912,-0.09677,-0.44240,0.38048,,
9.0371,1,DESCENDING,-0.0000,1.35075,0.48168,-2.11780,0.06540,1.57080,-3.01912,-0.09677,-0.44240,0.38047,,
9.0539,1,DESCENDING,-0.0000,1.35075,0.48168,-2.11783,0.06543,1.57080,-3.01912,-0.09677,-0.44240,0.38045,,
9.0542,1,DESCENDING,-0.0000,1.35075,0.48168,-2.11783,0.06543,1.57080,-3.01912,-0.09677,-0.44240,0.38045,,
9.1083,1,DESCENDING,-0.0000,1.35075,0.48167,-2.11796,0.06557,1.57080,-3.01912,-0.09677,-0.44240,0.38037,,
9.1089,1,DESCENDING,-0.0000,1.35075,0.48167,-2.11796,0.06557,1.57080,-3.01912,-0.09677,-0.44240,0.38037,,
9.1160,1,DESCENDING,-0.0000,1.35075,0.48167,-2.11796,0.06558,1.57080,-3.01912,-0.09677,-0.44240,0.38037,,
9.1172,1,DESCENDING,-0.0000,1.35075,0.48167,-2.11797,0.06558,1.57080,-3.01912,-0.09677,-0.44240,0.38037,,
9.1240,1,DESCENDING,-0.0000,1.35075,0.48167,-2.11798,0.06560,1.57080,-3.01912,-0.09677,-0.44240,0.38036,,
9.1251,1,DESCENDING,-0.0000,1.35075,0.48167,-2.11799,0.06561,1.57080,-3.01912,-0.09677,-0.44240,0.38035,,
9.1470,1,DESCENDING,-0.0000,1.35075,0.48166,-2.11804,0.06566,1.57080,-3.01912,-0.09677,-0.44240,0.38033,,
9.1512,1,DESCENDING,-0.0000,1.35075,0.48166,-2.11805,0.06567,1.57080,-3.01912,-0.09677,-0.44240,0.38032,,
9.1522,1,DESCENDING,-0.0000,1.35075,0.48166,-2.11805,0.06567,1.57080,-3.01912,-0.09677,-0.44240,0.38032,,
9.1645,1,DESCENDING,-0.0000,1.35075,0.48166,-2.11808,0.06570,1.57080,-3.01912,-0.09677,-0.44240,0.38030,,
9.1734,1,DESCENDING,-0.0000,1.35075,0.48166,-2.11809,0.06572,1.57080,-3.01912,-0.09677,-0.44240,0.38029,,
9.1854,1,DESCENDING,-0.0000,1.35075,0.48166,-2.11813,0.06575,1.57080,-3.01912,-0.09677,-0.44240,0.38028,,
9.1926,1,DESCENDING,-0.0000,1.35075,0.48166,-2.11814,0.06577,1.57080,-3.01912,-0.09677,-0.44240,0.38027,,
9.2027,1,DESCENDING,-0.0000,1.35075,0.48165,-2.11817,0.06580,1.57080,-3.01912,-0.09677,-0.44240,0.38025,,
9.2128,1,DESCENDING,-0.0000,1.35075,0.48165,-2.11819,0.06582,1.57080,-3.01912,-0.09677,-0.44240,0.38024,,
9.2216,1,DESCENDING,-0.0000,1.35075,0.48165,-2.11821,0.06584,1.57080,-3.01912,-0.09677,-0.44240,0.38023,,
9.2471,1,DESCENDING,-0.0000,1.35075,0.48165,-2.11826,0.06589,1.57080,-3.01912,-0.09677,-0.44240,0.38020,,
9.2480,1,DESCENDING,-0.0000,1.35075,0.48165,-2.11826,0.06589,1.57080,-3.01912,-0.09677,-0.44240,0.38020,,
9.2530,1,DESCENDING,-0.0000,1.35075,0.48165,-2.11829,0.06593,1.57080,-3.01912,-0.09677,-0.44240,0.38018,,
9.2673,1,DESCENDING,-0.0000,1.35075,0.48164,-2.11831,0.06595,1.57080,-3.01912,-0.09677,-0.44240,0.38017,,
9.2730,1,DESCENDING,-0.0000,1.35075,0.48164,-2.11833,0.06597,1.57080,-3.01912,-0.09677,-0.44240,0.38016,,
9.2871,1,DESCENDING,-0.0000,1.35075,0.48164,-2.11837,0.06601,1.57080,-3.01912,-0.09677,-0.44240,0.38013,,
9.2935,1,DESCENDING,-0.0000,1.35075,0.48164,-2.11837,0.06602,1.57080,-3.01912,-0.09677,-0.44240,0.38013,,
9.3132,1,DESCENDING,-0.0000,1.35075,0.48163,-2.11843,0.06608,1.57080,-3.01912,-0.09677,-0.44240,0.38009,,
9.3222,1,DESCENDING,-0.0000,1.35075,0.48163,-2.11845,0.06610,1.57080,-3.01912,-0.09677,-0.44240,0.38009,,
9.3323,1,DESCENDING,-0.0000,1.35075,0.48163,-2.11846,0.06611,1.57080,-3.01912,-0.09677,-0.44240,0.38008,,
9.3530,1,DESCENDING,-0.0000,1.35075,0.48163,-2.11853,0.06618,1.57080,-3.01912,-0.09677,-0.44240,0.38004,,
9.3549,1,DESCENDING,-0.0000,1.35075,0.48163,-2.11853,0.06618,1.57080,-3.01912,-0.09677,-0.44240,0.38004,,
9.3702,1,DESCENDING,-0.0000,1.35075,0.48163,-2.11855,0.06621,1.57080,-3.01912,-0.09677,-0.44240,0.38002,,
9.3721,1,DESCENDING,-0.0000,1.35075,0.48163,-2.11855,0.06621,1.57080,-3.01912,-0.09677,-0.44240,0.38002,,
9.3828,1,DESCENDING,-0.0000,1.35075,0.48162,-2.11858,0.06624,1.57080,-3.01912,-0.09677,-0.44240,0.38001,,
9.3955,1,DESCENDING,-0.0000,1.35075,0.48162,-2.11860,0.06626,1.57080,-3.01912,-0.09677,-0.44240,0.38000,,
9.4030,1,DESCENDING,-0.0000,1.35075,0.48162,-2.11863,0.06629,1.57080,-3.01912,-0.09677,-0.44240,0.37998,,
9.4123,1,DESCENDING,-0.0000,1.35075,0.48162,-2.11866,0.06633,1.57080,-3.01912,-0.09677,-0.44240,0.37996,,
9.4243,1,DESCENDING,-0.0000,1.35075,0.48162,-2.11867,0.06634,1.57080,-3.01912,-0.09677,-0.44240,0.37996,,
9.4337,1,DESCENDING,-0.0000,1.35075,0.48161,-2.11870,0.06637,1.57080,-3.01912,-0.09677,-0.44240,0.37994,,
9.4535,1,DESCENDING,-0.0000,1.35075,0.48161,-2.11873,0.06640,1.57080,-3.01912,-0.09677,-0.44240,0.37992,,
9.4670,1,DESCENDING,-0.0000,1.35075,0.48161,-2.11878,0.06645,1.57080,-3.01912,-0.09677,-0.44240,0.37989,,
9.4714,1,DESCENDING,-0.0000,1.35075,0.48161,-2.11879,0.06647,1.57080,-3.01912,-0.09677,-0.44240,0.37988,,
9.4822,1,DESCENDING,-0.0000,1.35075,0.48161,-2.11880,0.06648,1.57080,-3.01912,-0.09677,-0.44240,0.37988,,
9.5038,1,DESCENDING,-0.0000,1.35075,0.48160,-2.11884,0.06652,1.57080,-3.01912,-0.09677,-0.44240,0.37985,,
9.5180,1,DESCENDING,-0.0000,1.35075,0.48160,-2.11888,0.06656,1.57080,-3.01912,-0.09677,-0.44240,0.37983,,
9.5184,1,DESCENDING,-0.0000,1.35075,0.48160,-2.11888,0.06656,1.57080,-3.01912,-0.09677,-0.44240,0.37983,,
9.5229,1,DESCENDING,-0.0000,1.35075,0.48160,-2.11889,0.06658,1.57080,-3.01912,-0.09677,-0.44240,0.37982,,
9.5331,1,DESCENDING,-0.0000,1.35075,0.48160,-2.11893,0.06661,1.57080,-3.01912,-0.09677,-0.44240,0.37981,,
9.5485,1,DESCENDING,-0.0000,1.35075,0.48160,-2.11894,0.06663,1.57080,-3.01912,-0.09677,-0.44240,0.37980,,
9.5634,1,DESCENDING,-0.0000,1.35075,0.48159,-2.11898,0.06667,1.57080,-3.01912,-0.09677,-0.44240,0.37978,,
9.5651,1,DESCENDING,-0.0000,1.35075,0.48159,-2.11898,0.06667,1.57080,-3.01912,-0.09677,-0.44240,0.37977,,
9.5765,1,DESCENDING,-0.0000,1.35075,0.48159,-2.11900,0.06669,1.57080,-3.01912,-0.09677,-0.44240,0.37976,,
9.5837,1,DESCENDING,-0.0000,1.35075,0.48159,-2.11903,0.06672,1.57080,-3.01912,-0.09677,-0.44240,0.37975,,
9.5941,1,DESCENDING,-0.0000,1.35075,0.48159,-2.11906,0.06675,1.57080,-3.01912,-0.09677,-0.44240,0.37973,,
9.6026,1,DESCENDING,-0.0000,1.35075,0.48159,-2.11907,0.06676,1.57080,-3.01912,-0.09677,-0.44240,0.37972,,
9.6153,1,DESCENDING,-0.0000,1.35075,0.48158,-2.11910,0.06679,1.57080,-3.01912,-0.09677,-0.44240,0.37971,,
9.6235,1,DESCENDING,-0.0000,1.35075,0.48158,-2.11911,0.06681,1.57080,-3.01912,-0.09677,-0.44240,0.37970,,
9.6331,1,DESCENDING,-0.0000,1.35075,0.48158,-2.11913,0.06683,1.57080,-3.01912,-0.09677,-0.44240,0.37969,,
9.6415,1,DESCENDING,-0.0000,1.35075,0.48158,-2.11916,0.06686,1.57080,-3.01912,-0.09677,-0.44240,0.37967,,
9.6513,1,DESCENDING,-0.0000,1.35075,0.48158,-2.11919,0.06690,1.57080,-3.01912,-0.09677,-0.44240,0.37965,,
9.6681,1,DESCENDING,-0.0000,1.35075,0.48158,-2.11921,0.06691,1.57080,-3.01912,-0.09677,-0.44240,0.37964,,
9.6770,1,DESCENDING,-0.0000,1.35075,0.48157,-2.11924,0.06695,1.57080,-3.01912,-0.09677,-0.44240,0.37962,,
9.6839,1,DESCENDING,-0.0000,1.35075,0.48157,-2.11924,0.06695,1.57080,-3.01912,-0.09677,-0.44240,0.37962,,
9.7031,1,DESCENDING,-0.0000,1.35075,0.48157,-2.11929,0.06701,1.57080,-3.01912,-0.09677,-0.44240,0.37959,,
9.7052,1,DESCENDING,-0.0000,1.35075,0.48157,-2.11931,0.06702,1.57080,-3.01912,-0.09677,-0.44240,0.37958,,
9.7135,1,DESCENDING,-0.0000,1.35075,0.48157,-2.11932,0.06704,1.57080,-3.01912,-0.09677,-0.44240,0.37957,,
9.7226,1,DESCENDING,-0.0000,1.35075,0.48157,-2.11933,0.06705,1.57080,-3.01912,-0.09677,-0.44240,0.37957,,
9.7314,1,DESCENDING,-0.0000,1.35075,0.48157,-2.11936,0.06708,1.57080,-3.01912,-0.09677,-0.44240,0.37955,,
9.7445,1,DESCENDING,-0.0000,1.35075,0.48156,-2.11939,0.06711,1.57080,-3.01912,-0.09677,-0.44240,0.37953,,
9.7537,1,DESCENDING,-0.0000,1.35075,0.48156,-2.11941,0.06713,1.57080,-3.01912,-0.09677,-0.44240,0.37952,,
9.7624,1,DESCENDING,-0.0000,1.35075,0.48156,-2.11944,0.06716,1.57080,-3.01912,-0.09677,-0.44240,0.37951,,
9.7725,1,DESCENDING,-0.0000,1.35075,0.48156,-2.11947,0.06719,1.57080,-3.01912,-0.09677,-0.44240,0.37949,,
9.7828,1,DESCENDING,-0.0000,1.35075,0.48156,-2.11948,0.06720,1.57080,-3.01912,-0.09677,-0.44240,0.37948,,
9.7929,1,DESCENDING,-0.0000,1.35075,0.48155,-2.11952,0.06725,1.57080,-3.01912,-0.09677,-0.44240,0.37946,,
9.8054,1,DESCENDING,-0.0000,1.35075,0.48155,-2.11953,0.06727,1.57080,-3.01912,-0.09677,-0.44240,0.37945,,
9.8173,1,DESCENDING,-0.0000,1.35075,0.48155,-2.11957,0.06730,1.57080,-3.01912,-0.09677,-0.44240,0.37943,,
9.8216,1,DESCENDING,-0.0000,1.35075,0.48155,-2.11958,0.06732,1.57080,-3.01912,-0.09677,-0.44240,0.37942,,
9.8347,1,DESCENDING,-0.0000,1.35075,0.48155,-2.11961,0.06735,1.57080,-3.01912,-0.09677,-0.44240,0.37940,,
9.8413,1,DESCENDING,-0.0000,1.35075,0.48154,-2.11962,0.06736,1.57080,-3.01912,-0.09677,-0.44240,0.37940,,
9.8573,1,DESCENDING,-0.0000,1.35075,0.48154,-2.11968,0.06742,1.57080,-3.01912,-0.09677,-0.44240,0.37936,,
9.8620,1,DESCENDING,-0.0000,1.35075,0.48154,-2.11968,0.06742,1.57080,-3.01912,-0.09677,-0.44240,0.37936,,
9.8734,1,DESCENDING,-0.0000,1.35075,0.48154,-2.11970,0.06744,1.57080,-3.01912,-0.09677,-0.44240,0.37935,,
9.8813,1,DESCENDING,-0.0000,1.35075,0.48154,-2.11972,0.06747,1.57080,-3.01912,-0.09677,-0.44240,0.37934,,
9.8947,1,DESCENDING,-0.0000,1.35075,0.48153,-2.11975,0.06750,1.57080,-3.01912,-0.09677,-0.44240,0.37932,,
9.9023,1,DESCENDING,-0.0000,1.35075,0.48153,-2.11976,0.06751,1.57080,-3.01912,-0.09677,-0.44240,0.37931,,
9.9182,1,DESCENDING,-0.0000,1.35075,0.48153,-2.11982,0.06757,1.57080,-3.01912,-0.09677,-0.44240,0.37928,,
9.9270,1,DESCENDING,-0.0000,1.35075,0.48153,-2.11982,0.06758,1.57080,-3.01912,-0.09677,-0.44240,0.37928,,
9.9313,1,DESCENDING,-0.0000,1.35075,0.48153,-2.11983,0.06758,1.57080,-3.01912,-0.09677,-0.44240,0.37927,,
9.9413,1,DESCENDING,-0.0000,1.35075,0.48153,-2.11987,0.06763,1.57080,-3.01912,-0.09677,-0.44240,0.37925,,
9.9690,1,DESCENDING,-0.0000,1.35075,0.48152,-2.11993,0.06770,1.57080,-3.01912,-0.09677,-0.44240,0.37921,,
9.9730,1,DESCENDING,-0.0000,1.35075,0.48152,-2.11995,0.06771,1.57080,-3.01912,-0.09677,-0.44240,0.37920,,
9.9856,1,DESCENDING,-0.0000,1.35075,0.48152,-2.11998,0.06774,1.57080,-3.01912,-0.09677,-0.44240,0.37919,,
9.9921,1,DESCENDING,-0.0000,1.35075,0.48152,-2.11998,0.06775,1.57080,-3.01912,-0.09677,-0.44240,0.37918,,
10.0017,1,DESCENDING,-0.0000,1.35075,0.48152,-2.12000,0.06777,1.57080,-3.01912,-0.09677,-0.44240,0.37917,,
10.0116,1,DESCENDING,-0.0000,1.35075,0.48151,-2.12003,0.06780,1.57080,-3.01912,-0.09677,-0.44240,0.37916,,
10.0268,1,DESCENDING,-0.0000,1.35075,0.48151,-2.12005,0.06782,1.57080,-3.01912,-0.09677,-0.44240,0.37914,,
10.0344,1,DESCENDING,-0.0000,1.35075,0.48151,-2.12008,0.06785,1.57080,-3.01912,-0.09677,-0.44240,0.37913,,
10.0430,1,DESCENDING,-0.0000,1.35075,0.48151,-2.12010,0.06787,1.57080,-3.01912,-0.09677,-0.44240,0.37912,,
10.0596,1,DESCENDING,-0.0000,1.35075,0.48151,-2.12013,0.06791,1.57080,-3.01912,-0.09677,-0.44240,0.37910,,
10.0663,1,DESCENDING,-0.0000,1.35075,0.48150,-2.12016,0.06794,1.57080,-3.01912,-0.09677,-0.44240,0.37908,,
10.0763,1,DESCENDING,-0.0000,1.35075,0.48150,-2.12018,0.06796,1.57080,-3.01912,-0.09677,-0.44240,0.37907,,
10.0816,1,DESCENDING,-0.0000,1.35075,0.48150,-2.12018,0.06797,1.57080,-3.01912,-0.09677,-0.44240,0.37906,,
10.0951,1,DESCENDING,-0.0000,1.35075,0.48150,-2.12022,0.06801,1.57080,-3.01912,-0.09677,-0.44240,0.37904,,
10.1038,1,DESCENDING,-0.0000,1.35075,0.48150,-2.12025,0.06804,1.57080,-3.01912,-0.09677,-0.44240,0.37902,,
10.1143,1,DESCENDING,-0.0000,1.35075,0.48150,-2.12026,0.06805,1.57080,-3.01912,-0.09677,-0.44240,0.37902,,
10.1232,1,DESCENDING,-0.0000,1.35075,0.48149,-2.12028,0.06807,1.57080,-3.01912,-0.09677,-0.44240,0.37901,,
10.1314,1,DESCENDING,-0.0000,1.35075,0.48149,-2.12031,0.06810,1.57080,-3.01912,-0.09677,-0.44240,0.37899,,
10.1452,1,DESCENDING,-0.0000,1.35075,0.48149,-2.12033,0.06812,1.57080,-3.01912,-0.09677,-0.44240,0.37898,,
10.1536,1,DESCENDING,-0.0000,1.35075,0.48149,-2.12036,0.06815,1.57080,-3.01912,-0.09677,-0.44240,0.37896,,
10.1678,1,DESCENDING,-0.0000,1.35075,0.48149,-2.12039,0.06819,1.57080,-3.01912,-0.09677,-0.44240,0.37895,,
10.1800,1,DESCENDING,-0.0000,1.35075,0.48148,-2.12040,0.06820,1.57080,-3.01912,-0.09677,-0.44240,0.37894,,
10.1930,1,DESCENDING,-0.0000,1.35075,0.48148,-2.12044,0.06824,1.57080,-3.01912,-0.09677,-0.44240,0.37892,,
10.1934,1,DESCENDING,-0.0000,1.35075,0.48148,-2.12044,0.06824,1.57080,-3.01912,-0.09677,-0.44240,0.37892,,
10.2030,1,DESCENDING,-0.0000,1.35075,0.48148,-2.12045,0.06825,1.57080,-3.01912,-0.09677,-0.44240,0.37891,,
10.2221,1,DESCENDING,-0.0000,1.35075,0.48148,-2.12052,0.06833,1.57080,-3.01912,-0.09677,-0.44240,0.37887,,
10.2295,1,DESCENDING,-0.0000,1.35075,0.48148,-2.12052,0.06833,1.57080,-3.01912,-0.09677,-0.44240,0.37887,,
10.2445,1,DESCENDING,-0.0000,1.35075,0.48147,-2.12054,0.06835,1.57080,-3.01912,-0.09677,-0.44240,0.37885,,
10.3019,1,DESCENDING,-0.0000,1.35075,0.48146,-2.12068,0.06850,1.57080,-3.01912,-0.09677,-0.44240,0.37877,,
10.3125,1,DESCENDING,-0.0000,1.35075,0.48146,-2.12070,0.06852,1.57080,-3.01912,-0.09677,-0.44240,0.37876,,
10.3264,1,DESCENDING,-0.0000,1.35075,0.48146,-2.12072,0.06855,1.57080,-3.01912,-0.09677,-0.44240,0.37875,,
10.3352,1,DESCENDING,-0.0000,1.35075,0.48146,-2.12075,0.06858,1.57080,-3.01912,-0.09677,-0.44240,0.37873,,
10.3393,1,DESCENDING,-0.0000,1.35075,0.48146,-2.12077,0.06860,1.57080,-3.01912,-0.09677,-0.44240,0.37872,,
10.3398,1,DESCENDING,-0.0000,1.35075,0.48146,-2.12077,0.06860,1.57080,-3.01912,-0.09677,-0.44240,0.37872,,
10.3465,1,DESCENDING,-0.0000,1.35075,0.48146,-2.12078,0.06861,1.57080,-3.01912,-0.09677,-0.44240,0.37871,,
10.3476,1,DESCENDING,-0.0000,1.35075,0.48146,-2.12078,0.06861,1.57080,-3.01912,-0.09677,-0.44240,0.37871,,
10.3480,1,DESCENDING,-0.0000,1.35075,0.48146,-2.12078,0.06861,1.57080,-3.01912,-0.09677,-0.44240,0.37871,,
10.3506,1,DESCENDING,-0.0000,1.35075,0.48145,-2.12079,0.06861,1.57080,-3.01912,-0.09677,-0.44240,0.37871,,
10.3536,1,DESCENDING,-0.0000,1.35075,0.48145,-2.12079,0.06862,1.57080,-3.01912,-0.09677,-0.44240,0.37871,,
10.4902,1,DESCENDING,-0.0000,1.35075,0.48143,-2.12110,0.06895,1.57080,-3.01912,-0.09677,-0.44240,0.37853,,
10.5027,1,DESCENDING,-0.0000,1.35075,0.48143,-2.12111,0.06896,1.57080,-3.01912,-0.09677,-0.44240,0.37852,,
10.5160,1,DESCENDING,-0.0000,1.35075,0.48143,-2.12115,0.06901,1.57080,-3.01912,-0.09677,-0.44240,0.37850,,
10.5297,1,DESCENDING,-0.0000,1.35075,0.48142,-2.12118,0.06904,1.57080,-3.01912,-0.09677,-0.44240,0.37848,,
10.5403,1,DESCENDING,-0.0000,1.35075,0.48142,-2.12120,0.06906,1.57080,-3.01912,-0.09677,-0.44240,0.37847,,
10.6443,1,DESCENDING,-0.0000,1.35075,0.48140,-2.12144,0.06932,1.57080,-3.01912,-0.09677,-0.44240,0.37832,,
10.6447,1,DESCENDING,-0.0000,1.35075,0.48140,-2.12144,0.06932,1.57080,-3.01912,-0.09677,-0.44240,0.37832,,
10.6452,1,DESCENDING,-0.0000,1.35075,0.48140,-2.12144,0.06932,1.57080,-3.01912,-0.09677,-0.44240,0.37832,,
10.6458,1,DESCENDING,-0.0000,1.35075,0.48140,-2.12144,0.06932,1.57080,-3.01912,-0.09677,-0.44240,0.37832,,
10.6460,1,DESCENDING,-0.0000,1.35075,0.48140,-2.12144,0.06932,1.57080,-3.01912,-0.09677,-0.44240,0.37832,,
10.6468,1,DESCENDING,-0.0000,1.35075,0.48140,-2.12144,0.06932,1.57080,-3.01912,-0.09677,-0.44240,0.37832,,
10.6473,1,DESCENDING,-0.0000,1.35075,0.48140,-2.12144,0.06932,1.57080,-3.01912,-0.09677,-0.44240,0.37832,,
10.6477,1,DESCENDING,-0.0000,1.35075,0.48140,-2.12144,0.06932,1.57080,-3.01912,-0.09677,-0.44240,0.37832,,
10.6484,1,DESCENDING,-0.0000,1.35075,0.48140,-2.12144,0.06932,1.57080,-3.01912,-0.09677,-0.44240,0.37832,,
10.6539,1,DESCENDING,-0.0000,1.35075,0.48140,-2.12145,0.06933,1.57080,-3.01912,-0.09677,-0.44240,0.37832,,
10.6554,1,DESCENDING,-0.0000,1.35075,0.48140,-2.12145,0.06933,1.57080,-3.01912,-0.09677,-0.44240,0.37832,,
10.6558,1,DESCENDING,-0.0000,1.35075,0.48140,-2.12145,0.06933,1.57080,-3.01912,-0.09677,-0.44240,0.37832,,
10.6605,1,DESCENDING,-0.0000,1.35075,0.48140,-2.12146,0.06934,1.57080,-3.01912,-0.09677,-0.44240,0.37831,,
10.6658,1,DESCENDING,-0.0000,1.35075,0.48140,-2.12148,0.06936,1.57080,-3.01912,-0.09677,-0.44240,0.37830,,
10.6871,1,DESCENDING,-0.0000,1.35075,0.48140,-2.12152,0.06940,1.57080,-3.01912,-0.09677,-0.44240,0.37828,,
10.6877,1,DESCENDING,-0.0000,1.35075,0.48140,-2.12152,0.06940,1.57080,-3.01912,-0.09677,-0.44240,0.37828,,
10.6964,1,DESCENDING,-0.0000,1.35075,0.48140,-2.12155,0.06943,1.57080,-3.01912,-0.09677,-0.44240,0.37826,,
10.7041,1,DESCENDING,-0.0000,1.35075,0.48139,-2.12158,0.06947,1.57080,-3.01912,-0.09677,-0.44240,0.37824,,
10.7045,1,DESCENDING,-0.0000,1.35075,0.48139,-2.12158,0.06947,1.57080,-3.01912,-0.09677,-0.44240,0.37824,,
10.7086,1,DESCENDING,-0.0000,1.35075,0.48139,-2.12158,0.06947,1.57080,-3.01912,-0.09677,-0.44240,0.37824,,
10.7113,1,DESCENDING,-0.0000,1.35075,0.48139,-2.12158,0.06947,1.57080,-3.01912,-0.09677,-0.44240,0.37824,,
10.7131,1,DESCENDING,-0.0000,1.35075,0.48139,-2.12158,0.06947,1.57080,-3.01912,-0.09677,-0.44240,0.37824,,
10.7209,1,DESCENDING,-0.0000,1.35075,0.48139,-2.12159,0.06948,1.57080,-3.01912,-0.09677,-0.44240,0.37824,,
10.7215,1,DESCENDING,-0.0000,1.35075,0.48139,-2.12159,0.06948,1.57080,-3.01912,-0.09677,-0.44240,0.37824,,
10.7283,1,DESCENDING,-0.0000,1.35075,0.48139,-2.12161,0.06951,1.57080,-3.01912,-0.09677,-0.44240,0.37822,,
10.7357,1,DESCENDING,-0.0000,1.35075,0.48139,-2.12163,0.06952,1.57080,-3.01912,-0.09677,-0.44240,0.37822,,
10.7385,1,DESCENDING,-0.0000,1.35075,0.48139,-2.12163,0.06952,1.57080,-3.01912,-0.09677,-0.44240,0.37821,,
10.7390,1,DESCENDING,-0.0000,1.35075,0.48139,-2.12163,0.06952,1.57080,-3.01912,-0.09677,-0.44240,0.37821,,
10.7437,1,DESCENDING,-0.0000,1.35075,0.48139,-2.12164,0.06953,1.57080,-3.01912,-0.09677,-0.44240,0.37821,,
10.7521,1,DESCENDING,-0.0000,1.35075,0.48139,-2.12166,0.06956,1.57080,-3.01912,-0.09677,-0.44240,0.37819,,
10.7616,1,DESCENDING,-0.0000,1.35075,0.48138,-2.12169,0.06959,1.57080,-3.01912,-0.09677,-0.44240,0.37818,,
10.7848,1,DESCENDING,-0.0000,1.35075,0.48138,-2.12173,0.06964,1.57080,-3.01912,-0.09677,-0.44240,0.37815,,
10.7853,1,DESCENDING,-0.0000,1.35075,0.48138,-2.12173,0.06964,1.57080,-3.01912,-0.09677,-0.44240,0.37815,,
10.7916,1,DESCENDING,-0.0000,1.35075,0.48138,-2.12176,0.06966,1.57080,-3.01912,-0.09677,-0.44240,0.37814,,
10.8032,1,DESCENDING,-0.0000,1.35075,0.48138,-2.12177,0.06967,1.57080,-3.01912,-0.09677,-0.44240,0.37813,,
10.8133,1,DESCENDING,-0.0000,1.35075,0.48138,-2.12179,0.06970,1.57080,-3.01912,-0.09677,-0.44240,0.37812,,
10.8228,1,DESCENDING,-0.0000,1.35075,0.48137,-2.12184,0.06975,1.57080,-3.01912,-0.09677,-0.44240,0.37809,,
10.8461,1,DESCENDING,-0.0000,1.35075,0.48137,-2.12189,0.06980,1.57080,-3.01912,-0.09677,-0.44240,0.37806,,
10.8464,1,DESCENDING,-0.0000,1.35075,0.48137,-2.12189,0.06980,1.57080,-3.01912,-0.09677,-0.44240,0.37806,,
10.8513,1,DESCENDING,-0.0000,1.35075,0.48137,-2.12190,0.06982,1.57080,-3.01912,-0.09677,-0.44240,0.37805,,
10.8658,1,DESCENDING,-0.0000,1.35075,0.48137,-2.12193,0.06984,1.57080,-3.01912,-0.09677,-0.44240,0.37804,,
10.8875,1,DESCENDING,-0.0000,1.35075,0.48136,-2.12198,0.06991,1.57080,-3.01912,-0.09677,-0.44240,0.37800,,
10.8879,1,DESCENDING,-0.0000,1.35075,0.48136,-2.12198,0.06991,1.57080,-3.01912,-0.09677,-0.44240,0.37800,,
10.8923,1,DESCENDING,-0.0000,1.35075,0.48136,-2.12199,0.06991,1.57080,-3.01912,-0.09677,-0.44240,0.37800,,
10.9029,1,DESCENDING,-0.0000,1.35075,0.48136,-2.12202,0.06994,1.57080,-3.01912,-0.09677,-0.44240,0.37798,,
10.9138,1,DESCENDING,-0.0000,1.35075,0.48136,-2.12205,0.06998,1.57080,-3.01912,-0.09677,-0.44240,0.37797,,
10.9266,1,DESCENDING,-0.0000,1.35075,0.48135,-2.12207,0.07000,1.57080,-3.01912,-0.09677,-0.44240,0.37795,,
10.9568,1,DESCENDING,-0.0000,1.35075,0.48135,-2.12214,0.07007,1.57080,-3.01912,-0.09677,-0.44240,0.37791,,
10.9584,1,DESCENDING,-0.0000,1.35075,0.48135,-2.12215,0.07008,1.57080,-3.01912,-0.09677,-0.44240,0.37791,,
10.9662,1,DESCENDING,-0.0000,1.35075,0.48135,-2.12218,0.07012,1.57080,-3.01912,-0.09677,-0.44240,0.37789,,
10.9732,1,DESCENDING,-0.0000,1.35075,0.48134,-2.12219,0.07013,1.57080,-3.01912,-0.09677,-0.44240,0.37788,,
10.9836,1,DESCENDING,-0.0000,1.35075,0.48134,-2.12220,0.07014,1.57080,-3.01912,-0.09677,-0.44240,0.37788,,
10.9933,1,DESCENDING,-0.0000,1.35075,0.48134,-2.12223,0.07017,1.57080,-3.01912,-0.09677,-0.44240,0.37786,,
11.1542,1,DESCENDING,-0.0000,1.35075,0.48131,-2.12262,0.07059,1.57080,-3.01912,-0.09677,-0.44240,0.37763,,
11.1943,1,DESCENDING,-0.0000,1.35075,0.48131,-2.12268,0.07065,1.57080,-3.01912,-0.09677,-0.44240,0.37760,,
11.1958,1,DESCENDING,-0.0000,1.35075,0.48131,-2.12268,0.07065,1.57080,-3.01912,-0.09677,-0.44240,0.37760,,
11.1962,1,DESCENDING,-0.0000,1.35075,0.48131,-2.12268,0.07065,1.57080,-3.01912,-0.09677,-0.44240,0.37760,,
11.1980,1,DESCENDING,-0.0000,1.35075,0.48130,-2.12269,0.07067,1.57080,-3.01912,-0.09677,-0.44240,0.37759,,
11.1993,1,DESCENDING,-0.0000,1.35075,0.48130,-2.12269,0.07067,1.57080,-3.01912,-0.09677,-0.44240,0.37759,,
11.1996,1,DESCENDING,-0.0000,1.35075,0.48130,-2.12269,0.07067,1.57080,-3.01912,-0.09677,-0.44240,0.37759,,
11.2110,1,DESCENDING,-0.0000,1.35075,0.48130,-2.12273,0.07072,1.57080,-3.01912,-0.09677,-0.44240,0.37756,,
11.2146,1,DESCENDING,-0.0000,1.35075,0.48130,-2.12275,0.07073,1.57080,-3.01912,-0.09677,-0.44240,0.37755,,
11.2266,1,DESCENDING,-0.0000,1.35075,0.48130,-2.12275,0.07074,1.57080,-3.01912,-0.09677,-0.44240,0.37755,,
11.2325,1,DESCENDING,-0.0000,1.35075,0.48130,-2.12276,0.07075,1.57080,-3.01912,-0.09677,-0.44240,0.37755,,
11.2546,1,DESCENDING,-0.0000,1.35075,0.48129,-2.12281,0.07080,1.57080,-3.01912,-0.09677,-0.44240,0.37752,,
11.2654,1,DESCENDING,-0.0000,1.35075,0.48129,-2.12283,0.07082,1.57080,-3.01912,-0.09677,-0.44240,0.37750,,
11.2734,1,DESCENDING,-0.0000,1.35075,0.48129,-2.12286,0.07086,1.57080,-3.01912,-0.09677,-0.44240,0.37749,,
11.2867,1,DESCENDING,-0.0000,1.35075,0.48129,-2.12289,0.07088,1.57080,-3.01912,-0.09677,-0.44240,0.37747,,
11.2964,1,DESCENDING,-0.0000,1.35075,0.48129,-2.12291,0.07090,1.57080,-3.01912,-0.09677,-0.44240,0.37746,,
11.3027,1,DESCENDING,-0.0000,1.35075,0.48128,-2.12293,0.07093,1.57080,-3.01912,-0.09677,-0.44240,0.37745,,
11.3153,1,DESCENDING,-0.0000,1.35075,0.48128,-2.12294,0.07094,1.57080,-3.01912,-0.09677,-0.44240,0.37744,,
11.3246,1,DESCENDING,-0.0000,1.35075,0.48128,-2.12297,0.07097,1.57080,-3.01912,-0.09677,-0.44240,0.37743,,
11.3432,1,DESCENDING,-0.0000,1.35075,0.48128,-2.12301,0.07102,1.57080,-3.01912,-0.09677,-0.44240,0.37740,,
11.3436,1,DESCENDING,-0.0000,1.35075,0.48128,-2.12301,0.07102,1.57080,-3.01912,-0.09677,-0.44240,0.37740,,
11.3689,1,DESCENDING,-0.0000,1.35075,0.48127,-2.12306,0.07107,1.57080,-3.01912,-0.09677,-0.44240,0.37737,,
11.3974,1,DESCENDING,-0.0000,1.35075,0.48127,-2.12314,0.07116,1.57080,-3.01912,-0.09677,-0.44240,0.37732,,
11.3982,1,DESCENDING,-0.0000,1.35075,0.48127,-2.12314,0.07116,1.57080,-3.01912,-0.09677,-0.44240,0.37732,,
11.4025,1,DESCENDING,-0.0000,1.35075,0.48127,-2.12315,0.07116,1.57080,-3.01912,-0.09677,-0.44240,0.37732,,
11.4128,1,DESCENDING,-0.0000,1.35075,0.48127,-2.12316,0.07118,1.57080,-3.01912,-0.09677,-0.44240,0.37731,,
11.4211,1,DESCENDING,-0.0000,1.35075,0.48126,-2.12319,0.07121,1.57080,-3.01912,-0.09677,-0.44240,0.37729,,
11.4383,1,DESCENDING,-0.0000,1.35075,0.48126,-2.12323,0.07125,1.57080,-3.01912,-0.09677,-0.44240,0.37727,,
11.4463,1,DESCENDING,-0.0000,1.35075,0.48126,-2.12326,0.07128,1.57080,-3.01912,-0.09677,-0.44240,0.37725,,
11.4527,1,DESCENDING,-0.0000,1.35075,0.48126,-2.12327,0.07130,1.57080,-3.01912,-0.09677,-0.44240,0.37724,,
11.4630,1,DESCENDING,-0.0000,1.35075,0.48126,-2.12329,0.07132,1.57080,-3.01912,-0.09677,-0.44240,0.37723,,
11.4739,1,DESCENDING,-0.0000,1.35075,0.48125,-2.12332,0.07135,1.57080,-3.01912,-0.09677,-0.44240,0.37722,,
11.4850,1,DESCENDING,-0.0000,1.35075,0.48125,-2.12335,0.07138,1.57080,-3.01912,-0.09677,-0.44240,0.37720,,
11.4956,1,DESCENDING,-0.0000,1.35075,0.48125,-2.12336,0.07140,1.57080,-3.01912,-0.09677,-0.44240,0.37719,,
11.5012,1,DESCENDING,-0.0000,1.35075,0.48125,-2.12337,0.07141,1.57080,-3.01912,-0.09677,-0.44240,0.37719,,
11.6118,1,DESCENDING,-0.0000,1.35075,0.48123,-2.12365,0.07171,1.57080,-3.01912,-0.09677,-0.44240,0.37702,,
11.6221,1,DESCENDING,-0.0000,1.35075,0.48122,-2.12367,0.07173,1.57080,-3.01912,-0.09677,-0.44240,0.37701,,
11.6226,1,DESCENDING,-0.0000,1.35075,0.48122,-2.12367,0.07173,1.57080,-3.01912,-0.09677,-0.44240,0.37701,,
11.6229,1,DESCENDING,-0.0000,1.35075,0.48122,-2.12367,0.07173,1.57080,-3.01912,-0.09677,-0.44240,0.37701,,
11.6304,1,DESCENDING,-0.0000,1.35075,0.48122,-2.12369,0.07175,1.57080,-3.01912,-0.09677,-0.44240,0.37700,,
11.6428,1,DESCENDING,-0.0000,1.35075,0.48122,-2.12371,0.07177,1.57080,-3.01912,-0.09677,-0.44240,0.37699,,
11.8231,1,DESCENDING,-0.0000,1.35075,0.48119,-2.12410,0.07220,1.57080,-3.01912,-0.09677,-0.44240,0.37675,,
11.8235,1,DESCENDING,-0.0000,1.35075,0.48119,-2.12410,0.07220,1.57080,-3.01912,-0.09677,-0.44240,0.37675,,
