Martins-Lucaas/RoboticArm/sensors/Data/20260621_173156__samples.csv
t_rel_s,cycle,phase,force_net_n,q1,q2,q3,q4,q5,q6,tcp_x,tcp_y,tcp_z,touch_value,touch_age_ms
0.0474,1,HOME,-0.0000,1.35075,0.48284,-2.09928,0.04573,1.57080,-3.01912,-0.09677,-0.44240,0.39130,,
0.0580,1,HOME,-0.0000,1.35075,0.48284,-2.09928,0.04573,1.57080,-3.01912,-0.09677,-0.44240,0.39130,,
0.0625,1,HOME,-0.0000,1.35075,0.48284,-2.09928,0.04573,1.57080,-3.01912,-0.09677,-0.44240,0.39130,,
0.0800,1,HOME,-0.0000,1.35075,0.48284,-2.09928,0.04573,1.57080,-3.01912,-0.09677,-0.44240,0.39130,,
0.0926,1,HOME,-0.0000,1.35075,0.48284,-2.09928,0.04573,1.57080,-3.01912,-0.09677,-0.44240,0.39130,,
0.1026,1,HOME,-0.0000,1.35075,0.48284,-2.09928,0.04573,1.57080,-3.01912,-0.09677,-0.44240,0.39130,,
0.1085,1,HOME,-0.0000,1.35075,0.48284,-2.09928,0.04573,1.57080,-3.01912,-0.09677,-0.44240,0.39130,,
0.1164,1,HOME,-0.0000,1.35075,0.48284,-2.09928,0.04573,1.57080,-3.01912,-0.09677,-0.44240,0.39130,,
0.1285,1,HOME,-0.0000,1.35075,0.48284,-2.09928,0.04573,1.57080,-3.01912,-0.09677,-0.44240,0.39130,,
0.1430,1,HOME,-0.0000,1.35075,0.48284,-2.09928,0.04573,1.57080,-3.01912,-0.09677,-0.44240,0.39130,,
0.1494,1,HOME,-0.0000,1.35075,0.48284,-2.09928,0.04573,1.57080,-3.01912,-0.09677,-0.44240,0.39130,,
0.1574,1,HOME,-0.0000,1.35075,0.48284,-2.09928,0.04573,1.57080,-3.01912,-0.09677,-0.44240,0.39130,,
0.1674,1,HOME,-0.0000,1.35075,0.48284,-2.09928,0.04573,1.57080,-3.01912,-0.09677,-0.44240,0.39130,,
0.1910,1,HOME,-0.0000,1.35075,0.48284,-2.09928,0.04573,1.57080,-3.01912,-0.09677,-0.44240,0.39130,,
0.1953,1,HOME,-0.0000,1.35075,0.48284,-2.09928,0.04573,1.57080,-3.01912,-0.09677,-0.44240,0.39130,,
0.2031,1,HOME,-0.0000,1.35075,0.48284,-2.09928,0.04573,1.57080,-3.01912,-0.09677,-0.44240,0.39130,,
0.2107,1,HOME,-0.0000,1.35075,0.48284,-2.09928,0.04573,1.57080,-3.01912,-0.09677,-0.44240,0.39130,,
0.2195,1,HOME,-0.0000,1.35075,0.48284,-2.09928,0.04573,1.57080,-3.01912,-0.09677,-0.44240,0.39130,,
0.2285,1,HOME,-0.0000,1.35075,0.48284,-2.09928,0.04573,1.57080,-3.01912,-0.09677,-0.44240,0.39130,,
0.2367,1,HOME,-0.0000,1.35075,0.48284,-2.09928,0.04573,1.57080,-3.01912,-0.09677,-0.44240,0.39130,,
0.2523,1,HOME,-0.0000,1.35075,0.48284,-2.09928,0.04573,1.57080,-3.01912,-0.09677,-0.44240,0.39130,,
0.2568,1,HOME,-0.0000,1.35075,0.48284,-2.09928,0.04573,1.57080,-3.01912,-0.09677,-0.44240,0.39130,,
0.2735,1,HOME,-0.0000,1.35075,0.48284,-2.09928,0.04573,1.57080,-3.01912,-0.09677,-0.44240,0.39130,,
0.2766,1,HOME,-0.0000,1.35075,0.48284,-2.09928,0.04573,1.57080,-3.01912,-0.09677,-0.44240,0.39130,,
0.2882,1,HOME,-0.0000,1.35075,0.48284,-2.09928,0.04573,1.57080,-3.01912,-0.09677,-0.44240,0.39130,,
0.2991,1,HOME,-0.0000,1.35075,0.48284,-2.09928,0.04573,1.57080,-3.01912,-0.09677,-0.44240,0.39130,,
0.3067,1,HOME,-0.0000,1.35075,0.48284,-2.09928,0.04573,1.57080,-3.01912,-0.09677,-0.44240,0.39130,,
0.3205,1,HOME,-0.0000,1.35075,0.48284,-2.09928,0.04573,1.57080,-3.01912,-0.09677,-0.44240,0.39130,,
0.3262,1,HOME,-0.0000,1.35075,0.48284,-2.09928,0.04573,1.57080,-3.01912,-0.09677,-0.44240,0.39130,,
0.3404,1,HOME,-0.0000,1.35075,0.48284,-2.09928,0.04573,1.57080,-3.01912,-0.09677,-0.44240,0.39130,,
0.3485,1,HOME,-0.0000,1.35075,0.48284,-2.09928,0.04573,1.57080,-3.01912,-0.09677,-0.44240,0.39130,,
0.3590,1,HOME,-0.0000,1.35075,0.48284,-2.09928,0.04573,1.57080,-3.01912,-0.09677,-0.44240,0.39130,,
0.3670,1,HOME,-0.0000,1.35075,0.48284,-2.09928,0.04573,1.57080,-3.01912,-0.09677,-0.44240,0.39130,,
0.3765,1,HOME,-0.0000,1.35075,0.48284,-2.09928,0.04573,1.57080,-3.01912,-0.09677,-0.44240,0.39130,,
0.3999,1,HOME,-0.0000,1.35075,0.48284,-2.09928,0.04573,1.57080,-3.01912,-0.09677,-0.44240,0.39130,,
0.4002,1,HOME,-0.0000,1.35075,0.48284,-2.09928,0.04573,1.57080,-3.01912,-0.09677,-0.44240,0.39130,,
0.4084,1,HOME,-0.0000,1.35075,0.48284,-2.09928,0.04573,1.57080,-3.01912,-0.09677,-0.44240,0.39130,,
0.4166,1,HOME,-0.0000,1.35075,0.48284,-2.09928,0.04573,1.57080,-3.01912,-0.09677,-0.44240,0.39130,,
0.4281,1,HOME,-0.0000,1.35075,0.48284,-2.09928,0.04573,1.57080,-3.01912,-0.09677,-0.44240,0.39130,,
0.4411,1,HOME,-0.0000,1.35075,0.48284,-2.09928,0.04573,1.57080,-3.01912,-0.09677,-0.44240,0.39130,,
0.4488,1,HOME,-0.0000,1.35075,0.48284,-2.09928,0.04573,1.57080,-3.01912,-0.09677,-0.44240,0.39130,,
0.4570,1,HOME,-0.0000,1.35075,0.48284,-2.09928,0.04573,1.57080,-3.01912,-0.09677,-0.44240,0.39130,,
0.4665,1,HOME,-0.0000,1.35075,0.48284,-2.09928,0.04573,1.57080,-3.01912,-0.09677,-0.44240,0.39130,,
0.4774,1,HOME,-0.0000,1.35075,0.48284,-2.09928,0.04573,1.57080,-3.01912,-0.09677,-0.44240,0.39130,,
0.4916,1,HOME,-0.0000,1.35075,0.48284,-2.09928,0.04573,1.57080,-3.01912,-0.09677,-0.44240,0.39130,,
0.4968,1,HOME,-0.0000,1.35075,0.48284,-2.09928,0.04573,1.57080,-3.01912,-0.09677,-0.44240,0.39130,,
0.5084,1,HOME,-0.0000,1.35075,0.48284,-2.09928,0.04573,1.57080,-3.01912,-0.09677,-0.44240,0.39130,,
0.5189,1,HOME,-0.0000,1.35075,0.48284,-2.09928,0.04573,1.57080,-3.01912,-0.09677,-0.44240,0.39130,,
0.5275,1,HOME,-0.0000,1.35075,0.48284,-2.09928,0.04573,1.57080,-3.01912,-0.09677,-0.44240,0.39130,,
0.5394,1,HOME,-0.0000,1.35075,0.48284,-2.09928,0.04573,1.57080,-3.01912,-0.09677,-0.44240,0.39130,,
0.5488,1,HOME,-0.0000,1.35075,0.48284,-2.09928,0.04573,1.57080,-3.01912,-0.09677,-0.44240,0.39130,,
0.5590,1,HOME,-0.0000,1.35075,0.48284,-2.09928,0.04573,1.57080,-3.01912,-0.09677,-0.44240,0.39130,,
0.5672,1,HOME,-0.0000,1.35075,0.48284,-2.09928,0.04573,1.57080,-3.01912,-0.09677,-0.44240,0.39130,,
0.5771,1,HOME,-0.0000,1.35075,0.48284,-2.09928,0.04573,1.57080,-3.01912,-0.09677,-0.44240,0.39130,,
0.6002,1,HOME,-0.0000,1.35075,0.48284,-2.09928,0.04573,1.57080,-3.01912,-0.09677,-0.44240,0.39130,,
0.6014,1,HOME,-0.0000,1.35075,0.48284,-2.09928,0.04573,1.57080,-3.01912,-0.09677,-0.44240,0.39130,,
0.6094,1,HOME,-0.0000,1.35075,0.48284,-2.09928,0.04573,1.57080,-3.01912,-0.09677,-0.44240,0.39130,,
0.6203,1,HOME,-0.0000,1.35075,0.48284,-2.09928,0.04573,1.57080,-3.01912,-0.09677,-0.44240,0.39130,,
0.6282,1,HOME,-0.0000,1.35075,0.48284,-2.09928,0.04573,1.57080,-3.01912,-0.09677,-0.44240,0.39130,,
0.6376,1,HOME,-0.0000,1.35075,0.48284,-2.09928,0.04573,1.57080,-3.01912,-0.09677,-0.44240,0.39130,,
0.6465,1,HOME,-0.0000,1.35075,0.48284,-2.09928,0.04573,1.57080,-3.01912,-0.09677,-0.44240,0.39130,,
0.6585,1,HOME,-0.0000,1.35075,0.48284,-2.09928,0.04573,1.57080,-3.01912,-0.09677,-0.44240,0.39130,,
0.6692,1,HOME,-0.0000,1.35075,0.48284,-2.09928,0.04573,1.57080,-3.01912,-0.09677,-0.44240,0.39130,,
0.6801,1,HOME,-0.0000,1.35075,0.48284,-2.09928,0.04573,1.57080,-3.01912,-0.09677,-0.44240,0.39130,,
0.6931,1,HOME,-0.0000,1.35075,0.48284,-2.09928,0.04573,1.57080,-3.01912,-0.09677,-0.44240,0.39130,,
0.6971,1,HOME,-0.0000,1.35075,0.48284,-2.09928,0.04573,1.57080,-3.01912,-0.09677,-0.44240,0.39130,,
0.7084,1,HOME,-0.0000,1.35075,0.48284,-2.09928,0.04573,1.57080,-3.01912,-0.09677,-0.44240,0.39130,,
0.7179,1,HOME,-0.0000,1.35075,0.48284,-2.09928,0.04573,1.57080,-3.01912,-0.09677,-0.44240,0.39130,,
0.7283,1,HOME,-0.0000,1.35075,0.48284,-2.09928,0.04573,1.57080,-3.01912,-0.09677,-0.44240,0.39130,,
0.7393,1,DESCENDING,-0.0000,1.35075,0.48284,-2.09928,0.04573,1.57080,-3.01912,-0.09677,-0.44240,0.39130,,
0.7486,1,DESCENDING,-0.0000,1.35075,0.48284,-2.09928,0.04573,1.57080,-3.01912,-0.09677,-0.44240,0.39130,,
0.7586,1,DESCENDING,-0.0000,1.35075,0.48284,-2.09928,0.04573,1.57080,-3.01912,-0.09677,-0.44240,0.39130,,
0.7668,1,DESCENDING,-0.0000,1.35075,0.48284,-2.09928,0.04573,1.57080,-3.01912,-0.09677,-0.44240,0.39130,,
0.7781,1,DESCENDING,-0.0000,1.35075,0.48284,-2.09928,0.04573,1.57080,-3.01912,-0.09677,-0.44240,0.39130,,
0.8052,1,DESCENDING,-0.0000,1.35075,0.48284,-2.09928,0.04573,1.57080,-3.01912,-0.09677,-0.44240,0.39130,,
0.8205,1,DESCENDING,-0.0000,1.35075,0.48284,-2.09928,0.04573,1.57080,-3.01912,-0.09677,-0.44240,0.39130,,
0.8222,1,DESCENDING,-0.0000,1.35075,0.48284,-2.09928,0.04573,1.57080,-3.01912,-0.09677,-0.44240,0.39130,,
0.8272,1,DESCENDING,-0.0000,1.35075,0.48284,-2.09928,0.04573,1.57080,-3.01912,-0.09677,-0.44240,0.39130,,
0.8377,1,DESCENDING,-0.0000,1.35075,0.48284,-2.09928,0.04573,1.57080,-3.01912,-0.09677,-0.44240,0.39130,,
0.8520,1,DESCENDING,-0.0000,1.35075,0.48284,-2.09928,0.04573,1.57080,-3.01912,-0.09677,-0.44240,0.39130,,
0.8607,1,DESCENDING,-0.0000,1.35075,0.48284,-2.09928,0.04573,1.57080,-3.01912,-0.09677,-0.44240,0.39130,,
0.8742,1,DESCENDING,-0.0000,1.35075,0.48284,-2.09928,0.04573,1.57080,-3.01912,-0.09677,-0.44240,0.39130,,
0.8783,1,DESCENDING,-0.0000,1.35075,0.48284,-2.09928,0.04573,1.57080,-3.01912,-0.09677,-0.44240,0.39130,,
0.8867,1,DESCENDING,-0.0000,1.35075,0.48284,-2.09928,0.04573,1.57080,-3.01912,-0.09677,-0.44240,0.39130,,
0.9075,1,DESCENDING,-0.0000,1.35075,0.48284,-2.09928,0.04573,1.57080,-3.01912,-0.09677,-0.44240,0.39130,,
0.9200,1,DESCENDING,-0.0000,1.35075,0.48284,-2.09928,0.04573,1.57080,-3.01912,-0.09677,-0.44240,0.39130,,
0.9270,1,DESCENDING,-0.0000,1.35075,0.48284,-2.09928,0.04573,1.57080,-3.01912,-0.09677,-0.44240,0.39130,,
0.9381,1,DESCENDING,-0.0000,1.35075,0.48283,-2.09933,0.04578,1.57080,-3.01912,-0.09677,-0.44240,0.39127,,
0.9484,1,DESCENDING,-0.0000,1.35075,0.48283,-2.09944,0.04589,1.57080,-3.01912,-0.09677,-0.44240,0.39121,,
0.9586,1,DESCENDING,-0.0000,1.35075,0.48283,-2.09947,0.04593,1.57080,-3.01912,-0.09677,-0.44240,0.39119,,
0.9696,1,DESCENDING,-0.0000,1.35075,0.48283,-2.09950,0.04596,1.57080,-3.01912,-0.09677,-0.44240,0.39117,,
0.9772,1,DESCENDING,-0.0000,1.35075,0.48282,-2.09954,0.04600,1.57080,-3.01912,-0.09677,-0.44240,0.39115,,
0.9871,1,DESCENDING,-0.0000,1.35075,0.48282,-2.09956,0.04603,1.57080,-3.01912,-0.09677,-0.44240,0.39113,,
1.0039,1,DESCENDING,-0.0000,1.35075,0.48282,-2.09967,0.04614,1.57080,-3.01912,-0.09677,-0.44240,0.39107,,
1.0110,1,DESCENDING,-0.0000,1.35075,0.48281,-2.09970,0.04617,1.57080,-3.01912,-0.09677,-0.44240,0.39106,,
1.0173,1,DESCENDING,-0.0000,1.35075,0.48281,-2.09973,0.04620,1.57080,-3.01912,-0.09677,-0.44240,0.39104,,
1.0307,1,DESCENDING,-0.0000,1.35075,0.48281,-2.09976,0.04624,1.57080,-3.01912,-0.09677,-0.44240,0.39102,,
1.0372,1,DESCENDING,-0.0000,1.35075,0.48281,-2.09981,0.04628,1.57080,-3.01912,-0.09677,-0.44240,0.39099,,
1.0491,1,DESCENDING,-0.0000,1.35075,0.48281,-2.09984,0.04632,1.57080,-3.01912,-0.09677,-0.44240,0.39098,,
1.0571,1,DESCENDING,-0.0000,1.35075,0.48281,-2.09988,0.04636,1.57080,-3.01912,-0.09677,-0.44240,0.39095,,
1.0738,1,DESCENDING,-0.0000,1.35075,0.48280,-2.10000,0.04649,1.57080,-3.01912,-0.09677,-0.44240,0.39088,,
1.0775,1,DESCENDING,-0.0000,1.35075,0.48280,-2.10000,0.04649,1.57080,-3.01912,-0.09677,-0.44240,0.39088,,
1.0894,1,DESCENDING,-0.0000,1.35075,0.48280,-2.10003,0.04652,1.57080,-3.01912,-0.09677,-0.44240,0.39086,,
1.1077,1,DESCENDING,-0.0000,1.35075,0.48279,-2.10010,0.04659,1.57080,-3.01912,-0.09677,-0.44240,0.39082,,
1.1181,1,DESCENDING,-0.0000,1.35075,0.48279,-2.10014,0.04664,1.57080,-3.01912,-0.09677,-0.44240,0.39080,,
1.1200,1,DESCENDING,-0.0000,1.35075,0.48279,-2.10017,0.04667,1.57080,-3.01912,-0.09677,-0.44240,0.39078,,
1.1327,1,DESCENDING,-0.0000,1.35075,0.48279,-2.10027,0.04677,1.57080,-3.01912,-0.09677,-0.44240,0.39073,,
1.1401,1,DESCENDING,-0.0000,1.35075,0.48279,-2.10027,0.04677,1.57080,-3.01912,-0.09677,-0.44240,0.39072,,
1.1498,1,DESCENDING,-0.0000,1.35075,0.48278,-2.10030,0.04680,1.57080,-3.01912,-0.09677,-0.44240,0.39071,,
1.1584,1,DESCENDING,-0.0000,1.35075,0.48278,-2.10034,0.04685,1.57080,-3.01912,-0.09677,-0.44240,0.39068,,
1.1684,1,DESCENDING,-0.0000,1.35075,0.48278,-2.10037,0.04688,1.57080,-3.01912,-0.09677,-0.44240,0.39066,,
1.1789,1,DESCENDING,-0.0000,1.35075,0.48278,-2.10041,0.04692,1.57080,-3.01912,-0.09677,-0.44240,0.39064,,
1.1874,1,DESCENDING,-0.0000,1.35075,0.48277,-2.10047,0.04698,1.57080,-3.01912,-0.09677,-0.44240,0.39061,,
1.1968,1,DESCENDING,-0.0000,1.35075,0.48277,-2.10053,0.04705,1.57080,-3.01912,-0.09677,-0.44240,0.39057,,
1.2088,1,DESCENDING,-0.0000,1.35075,0.48277,-2.10057,0.04709,1.57080,-3.01912,-0.09677,-0.44240,0.39055,,
1.2211,1,DESCENDING,-0.0000,1.35075,0.48276,-2.10066,0.04719,1.57080,-3.01912,-0.09677,-0.44240,0.39050,,
1.2275,1,DESCENDING,-0.0000,1.35075,0.48276,-2.10066,0.04719,1.57080,-3.01912,-0.09677,-0.44240,0.39050,,
1.2419,1,DESCENDING,-0.0000,1.35075,0.48276,-2.10073,0.04726,1.57080,-3.01912,-0.09677,-0.44240,0.39046,,
1.2467,1,DESCENDING,-0.0000,1.35075,0.48276,-2.10076,0.04729,1.57080,-3.01912,-0.09677,-0.44240,0.39044,,
1.2611,1,DESCENDING,-0.0000,1.35075,0.48276,-2.10083,0.04736,1.57080,-3.01912,-0.09677,-0.44240,0.39040,,
1.2752,1,DESCENDING,-0.0000,1.35075,0.48275,-2.10089,0.04743,1.57080,-3.01912,-0.09677,-0.44240,0.39036,,
1.2772,1,DESCENDING,-0.0000,1.35075,0.48275,-2.10092,0.04746,1.57080,-3.01912,-0.09677,-0.44240,0.39034,,
1.2902,1,DESCENDING,-0.0000,1.35075,0.48275,-2.10096,0.04750,1.57080,-3.01912,-0.09677,-0.44240,0.39032,,
1.2967,1,DESCENDING,-0.0000,1.35075,0.48275,-2.10100,0.04754,1.57080,-3.01912,-0.09677,-0.44240,0.39030,,
1.3094,1,DESCENDING,-0.0000,1.35075,0.48274,-2.10108,0.04763,1.57080,-3.01912,-0.09677,-0.44240,0.39025,,
1.3161,1,DESCENDING,-0.0000,1.35075,0.48274,-2.10111,0.04766,1.57080,-3.01912,-0.09677,-0.44240,0.39023,,
1.3315,1,DESCENDING,-0.0000,1.35075,0.48274,-2.10116,0.04770,1.57080,-3.01912,-0.09677,-0.44240,0.39021,,
1.3368,1,DESCENDING,-0.0000,1.35075,0.48274,-2.10121,0.04777,1.57080,-3.01912,-0.09677,-0.44240,0.39017,,
1.3476,1,DESCENDING,-0.0000,1.35075,0.48273,-2.10125,0.04780,1.57080,-3.01912,-0.09677,-0.44240,0.39016,,
1.3572,1,DESCENDING,-0.0000,1.35075,0.48273,-2.10129,0.04784,1.57080,-3.01912,-0.09677,-0.44240,0.39013,,
1.3785,1,DESCENDING,-0.0000,1.35075,0.48273,-2.10141,0.04797,1.57080,-3.01912,-0.09677,-0.44240,0.39006,,
1.3799,1,DESCENDING,-0.0000,1.35075,0.48273,-2.10141,0.04797,1.57080,-3.01912,-0.09677,-0.44240,0.39006,,
1.3868,1,DESCENDING,-0.0000,1.35075,0.48272,-2.10143,0.04799,1.57080,-3.01912,-0.09677,-0.44240,0.39005,,
1.3977,1,DESCENDING,-0.0000,1.35075,0.48272,-2.10151,0.04807,1.57080,-3.01912,-0.09677,-0.44240,0.39000,,
1.4219,1,DESCENDING,-0.0000,1.35075,0.48271,-2.10161,0.04818,1.57080,-3.01912,-0.09677,-0.44240,0.38995,,
1.4352,1,DESCENDING,-0.0000,1.35075,0.48271,-2.10170,0.04827,1.57080,-3.01912,-0.09677,-0.44240,0.38989,,
1.4401,1,DESCENDING,-0.0000,1.35075,0.48271,-2.10170,0.04827,1.57080,-3.01912,-0.09677,-0.44240,0.38989,,
1.4497,1,DESCENDING,-0.0000,1.35075,0.48271,-2.10174,0.04832,1.57080,-3.01912,-0.09677,-0.44240,0.38987,,
1.4587,1,DESCENDING,-0.0000,1.35075,0.48270,-2.10180,0.04838,1.57080,-3.01912,-0.09677,-0.44240,0.38983,,
1.4703,1,DESCENDING,-0.0000,1.35075,0.48270,-2.10183,0.04842,1.57080,-3.01912,-0.09677,-0.44240,0.38981,,
1.4814,1,DESCENDING,-0.0000,1.35075,0.48270,-2.10190,0.04848,1.57080,-3.01912,-0.09677,-0.44240,0.38978,,
1.4864,1,DESCENDING,-0.0000,1.35075,0.48270,-2.10193,0.04852,1.57080,-3.01912,-0.09677,-0.44240,0.38976,,
1.4995,1,DESCENDING,-0.0000,1.35075,0.48269,-2.10199,0.04858,1.57080,-3.01912,-0.09677,-0.44240,0.38972,,
1.5150,1,DESCENDING,-0.0000,1.35075,0.48269,-2.10206,0.04865,1.57080,-3.01912,-0.09677,-0.44240,0.38968,,
1.5163,1,DESCENDING,-0.0000,1.35075,0.48269,-2.10206,0.04865,1.57080,-3.01912,-0.09677,-0.44240,0.38968,,
1.5277,1,DESCENDING,-0.0000,1.35075,0.48269,-2.10212,0.04872,1.57080,-3.01912,-0.09677,-0.44240,0.38965,,
1.5636,1,DESCENDING,-0.0000,1.35075,0.48268,-2.10228,0.04889,1.57080,-3.01912,-0.09677,-0.44240,0.38955,,
1.5782,1,DESCENDING,-0.0000,1.35075,0.48267,-2.10238,0.04899,1.57080,-3.01912,-0.09677,-0.44240,0.38950,,
1.5850,1,DESCENDING,-0.0000,1.35075,0.48267,-2.10244,0.04906,1.57080,-3.01912,-0.09677,-0.44240,0.38946,,
1.5899,1,DESCENDING,-0.0000,1.35075,0.48267,-2.10244,0.04906,1.57080,-3.01912,-0.09677,-0.44240,0.38946,,
1.5905,1,DESCENDING,-0.0000,1.35075,0.48267,-2.10244,0.04906,1.57080,-3.01912,-0.09677,-0.44240,0.38946,,
1.5949,1,DESCENDING,-0.0000,1.35075,0.48267,-2.10244,0.04906,1.57080,-3.01912,-0.09677,-0.44240,0.38946,,
1.5964,1,DESCENDING,-0.0000,1.35075,0.48267,-2.10244,0.04906,1.57080,-3.01912,-0.09677,-0.44240,0.38946,,
1.6094,1,DESCENDING,-0.0000,1.35075,0.48267,-2.10252,0.04914,1.57080,-3.01912,-0.09677,-0.44240,0.38942,,
1.6185,1,DESCENDING,-0.0000,1.35075,0.48266,-2.10254,0.04917,1.57080,-3.01912,-0.09677,-0.44240,0.38940,,
1.6281,1,DESCENDING,-0.0000,1.35075,0.48266,-2.10256,0.04919,1.57080,-3.01912,-0.09677,-0.44240,0.38939,,
1.6372,1,DESCENDING,-0.0000,1.35075,0.48266,-2.10265,0.04927,1.57080,-3.01912,-0.09677,-0.44240,0.38934,,
1.6468,1,DESCENDING,-0.0000,1.35075,0.48266,-2.10271,0.04934,1.57080,-3.01912,-0.09677,-0.44240,0.38930,,
1.6576,1,DESCENDING,-0.0000,1.35075,0.48265,-2.10272,0.04935,1.57080,-3.01912,-0.09677,-0.44240,0.38930,,
1.6752,1,DESCENDING,-0.0000,1.35075,0.48265,-2.10281,0.04945,1.57080,-3.01912,-0.09677,-0.44240,0.38924,,
1.6801,1,DESCENDING,-0.0000,1.35075,0.48265,-2.10281,0.04945,1.57080,-3.01912,-0.09677,-0.44240,0.38924,,
1.6884,1,DESCENDING,-0.0000,1.35075,0.48265,-2.10283,0.04947,1.57080,-3.01912,-0.09677,-0.44240,0.38923,,
1.6974,1,DESCENDING,-0.0000,1.35075,0.48264,-2.10291,0.04956,1.57080,-3.01912,-0.09677,-0.44240,0.38918,,
1.7108,1,DESCENDING,-0.0000,1.35075,0.48264,-2.10298,0.04962,1.57080,-3.01912,-0.09677,-0.44240,0.38915,,
1.7209,1,DESCENDING,-0.0000,1.35075,0.48264,-2.10301,0.04965,1.57080,-3.01912,-0.09677,-0.44240,0.38913,,
1.7279,1,DESCENDING,-0.0000,1.35075,0.48264,-2.10303,0.04968,1.57080,-3.01912,-0.09677,-0.44240,0.38912,,
1.7417,1,DESCENDING,-0.0000,1.35075,0.48263,-2.10308,0.04973,1.57080,-3.01912,-0.09677,-0.44240,0.38909,,
1.7464,1,DESCENDING,-0.0000,1.35075,0.48263,-2.10310,0.04975,1.57080,-3.01912,-0.09677,-0.44240,0.38908,,
1.7564,1,DESCENDING,-0.0000,1.35075,0.48263,-2.10315,0.04980,1.57080,-3.01912,-0.09677,-0.44240,0.38905,,
1.7672,1,DESCENDING,-0.0000,1.35075,0.48263,-2.10324,0.04990,1.57080,-3.01912,-0.09677,-0.44240,0.38899,,
1.7803,1,DESCENDING,-0.0000,1.35075,0.48262,-2.10326,0.04992,1.57080,-3.01912,-0.09677,-0.44240,0.38898,,
1.7883,1,DESCENDING,-0.0000,1.35075,0.48262,-2.10329,0.04996,1.57080,-3.01912,-0.09677,-0.44240,0.38896,,
1.7970,1,DESCENDING,-0.0000,1.35075,0.48262,-2.10334,0.05001,1.57080,-3.01912,-0.09677,-0.44240,0.38893,,
1.8315,1,DESCENDING,-0.0000,1.35075,0.48261,-2.10351,0.05018,1.57080,-3.01912,-0.09677,-0.44240,0.38884,,
1.8342,1,DESCENDING,-0.0000,1.35075,0.48261,-2.10351,0.05019,1.57080,-3.01912,-0.09677,-0.44240,0.38883,,
1.8460,1,DESCENDING,-0.0000,1.35075,0.48261,-2.10356,0.05024,1.57080,-3.01912,-0.09677,-0.44240,0.38881,,
1.8498,1,DESCENDING,-0.0000,1.35075,0.48261,-2.10358,0.05026,1.57080,-3.01912,-0.09677,-0.44240,0.38879,,
1.8581,1,DESCENDING,-0.0000,1.35075,0.48260,-2.10361,0.05029,1.57080,-3.01912,-0.09677,-0.44240,0.38878,,
1.8684,1,DESCENDING,-0.0000,1.35075,0.48260,-2.10363,0.05031,1.57080,-3.01912,-0.09677,-0.44240,0.38877,,
1.8767,1,DESCENDING,-0.0000,1.35075,0.48260,-2.10368,0.05037,1.57080,-3.01912,-0.09677,-0.44240,0.38874,,
1.8895,1,DESCENDING,-0.0000,1.35075,0.48260,-2.10378,0.05047,1.57080,-3.01912,-0.09677,-0.44240,0.38868,,
1.8966,1,DESCENDING,-0.0000,1.35075,0.48260,-2.10378,0.05047,1.57080,-3.01912,-0.09677,-0.44240,0.38868,,
1.9087,1,DESCENDING,-0.0000,1.35075,0.48259,-2.10383,0.05052,1.57080,-3.01912,-0.09677,-0.44240,0.38865,,
1.9316,1,DESCENDING,-0.0000,1.35075,0.48259,-2.10392,0.05062,1.57080,-3.01912,-0.09677,-0.44240,0.38860,,
1.9358,1,DESCENDING,-0.0000,1.35075,0.48259,-2.10395,0.05065,1.57080,-3.01912,-0.09677,-0.44240,0.38858,,
1.9370,1,DESCENDING,-0.0000,1.35075,0.48258,-2.10398,0.05068,1.57080,-3.01912,-0.09677,-0.44240,0.38856,,
1.9508,1,DESCENDING,-0.0000,1.35075,0.48258,-2.10404,0.05075,1.57080,-3.01912,-0.09677,-0.44240,0.38853,,
1.9589,1,DESCENDING,-0.0000,1.35075,0.48258,-2.10406,0.05077,1.57080,-3.01912,-0.09677,-0.44240,0.38851,,
1.9691,1,DESCENDING,-0.0000,1.35075,0.48258,-2.10414,0.05085,1.57080,-3.01912,-0.09677,-0.44240,0.38847,,
1.9799,1,DESCENDING,-0.0000,1.35075,0.48257,-2.10417,0.05089,1.57080,-3.01912,-0.09677,-0.44240,0.38845,,
1.9877,1,DESCENDING,-0.0000,1.35075,0.48257,-2.10419,0.05091,1.57080,-3.01912,-0.09677,-0.44240,0.38844,,
1.9975,1,DESCENDING,-0.0000,1.35075,0.48257,-2.10427,0.05099,1.57080,-3.01912,-0.09677,-0.44240,0.38839,,
2.0061,1,DESCENDING,-0.0000,1.35075,0.48256,-2.10433,0.05105,1.57080,-3.01912,-0.09677,-0.44240,0.38836,,
2.0174,1,DESCENDING,-0.0000,1.35075,0.48256,-2.10435,0.05108,1.57080,-3.01912,-0.09677,-0.44240,0.38834,,
2.0334,1,DESCENDING,-0.0000,1.35075,0.48256,-2.10446,0.05119,1.57080,-3.01912,-0.09677,-0.44240,0.38828,,
2.0413,1,DESCENDING,-0.0000,1.35075,0.48256,-2.10447,0.05120,1.57080,-3.01912,-0.09677,-0.44240,0.38828,,
2.0462,1,DESCENDING,-0.0000,1.35075,0.48256,-2.10448,0.05121,1.57080,-3.01912,-0.09677,-0.44240,0.38827,,
2.0613,1,DESCENDING,-0.0000,1.35075,0.48255,-2.10459,0.05133,1.57080,-3.01912,-0.09677,-0.44240,0.38820,,
2.0739,1,DESCENDING,-0.0000,1.35075,0.48255,-2.10463,0.05137,1.57080,-3.01912,-0.09677,-0.44240,0.38818,,
2.0803,1,DESCENDING,-0.0000,1.35075,0.48255,-2.10464,0.05138,1.57080,-3.01912,-0.09677,-0.44240,0.38817,,
2.0913,1,DESCENDING,-0.0000,1.35075,0.48254,-2.10472,0.05147,1.57080,-3.01912,-0.09677,-0.44240,0.38813,,
2.0972,1,DESCENDING,-0.0000,1.35075,0.48254,-2.10478,0.05153,1.57080,-3.01912,-0.09677,-0.44240,0.38809,,
2.1078,1,DESCENDING,-0.0000,1.35075,0.48254,-2.10479,0.05154,1.57080,-3.01912,-0.09677,-0.44240,0.38809,,
2.1165,1,DESCENDING,-0.0000,1.35075,0.48254,-2.10482,0.05156,1.57080,-3.01912,-0.09677,-0.44240,0.38807,,
2.1381,1,DESCENDING,-0.0000,1.35075,0.48253,-2.10491,0.05166,1.57080,-3.01912,-0.09677,-0.44240,0.38802,,
2.1389,1,DESCENDING,-0.0000,1.35075,0.48253,-2.10491,0.05166,1.57080,-3.01912,-0.09677,-0.44240,0.38802,,
2.1496,1,DESCENDING,-0.0000,1.35075,0.48253,-2.10499,0.05175,1.57080,-3.01912,-0.09677,-0.44240,0.38797,,
2.1566,1,DESCENDING,-0.0000,1.35075,0.48252,-2.10502,0.05178,1.57080,-3.01912,-0.09677,-0.44240,0.38795,,
2.1657,1,DESCENDING,-0.0000,1.35075,0.48252,-2.10506,0.05182,1.57080,-3.01912,-0.09677,-0.44240,0.38793,,
2.1829,1,DESCENDING,-0.0000,1.35075,0.48252,-2.10513,0.05189,1.57080,-3.01912,-0.09677,-0.44240,0.38789,,
2.1931,1,DESCENDING,-0.0000,1.35075,0.48252,-2.10516,0.05193,1.57080,-3.01912,-0.09677,-0.44240,0.38787,,
2.2002,1,DESCENDING,-0.0000,1.35075,0.48252,-2.10517,0.05194,1.57080,-3.01912,-0.09677,-0.44240,0.38786,,
2.2071,1,DESCENDING,-0.0000,1.35075,0.48251,-2.10522,0.05200,1.57080,-3.01912,-0.09677,-0.44240,0.38784,,
2.2173,1,DESCENDING,-0.0000,1.35075,0.48251,-2.10532,0.05210,1.57080,-3.01912,-0.09677,-0.44240,0.38778,,
2.2320,1,DESCENDING,-0.0000,1.35075,0.48251,-2.10533,0.05211,1.57080,-3.01912,-0.09677,-0.44240,0.38777,,
2.2373,1,DESCENDING,-0.0000,1.35075,0.48250,-2.10537,0.05215,1.57080,-3.01912,-0.09677,-0.44240,0.38775,,
2.2606,1,DESCENDING,-0.0000,1.35075,0.48250,-2.10544,0.05223,1.57080,-3.01912,-0.09677,-0.44240,0.38771,,
2.2629,1,DESCENDING,-0.0000,1.35075,0.48250,-2.10546,0.05225,1.57080,-3.01912,-0.09677,-0.44240,0.38770,,
2.2662,1,DESCENDING,-0.0000,1.35075,0.48250,-2.10549,0.05228,1.57080,-3.01912,-0.09677,-0.44240,0.38768,,
2.2993,1,DESCENDING,-0.0000,1.35075,0.48249,-2.10564,0.05243,1.57080,-3.01912,-0.09677,-0.44240,0.38760,,
2.2998,1,DESCENDING,-0.0000,1.35075,0.48249,-2.10564,0.05243,1.57080,-3.01912,-0.09677,-0.44240,0.38760,,
2.3092,1,DESCENDING,-0.0000,1.35075,0.48249,-2.10569,0.05249,1.57080,-3.01912,-0.09677,-0.44240,0.38757,,
2.3183,1,DESCENDING,-0.0000,1.35075,0.48248,-2.10571,0.05251,1.57080,-3.01912,-0.09677,-0.44240,0.38755,,
2.3405,1,DESCENDING,-0.0000,1.35075,0.48248,-2.10585,0.05266,1.57080,-3.01912,-0.09677,-0.44240,0.38747,,
2.3459,1,DESCENDING,-0.0000,1.35075,0.48248,-2.10586,0.05266,1.57080,-3.01912,-0.09677,-0.44240,0.38747,,
2.3612,1,DESCENDING,-0.0000,1.35075,0.48247,-2.10593,0.05274,1.57080,-3.01912,-0.09677,-0.44240,0.38743,,
2.3692,1,DESCENDING,-0.0000,1.35075,0.48247,-2.10595,0.05277,1.57080,-3.01912,-0.09677,-0.44240,0.38741,,
2.3780,1,DESCENDING,-0.0000,1.35075,0.48247,-2.10597,0.05279,1.57080,-3.01912,-0.09677,-0.44240,0.38740,,
2.4029,1,DESCENDING,-0.0000,1.35075,0.48246,-2.10612,0.05294,1.57080,-3.01912,-0.09677,-0.44240,0.38731,,
2.4117,1,DESCENDING,-0.0000,1.35075,0.48246,-2.10613,0.05296,1.57080,-3.01912,-0.09677,-0.44240,0.38731,,
2.4163,1,DESCENDING,-0.0000,1.35075,0.48246,-2.10615,0.05298,1.57080,-3.01912,-0.09677,-0.44240,0.38730,,
2.4258,1,DESCENDING,-0.0000,1.35075,0.48245,-2.10622,0.05305,1.57080,-3.01912,-0.09677,-0.44240,0.38725,,
2.4366,1,DESCENDING,-0.0000,1.35075,0.48245,-2.10622,0.05306,1.57080,-3.01912,-0.09677,-0.44240,0.38725,,
2.4462,1,DESCENDING,-0.0000,1.35075,0.48245,-2.10629,0.05313,1.57080,-3.01912,-0.09677,-0.44240,0.38721,,
2.4626,1,DESCENDING,-0.0000,1.35075,0.48244,-2.10638,0.05322,1.57080,-3.01912,-0.09677,-0.44240,0.38716,,
2.4738,1,DESCENDING,-0.0000,1.35075,0.48244,-2.10643,0.05327,1.57080,-3.01912,-0.09677,-0.44240,0.38713,,
2.4761,1,DESCENDING,-0.0000,1.35075,0.48244,-2.10643,0.05327,1.57080,-3.01912,-0.09677,-0.44240,0.38713,,
2.4896,1,DESCENDING,-0.0000,1.35075,0.48244,-2.10651,0.05336,1.57080,-3.01912,-0.09677,-0.44240,0.38708,,
2.5064,1,DESCENDING,-0.0000,1.35075,0.48243,-2.10658,0.05344,1.57080,-3.01912,-0.09677,-0.44240,0.38704,,
2.5086,1,DESCENDING,-0.0000,1.35075,0.48243,-2.10658,0.05344,1.57080,-3.01912,-0.09677,-0.44240,0.38704,,
2.5172,1,DESCENDING,-0.0000,1.35075,0.48243,-2.10667,0.05353,1.57080,-3.01912,-0.09677,-0.44240,0.38699,,
2.5261,1,DESCENDING,-0.0000,1.35075,0.48243,-2.10668,0.05354,1.57080,-3.01912,-0.09677,-0.44240,0.38699,,
2.5381,1,DESCENDING,-0.0000,1.35075,0.48242,-2.10674,0.05361,1.57080,-3.01912,-0.09677,-0.44240,0.38695,,
2.5461,1,DESCENDING,-0.0000,1.35075,0.48242,-2.10680,0.05367,1.57080,-3.01912,-0.09677,-0.44240,0.38691,,
2.5935,1,DESCENDING,-0.0000,1.35075,0.48241,-2.10701,0.05388,1.57080,-3.01912,-0.09677,-0.44240,0.38679,,
2.6069,1,DESCENDING,-0.0000,1.35075,0.48240,-2.10709,0.05398,1.57080,-3.01912,-0.09677,-0.44240,0.38674,,
2.7724,1,DESCENDING,-0.0000,1.35075,0.48236,-2.10778,0.05471,1.57080,-3.01912,-0.09677,-0.44240,0.38634,,
2.7733,1,DESCENDING,-0.0000,1.35075,0.48236,-2.10780,0.05473,1.57080,-3.01912,-0.09677,-0.44240,0.38633,,
2.7736,1,DESCENDING,-0.0000,1.35075,0.48236,-2.10780,0.05473,1.57080,-3.01912,-0.09677,-0.44240,0.38633,,
2.7779,1,DESCENDING,-0.0000,1.35075,0.48236,-2.10783,0.05476,1.57080,-3.01912,-0.09677,-0.44240,0.38631,,
2.8017,1,DESCENDING,-0.0000,1.35075,0.48235,-2.10794,0.05487,1.57080,-3.01912,-0.09677,-0.44240,0.38625,,
2.8114,1,DESCENDING,-0.0000,1.35075,0.48235,-2.10798,0.05491,1.57080,-3.01912,-0.09677,-0.44240,0.38623,,
2.8186,1,DESCENDING,-0.0000,1.35075,0.48235,-2.10803,0.05497,1.57080,-3.01912,-0.09677,-0.44240,0.38620,,
2.8190,1,DESCENDING,-0.0000,1.35075,0.48235,-2.10803,0.05497,1.57080,-3.01912,-0.09677,-0.44240,0.38620,,
2.8258,1,DESCENDING,-0.0000,1.35075,0.48235,-2.10803,0.05497,1.57080,-3.01912,-0.09677,-0.44240,0.38620,,
2.8381,1,DESCENDING,-0.0000,1.35075,0.48234,-2.10810,0.05504,1.57080,-3.01912,-0.09677,-0.44240,0.38616,,
2.8526,1,DESCENDING,-0.0000,1.35075,0.48234,-2.10819,0.05514,1.57080,-3.01912,-0.09677,-0.44240,0.38610,,
2.8564,1,DESCENDING,-0.0000,1.35075,0.48234,-2.10819,0.05514,1.57080,-3.01912,-0.09677,-0.44240,0.38610,,
2.8820,1,DESCENDING,-0.0000,1.35075,0.48233,-2.10829,0.05525,1.57080,-3.01912,-0.09677,-0.44240,0.38604,,
2.9004,1,DESCENDING,-0.0000,1.35075,0.48232,-2.10836,0.05532,1.57080,-3.01912,-0.09677,-0.44240,0.38600,,
2.9012,1,DESCENDING,-0.0000,1.35075,0.48232,-2.10839,0.05536,1.57080,-3.01912,-0.09677,-0.44240,0.38598,,
2.9101,1,DESCENDING,-0.0000,1.35075,0.48232,-2.10846,0.05542,1.57080,-3.01912,-0.09677,-0.44240,0.38595,,
2.9213,1,DESCENDING,-0.0000,1.35075,0.48232,-2.10847,0.05544,1.57080,-3.01912,-0.09677,-0.44240,0.38594,,
2.9293,1,DESCENDING,-0.0000,1.35075,0.48232,-2.10851,0.05548,1.57080,-3.01912,-0.09677,-0.44240,0.38592,,
2.9491,1,DESCENDING,-0.0000,1.35075,0.48231,-2.10858,0.05555,1.57080,-3.01912,-0.09677,-0.44240,0.38588,,
2.9656,1,DESCENDING,-0.0000,1.35075,0.48230,-2.10869,0.05567,1.57080,-3.01912,-0.09677,-0.44240,0.38581,,
2.9674,1,DESCENDING,-0.0000,1.35075,0.48230,-2.10869,0.05567,1.57080,-3.01912,-0.09677,-0.44240,0.38581,,
2.9767,1,DESCENDING,-0.0000,1.35075,0.48230,-2.10872,0.05571,1.57080,-3.01912,-0.09677,-0.44240,0.38579,,
2.9858,1,DESCENDING,-0.0000,1.35075,0.48230,-2.10875,0.05574,1.57080,-3.01912,-0.09677,-0.44240,0.38577,,
3.0012,1,DESCENDING,-0.0000,1.35075,0.48230,-2.10882,0.05581,1.57080,-3.01912,-0.09677,-0.44240,0.38573,,
3.0084,1,DESCENDING,-0.0000,1.35075,0.48230,-2.10883,0.05582,1.57080,-3.01912,-0.09677,-0.44240,0.38573,,
3.0193,1,DESCENDING,-0.0000,1.35075,0.48229,-2.10890,0.05589,1.57080,-3.01912,-0.09677,-0.44240,0.38569,,
3.0275,1,DESCENDING,-0.0000,1.35075,0.48229,-2.10896,0.05596,1.57080,-3.01912,-0.09677,-0.44240,0.38565,,
3.0358,1,DESCENDING,-0.0000,1.35075,0.48229,-2.10899,0.05599,1.57080,-3.01912,-0.09677,-0.44240,0.38564,,
3.0541,1,DESCENDING,-0.0000,1.35075,0.48228,-2.10906,0.05607,1.57080,-3.01912,-0.09677,-0.44240,0.38559,,
3.0572,1,DESCENDING,-0.0000,1.35075,0.48228,-2.10909,0.05610,1.57080,-3.01912,-0.09677,-0.44240,0.38558,,
3.0685,1,DESCENDING,-0.0000,1.35075,0.48228,-2.10910,0.05610,1.57080,-3.01912,-0.09677,-0.44240,0.38557,,
3.0773,1,DESCENDING,-0.0000,1.35075,0.48227,-2.10916,0.05617,1.57080,-3.01912,-0.09677,-0.44240,0.38553,,
3.0861,1,DESCENDING,-0.0000,1.35075,0.48227,-2.10922,0.05624,1.57080,-3.01912,-0.09677,-0.44240,0.38550,,
3.1002,1,DESCENDING,-0.0000,1.35075,0.48227,-2.10926,0.05628,1.57080,-3.01912,-0.09677,-0.44240,0.38548,,
3.1091,1,DESCENDING,-0.0000,1.35075,0.48226,-2.10932,0.05634,1.57080,-3.01912,-0.09677,-0.44240,0.38544,,
3.1221,1,DESCENDING,-0.0000,1.35075,0.48226,-2.10938,0.05641,1.57080,-3.01912,-0.09677,-0.44240,0.38540,,
3.1270,1,DESCENDING,-0.0000,1.35075,0.48226,-2.10939,0.05641,1.57080,-3.01912,-0.09677,-0.44240,0.38540,,
3.1385,1,DESCENDING,-0.0000,1.35075,0.48226,-2.10945,0.05648,1.57080,-3.01912,-0.09677,-0.44240,0.38536,,
3.1681,1,DESCENDING,-0.0000,1.35075,0.48225,-2.10959,0.05662,1.57080,-3.01912,-0.09677,-0.44240,0.38529,,
3.1685,1,DESCENDING,-0.0000,1.35075,0.48225,-2.10959,0.05662,1.57080,-3.01912,-0.09677,-0.44240,0.38529,,
3.1800,1,DESCENDING,-0.0000,1.35075,0.48224,-2.10967,0.05672,1.57080,-3.01912,-0.09677,-0.44240,0.38523,,
3.1890,1,DESCENDING,-0.0000,1.35075,0.48224,-2.10969,0.05674,1.57080,-3.01912,-0.09677,-0.44240,0.38522,,
3.1998,1,DESCENDING,-0.0000,1.35075,0.48224,-2.10974,0.05679,1.57080,-3.01912,-0.09677,-0.44240,0.38519,,
3.2069,1,DESCENDING,-0.0000,1.35075,0.48223,-2.10980,0.05686,1.57080,-3.01912,-0.09677,-0.44240,0.38516,,
3.2294,1,DESCENDING,-0.0000,1.35075,0.48223,-2.10990,0.05696,1.57080,-3.01912,-0.09677,-0.44240,0.38510,,
3.2339,1,DESCENDING,-0.0000,1.35075,0.48223,-2.10993,0.05699,1.57080,-3.01912,-0.09677,-0.44240,0.38508,,
3.2400,1,DESCENDING,-0.0000,1.35075,0.48222,-2.10996,0.05703,1.57080,-3.01912,-0.09677,-0.44240,0.38506,,
3.2537,1,DESCENDING,-0.0000,1.35075,0.48222,-2.11001,0.05707,1.57080,-3.01912,-0.09677,-0.44240,0.38504,,
3.3338,1,DESCENDING,-0.0000,1.35075,0.48219,-2.11041,0.05750,1.57080,-3.01912,-0.09677,-0.44240,0.38480,,
3.3440,1,DESCENDING,-0.0000,1.35075,0.48219,-2.11043,0.05753,1.57080,-3.01912,-0.09677,-0.44240,0.38479,,
3.3443,1,DESCENDING,-0.0000,1.35075,0.48219,-2.11043,0.05753,1.57080,-3.01912,-0.09677,-0.44240,0.38479,,
3.3680,1,DESCENDING,-0.0000,1.35075,0.48218,-2.11057,0.05767,1.57080,-3.01912,-0.09677,-0.44240,0.38471,,
3.3825,1,DESCENDING,-0.0000,1.35075,0.48218,-2.11063,0.05773,1.57080,-3.01912,-0.09677,-0.44240,0.38468,,
3.3854,1,DESCENDING,-0.0000,1.35075,0.48218,-2.11065,0.05776,1.57080,-3.01912,-0.09677,-0.44240,0.38466,,
3.4745,1,DESCENDING,-0.0000,1.35075,0.48215,-2.11104,0.05817,1.57080,-3.01912,-0.09677,-0.44240,0.38443,,
3.4748,1,DESCENDING,-0.0000,1.35075,0.48215,-2.11104,0.05817,1.57080,-3.01912,-0.09677,-0.44240,0.38443,,
3.4776,1,DESCENDING,-0.0000,1.35075,0.48215,-2.11108,0.05821,1.57080,-3.01912,-0.09677,-0.44240,0.38441,,
3.4863,1,DESCENDING,-0.0000,1.35075,0.48215,-2.11111,0.05824,1.57080,-3.01912,-0.09677,-0.44240,0.38440,,
3.5144,1,DESCENDING,-0.0000,1.35075,0.48214,-2.11121,0.05835,1.57080,-3.01912,-0.09677,-0.44240,0.38434,,
3.5183,1,DESCENDING,-0.0000,1.35075,0.48214,-2.11121,0.05836,1.57080,-3.01912,-0.09677,-0.44240,0.38433,,
3.5280,1,DESCENDING,-0.0000,1.35075,0.48214,-2.11125,0.05840,1.57080,-3.01912,-0.09677,-0.44240,0.38431,,
3.5290,1,DESCENDING,-0.0000,1.35075,0.48214,-2.11128,0.05842,1.57080,-3.01912,-0.09677,-0.44240,0.38430,,
3.5389,1,DESCENDING,-0.0000,1.35075,0.48213,-2.11134,0.05849,1.57080,-3.01912,-0.09677,-0.44240,0.38426,,
3.5477,1,DESCENDING,-0.0000,1.35075,0.48213,-2.11137,0.05852,1.57080,-3.01912,-0.09677,-0.44240,0.38424,,
3.5643,1,DESCENDING,-0.0000,1.35075,0.48213,-2.11142,0.05858,1.57080,-3.01912,-0.09677,-0.44240,0.38421,,
3.5688,1,DESCENDING,-0.0000,1.35075,0.48213,-2.11147,0.05863,1.57080,-3.01912,-0.09677,-0.44240,0.38418,,
3.5766,1,DESCENDING,-0.0000,1.35075,0.48213,-2.11147,0.05863,1.57080,-3.01912,-0.09677,-0.44240,0.38418,,
3.5916,1,DESCENDING,-0.0000,1.35075,0.48212,-2.11154,0.05871,1.57080,-3.01912,-0.09677,-0.44240,0.38414,,
3.5988,1,DESCENDING,-0.0000,1.35075,0.48212,-2.11161,0.05877,1.57080,-3.01912,-0.09677,-0.44240,0.38410,,
3.6158,1,DESCENDING,-0.0000,1.35075,0.48211,-2.11165,0.05882,1.57080,-3.01912,-0.09677,-0.44240,0.38408,,
3.6165,1,DESCENDING,-0.0000,1.35075,0.48211,-2.11165,0.05882,1.57080,-3.01912,-0.09677,-0.44240,0.38408,,
3.6277,1,DESCENDING,-0.0000,1.35075,0.48211,-2.11171,0.05889,1.57080,-3.01912,-0.09677,-0.44240,0.38404,,
3.6381,1,DESCENDING,-0.0000,1.35075,0.48211,-2.11174,0.05892,1.57080,-3.01912,-0.09677,-0.44240,0.38402,,
3.6465,1,DESCENDING,-0.0000,1.35075,0.48211,-2.11178,0.05896,1.57080,-3.01912,-0.09677,-0.44240,0.38400,,
3.6578,1,DESCENDING,-0.0000,1.35075,0.48210,-2.11187,0.05906,1.57080,-3.01912,-0.09677,-0.44240,0.38395,,
3.6677,1,DESCENDING,-0.0000,1.35075,0.48210,-2.11190,0.05909,1.57080,-3.01912,-0.09677,-0.44240,0.38393,,
3.6933,1,DESCENDING,-0.0000,1.35075,0.48209,-2.11200,0.05920,1.57080,-3.01912,-0.09677,-0.44240,0.38387,,
3.6991,1,DESCENDING,-0.0000,1.35075,0.48209,-2.11201,0.05920,1.57080,-3.01912,-0.09677,-0.44240,0.38387,,
3.7395,1,DESCENDING,-0.0000,1.35075,0.48208,-2.11220,0.05941,1.57080,-3.01912,-0.09677,-0.44240,0.38376,,
3.7405,1,DESCENDING,-0.0000,1.35075,0.48208,-2.11220,0.05941,1.57080,-3.01912,-0.09677,-0.44240,0.38376,,
3.7475,1,DESCENDING,-0.0000,1.35075,0.48207,-2.11224,0.05945,1.57080,-3.01912,-0.09677,-0.44240,0.38373,,
3.7585,1,DESCENDING,-0.0000,1.35075,0.48207,-2.11228,0.05949,1.57080,-3.01912,-0.09677,-0.44240,0.38371,,
3.7670,1,DESCENDING,-0.0000,1.35075,0.48207,-2.11231,0.05953,1.57080,-3.01912,-0.09677,-0.44240,0.38369,,
3.8704,1,DESCENDING,-0.0000,1.35075,0.48204,-2.11280,0.06005,1.57080,-3.01912,-0.09677,-0.44240,0.38340,,
3.8885,1,DESCENDING,-0.0000,1.35075,0.48203,-2.11284,0.06009,1.57080,-3.01912,-0.09677,-0.44240,0.38338,,
3.8965,1,DESCENDING,-0.0000,1.35075,0.48203,-2.11290,0.06016,1.57080,-3.01912,-0.09677,-0.44240,0.38334,,
3.8969,1,DESCENDING,-0.0000,1.35075,0.48203,-2.11290,0.06016,1.57080,-3.01912,-0.09677,-0.44240,0.38334,,
3.8972,1,DESCENDING,-0.0000,1.35075,0.48203,-2.11290,0.06016,1.57080,-3.01912,-0.09677,-0.44240,0.38334,,
3.9591,1,DESCENDING,-0.0000,1.35075,0.48201,-2.11320,0.06047,1.57080,-3.01912,-0.09677,-0.44240,0.38317,,
4.0100,1,DESCENDING,-0.0000,1.35075,0.48200,-2.11340,0.06069,1.57080,-3.01912,-0.09677,-0.44240,0.38305,,
4.0124,1,DESCENDING,-0.0000,1.35075,0.48200,-2.11340,0.06069,1.57080,-3.01912,-0.09677,-0.44240,0.38305,,
4.0128,1,DESCENDING,-0.0000,1.35075,0.48200,-2.11340,0.06069,1.57080,-3.01912,-0.09677,-0.44240,0.38305,,
4.0134,1,DESCENDING,-0.0000,1.35075,0.48200,-2.11340,0.06069,1.57080,-3.01912,-0.09677,-0.44240,0.38305,,
4.0196,1,DESCENDING,-0.0000,1.35075,0.48199,-2.11346,0.06076,1.57080,-3.01912,-0.09677,-0.44240,0.38301,,
4.0202,1,DESCENDING,-0.0000,1.35075,0.48199,-2.11346,0.06076,1.57080,-3.01912,-0.09677,-0.44240,0.38301,,
4.0205,1,DESCENDING,-0.0000,1.35075,0.48199,-2.11346,0.06076,1.57080,-3.01912,-0.09677,-0.44240,0.38301,,
4.0306,1,DESCENDING,-0.0000,1.35075,0.48199,-2.11350,0.06079,1.57080,-3.01912,-0.09677,-0.44240,0.38299,,
4.0396,1,DESCENDING,-0.0000,1.35075,0.48199,-2.11353,0.06082,1.57080,-3.01912,-0.09677,-0.44240,0.38298,,
4.0471,1,DESCENDING,-0.0000,1.35075,0.48198,-2.11357,0.06087,1.57080,-3.01912,-0.09677,-0.44240,0.38295,,
4.0593,1,DESCENDING,-0.0000,1.35075,0.48198,-2.11360,0.06090,1.57080,-3.01912,-0.09677,-0.44240,0.38293,,
4.0949,1,DESCENDING,-0.0000,1.35075,0.48197,-2.11377,0.06109,1.57080,-3.01912,-0.09677,-0.44240,0.38283,,
4.1022,1,DESCENDING,-0.0000,1.35075,0.48197,-2.11381,0.06113,1.57080,-3.01912,-0.09677,-0.44240,0.38281,,
4.1032,1,DESCENDING,-0.0000,1.35075,0.48197,-2.11381,0.06113,1.57080,-3.01912,-0.09677,-0.44240,0.38281,,
4.1103,1,DESCENDING,-0.0000,1.35075,0.48196,-2.11386,0.06118,1.57080,-3.01912,-0.09677,-0.44240,0.38278,,
4.1276,1,DESCENDING,-0.0000,1.35075,0.48196,-2.11390,0.06123,1.57080,-3.01912,-0.09677,-0.44240,0.38276,,
4.1287,1,DESCENDING,-0.0000,1.35075,0.48196,-2.11390,0.06123,1.57080,-3.01912,-0.09677,-0.44240,0.38276,,
4.1398,1,DESCENDING,-0.0000,1.35075,0.48196,-2.11400,0.06132,1.57080,-3.01912,-0.09677,-0.44240,0.38270,,
4.1475,1,DESCENDING,-0.0000,1.35075,0.48195,-2.11403,0.06136,1.57080,-3.01912,-0.09677,-0.44240,0.38268,,
4.1630,1,DESCENDING,-0.0000,1.35075,0.48195,-2.11409,0.06143,1.57080,-3.01912,-0.09677,-0.44240,0.38264,,
4.1679,1,DESCENDING,-0.0000,1.35075,0.48195,-2.11412,0.06146,1.57080,-3.01912,-0.09677,-0.44240,0.38263,,
4.1788,1,DESCENDING,-0.0000,1.35075,0.48194,-2.11416,0.06150,1.57080,-3.01912,-0.09677,-0.44240,0.38261,,
4.1866,1,DESCENDING,-0.0000,1.35075,0.48194,-2.11420,0.06154,1.57080,-3.01912,-0.09677,-0.44240,0.38258,,
4.1970,1,DESCENDING,-0.0000,1.35075,0.48194,-2.11425,0.06160,1.57080,-3.01912,-0.09677,-0.44240,0.38255,,
4.2084,1,DESCENDING,-0.0000,1.35075,0.48193,-2.11431,0.06167,1.57080,-3.01912,-0.09677,-0.44240,0.38251,,
4.2169,1,DESCENDING,-0.0000,1.35075,0.48193,-2.11433,0.06169,1.57080,-3.01912,-0.09677,-0.44240,0.38250,,
4.2304,1,DESCENDING,-0.0000,1.35075,0.48192,-2.11444,0.06180,1.57080,-3.01912,-0.09677,-0.44240,0.38244,,
4.2468,1,DESCENDING,-0.0000,1.35075,0.48192,-2.11449,0.06185,1.57080,-3.01912,-0.09677,-0.44240,0.38241,,
4.2512,1,DESCENDING,-0.0000,1.35075,0.48192,-2.11451,0.06188,1.57080,-3.01912,-0.09677,-0.44240,0.38240,,
4.2582,1,DESCENDING,-0.0000,1.35075,0.48192,-2.11457,0.06194,1.57080,-3.01912,-0.09677,-0.44240,0.38236,,
4.2663,1,DESCENDING,-0.0000,1.35075,0.48191,-2.11460,0.06198,1.57080,-3.01912,-0.09677,-0.44240,0.38235,,
4.2925,1,DESCENDING,-0.0000,1.35075,0.48190,-2.11473,0.06211,1.57080,-3.01912,-0.09677,-0.44240,0.38227,,
4.2986,1,DESCENDING,-0.0000,1.35075,0.48190,-2.11476,0.06215,1.57080,-3.01912,-0.09677,-0.44240,0.38225,,
4.2989,1,DESCENDING,-0.0000,1.35075,0.48190,-2.11476,0.06215,1.57080,-3.01912,-0.09677,-0.44240,0.38225,,
4.3068,1,DESCENDING,-0.0000,1.35075,0.48190,-2.11478,0.06216,1.57080,-3.01912,-0.09677,-0.44240,0.38224,,
4.3170,1,DESCENDING,-0.0000,1.35075,0.48190,-2.11482,0.06220,1.57080,-3.01912,-0.09677,-0.44240,0.38222,,
4.3274,1,DESCENDING,-0.0000,1.35075,0.48189,-2.11487,0.06226,1.57080,-3.01912,-0.09677,-0.44240,0.38219,,
4.3459,1,DESCENDING,-0.0000,1.35075,0.48189,-2.11497,0.06236,1.57080,-3.01912,-0.09677,-0.44240,0.38213,,
4.3524,1,DESCENDING,-0.0000,1.35075,0.48189,-2.11500,0.06240,1.57080,-3.01912,-0.09677,-0.44240,0.38211,,
4.4535,1,DESCENDING,-0.0000,1.35075,0.48186,-2.11540,0.06283,1.57080,-3.01912,-0.09677,-0.44240,0.38188,,
4.4695,1,DESCENDING,-0.0000,1.35075,0.48185,-2.11550,0.06293,1.57080,-3.01912,-0.09677,-0.44240,0.38182,,
4.5609,1,DESCENDING,-0.0000,1.35075,0.48182,-2.11590,0.06336,1.57080,-3.01912,-0.09677,-0.44240,0.38158,,
4.5619,1,DESCENDING,-0.0000,1.35075,0.48182,-2.11593,0.06339,1.57080,-3.01912,-0.09677,-0.44240,0.38157,,
4.5623,1,DESCENDING,-0.0000,1.35075,0.48182,-2.11593,0.06339,1.57080,-3.01912,-0.09677,-0.44240,0.38157,,
4.5628,1,DESCENDING,-0.0000,1.35075,0.48182,-2.11593,0.06339,1.57080,-3.01912,-0.09677,-0.44240,0.38157,,
4.5631,1,DESCENDING,-0.0000,1.35075,0.48182,-2.11593,0.06339,1.57080,-3.01912,-0.09677,-0.44240,0.38157,,
4.5669,1,DESCENDING,-0.0000,1.35075,0.48182,-2.11593,0.06339,1.57080,-3.01912,-0.09677,-0.44240,0.38157,,
4.5705,1,DESCENDING,-0.0000,1.35075,0.48182,-2.11593,0.06340,1.57080,-3.01912,-0.09677,-0.44240,0.38157,,
4.5715,1,DESCENDING,-0.0000,1.35075,0.48182,-2.11593,0.06340,1.57080,-3.01912,-0.09677,-0.44240,0.38157,,
4.5720,1,DESCENDING,-0.0000,1.35075,0.48182,-2.11593,0.06340,1.57080,-3.01912,-0.09677,-0.44240,0.38157,,
4.5730,1,DESCENDING,-0.0000,1.35075,0.48182,-2.11593,0.06340,1.57080,-3.01912,-0.09677,-0.44240,0.38157,,
4.5735,1,DESCENDING,-0.0000,1.35075,0.48182,-2.11593,0.06340,1.57080,-3.01912,-0.09677,-0.44240,0.38157,,
4.5783,1,DESCENDING,-0.0000,1.35075,0.48182,-2.11597,0.06344,1.57080,-3.01912,-0.09677,-0.44240,0.38154,,
4.5987,1,DESCENDING,-0.0000,1.35075,0.48181,-2.11609,0.06357,1.57080,-3.01912,-0.09677,-0.44240,0.38147,,
4.5991,1,DESCENDING,-0.0000,1.35075,0.48181,-2.11609,0.06357,1.57080,-3.01912,-0.09677,-0.44240,0.38147,,
4.5993,1,DESCENDING,-0.0000,1.35075,0.48181,-2.11609,0.06357,1.57080,-3.01912,-0.09677,-0.44240,0.38147,,
4.6007,1,DESCENDING,-0.0000,1.35075,0.48181,-2.11609,0.06357,1.57080,-3.01912,-0.09677,-0.44240,0.38147,,
4.6013,1,DESCENDING,-0.0000,1.35075,0.48181,-2.11609,0.06357,1.57080,-3.01912,-0.09677,-0.44240,0.38147,,
4.6018,1,DESCENDING,-0.0000,1.35075,0.48181,-2.11609,0.06357,1.57080,-3.01912,-0.09677,-0.44240,0.38147,,
4.6078,1,DESCENDING,-0.0000,1.35075,0.48181,-2.11610,0.06358,1.57080,-3.01912,-0.09677,-0.44240,0.38146,,
4.6094,1,DESCENDING,-0.0000,1.35075,0.48181,-2.11610,0.06358,1.57080,-3.01912,-0.09677,-0.44240,0.38146,,
4.6103,1,DESCENDING,-0.0000,1.35075,0.48181,-2.11612,0.06360,1.57080,-3.01912,-0.09677,-0.44240,0.38146,,
4.6184,1,DESCENDING,-0.0000,1.35075,0.48180,-2.11616,0.06365,1.57080,-3.01912,-0.09677,-0.44240,0.38143,,
4.6310,1,DESCENDING,-0.0000,1.35075,0.48180,-2.11620,0.06368,1.57080,-3.01912,-0.09677,-0.44240,0.38141,,
4.6403,1,DESCENDING,-0.0000,1.35075,0.48180,-2.11623,0.06372,1.57080,-3.01912,-0.09677,-0.44240,0.38139,,
4.6495,1,DESCENDING,-0.0000,1.35075,0.48179,-2.11629,0.06378,1.57080,-3.01912,-0.09677,-0.44240,0.38135,,
4.6586,1,DESCENDING,-0.0000,1.35075,0.48179,-2.11635,0.06385,1.57080,-3.01912,-0.09677,-0.44240,0.38132,,
4.6667,1,DESCENDING,-0.0000,1.35075,0.48179,-2.11637,0.06387,1.57080,-3.01912,-0.09677,-0.44240,0.38131,,
4.6764,1,DESCENDING,-0.0000,1.35075,0.48178,-2.11642,0.06392,1.57080,-3.01912,-0.09677,-0.44240,0.38128,,
4.6952,1,DESCENDING,-0.0000,1.35075,0.48178,-2.11650,0.06401,1.57080,-3.01912,-0.09677,-0.44240,0.38123,,
4.6963,1,DESCENDING,-0.0000,1.35075,0.48178,-2.11650,0.06401,1.57080,-3.01912,-0.09677,-0.44240,0.38123,,
4.7082,1,DESCENDING,-0.0000,1.35075,0.48177,-2.11658,0.06409,1.57080,-3.01912,-0.09677,-0.44240,0.38118,,
4.7168,1,DESCENDING,-0.0000,1.35075,0.48177,-2.11664,0.06416,1.57080,-3.01912,-0.09677,-0.44240,0.38115,,
4.7263,1,DESCENDING,-0.0000,1.35075,0.48177,-2.11666,0.06418,1.57080,-3.01912,-0.09677,-0.44240,0.38114,,
4.7365,1,DESCENDING,-0.0000,1.35075,0.48176,-2.11671,0.06423,1.57080,-3.01912,-0.09677,-0.44240,0.38111,,
4.7529,1,DESCENDING,-0.0000,1.35075,0.48176,-2.11678,0.06430,1.57080,-3.01912,-0.09677,-0.44240,0.38107,,
4.7576,1,DESCENDING,-0.0000,1.35075,0.48176,-2.11679,0.06432,1.57080,-3.01912,-0.09677,-0.44240,0.38106,,
4.7668,1,DESCENDING,-0.0000,1.35075,0.48175,-2.11687,0.06440,1.57080,-3.01912,-0.09677,-0.44240,0.38101,,
4.7767,1,DESCENDING,-0.0000,1.35075,0.48175,-2.11693,0.06447,1.57080,-3.01912,-0.09677,-0.44240,0.38098,,
4.7930,1,DESCENDING,-0.0000,1.35075,0.48174,-2.11697,0.06451,1.57080,-3.01912,-0.09677,-0.44240,0.38095,,
4.7986,1,DESCENDING,-0.0000,1.35075,0.48174,-2.11703,0.06457,1.57080,-3.01912,-0.09677,-0.44240,0.38092,,
4.8184,1,DESCENDING,-0.0000,1.35075,0.48173,-2.11710,0.06465,1.57080,-3.01912,-0.09677,-0.44240,0.38088,,
4.8284,1,DESCENDING,-0.0000,1.35075,0.48173,-2.11716,0.06471,1.57080,-3.01912,-0.09677,-0.44240,0.38084,,
4.8384,1,DESCENDING,-0.0000,1.35075,0.48173,-2.11722,0.06478,1.57080,-3.01912,-0.09677,-0.44240,0.38081,,
4.8466,1,DESCENDING,-0.0000,1.35075,0.48172,-2.11724,0.06480,1.57080,-3.01912,-0.09677,-0.44240,0.38080,,
4.8590,1,DESCENDING,-0.0000,1.35075,0.48172,-2.11732,0.06488,1.57080,-3.01912,-0.09677,-0.44240,0.38075,,
4.8664,1,DESCENDING,-0.0000,1.35075,0.48171,-2.11738,0.06495,1.57080,-3.01912,-0.09677,-0.44240,0.38071,,
4.8792,1,DESCENDING,-0.0000,1.35075,0.48171,-2.11738,0.06495,1.57080,-3.01912,-0.09677,-0.44240,0.38071,,
4.9312,1,DESCENDING,-0.0000,1.35075,0.48169,-2.11765,0.06524,1.57080,-3.01912,-0.09677,-0.44240,0.38056,,
4.9316,1,DESCENDING,-0.0000,1.35075,0.48169,-2.11765,0.06524,1.57080,-3.01912,-0.09677,-0.44240,0.38056,,
4.9325,1,DESCENDING,-0.0000,1.35075,0.48169,-2.11765,0.06524,1.57080,-3.01912,-0.09677,-0.44240,0.38056,,
4.9329,1,DESCENDING,-0.0000,1.35075,0.48169,-2.11765,0.06524,1.57080,-3.01912,-0.09677,-0.44240,0.38056,,
4.9386,1,DESCENDING,-0.0000,1.35075,0.48169,-2.11766,0.06525,1.57080,-3.01912,-0.09677,-0.44240,0.38055,,
4.9420,1,DESCENDING,-0.0000,1.35075,0.48169,-2.11766,0.06525,1.57080,-3.01912,-0.09677,-0.44240,0.38055,,
4.9483,1,DESCENDING,-0.0000,1.35075,0.48169,-2.11770,0.06529,1.57080,-3.01912,-0.09677,-0.44240,0.38053,,
4.9629,1,DESCENDING,-0.0000,1.35075,0.48169,-2.11775,0.06535,1.57080,-3.01912,-0.09677,-0.44240,0.38050,,
4.9681,1,DESCENDING,-0.0000,1.35075,0.48169,-2.11777,0.06537,1.57080,-3.01912,-0.09677,-0.44240,0.38049,,
4.9779,1,DESCENDING,-0.0000,1.35075,0.48168,-2.11782,0.06542,1.57080,-3.01912,-0.09677,-0.44240,0.38046,,
4.9877,1,DESCENDING,-0.0000,1.35075,0.48167,-2.11791,0.06552,1.57080,-3.01912,-0.09677,-0.44240,0.38040,,
4.9981,1,DESCENDING,-0.0000,1.35075,0.48167,-2.11791,0.06552,1.57080,-3.01912,-0.09677,-0.44240,0.38040,,
5.0075,1,DESCENDING,-0.0000,1.35075,0.48167,-2.11796,0.06557,1.57080,-3.01912,-0.09677,-0.44240,0.38037,,
5.0180,1,DESCENDING,-0.0000,1.35075,0.48167,-2.11801,0.06563,1.57080,-3.01912,-0.09677,-0.44240,0.38034,,
5.0334,1,DESCENDING,-0.0000,1.35075,0.48166,-2.11805,0.06567,1.57080,-3.01912,-0.09677,-0.44240,0.38032,,
5.0363,1,DESCENDING,-0.0000,1.35075,0.48166,-2.11808,0.06570,1.57080,-3.01912,-0.09677,-0.44240,0.38030,,
5.0508,1,DESCENDING,-0.0000,1.35075,0.48166,-2.11815,0.06578,1.57080,-3.01912,-0.09677,-0.44240,0.38026,,
5.0580,1,DESCENDING,-0.0000,1.35075,0.48166,-2.11816,0.06579,1.57080,-3.01912,-0.09677,-0.44240,0.38025,,
5.0678,1,DESCENDING,-0.0000,1.35075,0.48165,-2.11824,0.06588,1.57080,-3.01912,-0.09677,-0.44240,0.38021,,
5.0773,1,DESCENDING,-0.0000,1.35075,0.48165,-2.11830,0.06594,1.57080,-3.01912,-0.09677,-0.44240,0.38017,,
5.0910,1,DESCENDING,-0.0000,1.35075,0.48164,-2.11834,0.06599,1.57080,-3.01912,-0.09677,-0.44240,0.38015,,
5.1025,1,DESCENDING,-0.0000,1.35075,0.48164,-2.11840,0.06605,1.57080,-3.01912,-0.09677,-0.44240,0.38011,,
5.1067,1,DESCENDING,-0.0000,1.35075,0.48164,-2.11843,0.06608,1.57080,-3.01912,-0.09677,-0.44240,0.38010,,
5.1194,1,DESCENDING,-0.0000,1.35075,0.48163,-2.11848,0.06613,1.57080,-3.01912,-0.09677,-0.44240,0.38007,,
5.1264,1,DESCENDING,-0.0000,1.35075,0.48163,-2.11849,0.06615,1.57080,-3.01912,-0.09677,-0.44240,0.38006,,
5.1390,1,DESCENDING,-0.0000,1.35075,0.48163,-2.11856,0.06622,1.57080,-3.01912,-0.09677,-0.44240,0.38002,,
5.1522,1,DESCENDING,-0.0000,1.35075,0.48162,-2.11861,0.06627,1.57080,-3.01912,-0.09677,-0.44240,0.37999,,
5.1630,1,DESCENDING,-0.0000,1.35075,0.48162,-2.11870,0.06637,1.57080,-3.01912,-0.09677,-0.44240,0.37994,,
5.1681,1,DESCENDING,-0.0000,1.35075,0.48162,-2.11870,0.06637,1.57080,-3.01912,-0.09677,-0.44240,0.37994,,
5.1767,1,DESCENDING,-0.0000,1.35075,0.48161,-2.11872,0.06639,1.57080,-3.01912,-0.09677,-0.44240,0.37993,,
5.1863,1,DESCENDING,-0.0000,1.35075,0.48161,-2.11876,0.06644,1.57080,-3.01912,-0.09677,-0.44240,0.37990,,
5.2038,1,DESCENDING,-0.0000,1.35075,0.48160,-2.11886,0.06654,1.57080,-3.01912,-0.09677,-0.44240,0.37984,,
5.2075,1,DESCENDING,-0.0000,1.35075,0.48160,-2.11888,0.06656,1.57080,-3.01912,-0.09677,-0.44240,0.37984,,
5.2160,1,DESCENDING,-0.0000,1.35075,0.48160,-2.11892,0.06661,1.57080,-3.01912,-0.09677,-0.44240,0.37981,,
5.2276,1,DESCENDING,-0.0000,1.35075,0.48159,-2.11902,0.06671,1.57080,-3.01912,-0.09677,-0.44240,0.37975,,
5.2369,1,DESCENDING,-0.0000,1.35075,0.48159,-2.11902,0.06671,1.57080,-3.01912,-0.09677,-0.44240,0.37975,,
5.2489,1,DESCENDING,-0.0000,1.35075,0.48159,-2.11907,0.06676,1.57080,-3.01912,-0.09677,-0.44240,0.37972,,
5.2594,1,DESCENDING,-0.0000,1.35075,0.48158,-2.11912,0.06682,1.57080,-3.01912,-0.09677,-0.44240,0.37969,,
5.2675,1,DESCENDING,-0.0000,1.35075,0.48158,-2.11914,0.06684,1.57080,-3.01912,-0.09677,-0.44240,0.37968,,
5.2765,1,DESCENDING,-0.0000,1.35075,0.48158,-2.11919,0.06689,1.57080,-3.01912,-0.09677,-0.44240,0.37965,,
5.2882,1,DESCENDING,-0.0000,1.35075,0.48157,-2.11928,0.06699,1.57080,-3.01912,-0.09677,-0.44240,0.37960,,
5.3168,1,DESCENDING,-0.0000,1.35075,0.48156,-2.11938,0.06710,1.57080,-3.01912,-0.09677,-0.44240,0.37954,,
5.3171,1,DESCENDING,-0.0000,1.35075,0.48156,-2.11938,0.06710,1.57080,-3.01912,-0.09677,-0.44240,0.37954,,
5.3180,1,DESCENDING,-0.0000,1.35075,0.48156,-2.11938,0.06710,1.57080,-3.01912,-0.09677,-0.44240,0.37954,,
5.3293,1,DESCENDING,-0.0000,1.35075,0.48156,-2.11940,0.06712,1.57080,-3.01912,-0.09677,-0.44240,0.37953,,
5.3500,1,DESCENDING,-0.0000,1.35075,0.48155,-2.11954,0.06728,1.57080,-3.01912,-0.09677,-0.44240,0.37944,,
5.3630,1,DESCENDING,-0.0000,1.35075,0.48155,-2.11956,0.06729,1.57080,-3.01912,-0.09677,-0.44240,0.37943,,
5.3738,1,DESCENDING,-0.0000,1.35075,0.48155,-2.11962,0.06736,1.57080,-3.01912,-0.09677,-0.44240,0.37940,,
5.3760,1,DESCENDING,-0.0000,1.35075,0.48154,-2.11965,0.06739,1.57080,-3.01912,-0.09677,-0.44240,0.37938,,
5.3811,1,DESCENDING,-0.0000,1.35075,0.48154,-2.11965,0.06739,1.57080,-3.01912,-0.09677,-0.44240,0.37938,,
5.3864,1,DESCENDING,-0.0000,1.35075,0.48154,-2.11965,0.06739,1.57080,-3.01912,-0.09677,-0.44240,0.37938,,
5.3966,1,DESCENDING,-0.0000,1.35075,0.48154,-2.11972,0.06746,1.57080,-3.01912,-0.09677,-0.44240,0.37934,,
5.4078,1,DESCENDING,-0.0000,1.35075,0.48153,-2.11981,0.06756,1.57080,-3.01912,-0.09677,-0.44240,0.37929,,
5.4165,1,DESCENDING,-0.0000,1.35075,0.48153,-2.11981,0.06757,1.57080,-3.01912,-0.09677,-0.44240,0.37928,,
5.4275,1,DESCENDING,-0.0000,1.35075,0.48153,-2.11986,0.06762,1.57080,-3.01912,-0.09677,-0.44240,0.37926,,
5.4369,1,DESCENDING,-0.0000,1.35075,0.48152,-2.11991,0.06767,1.57080,-3.01912,-0.09677,-0.44240,0.37923,,
5.4502,1,DESCENDING,-0.0000,1.35075,0.48152,-2.11993,0.06769,1.57080,-3.01912,-0.09677,-0.44240,0.37921,,
5.4601,1,DESCENDING,-0.0000,1.35075,0.48152,-2.12001,0.06778,1.57080,-3.01912,-0.09677,-0.44240,0.37917,,
5.4793,1,DESCENDING,-0.0000,1.35075,0.48151,-2.12009,0.06786,1.57080,-3.01912,-0.09677,-0.44240,0.37912,,
5.4814,1,DESCENDING,-0.0000,1.35075,0.48151,-2.12009,0.06786,1.57080,-3.01912,-0.09677,-0.44240,0.37912,,
5.4893,1,DESCENDING,-0.0000,1.35075,0.48151,-2.12012,0.06790,1.57080,-3.01912,-0.09677,-0.44240,0.37910,,
5.4997,1,DESCENDING,-0.0000,1.35075,0.48150,-2.12017,0.06795,1.57080,-3.01912,-0.09677,-0.44240,0.37907,,
5.5200,1,DESCENDING,-0.0000,1.35075,0.48150,-2.12028,0.06806,1.57080,-3.01912,-0.09677,-0.44240,0.37901,,
5.5204,1,DESCENDING,-0.0000,1.35075,0.48150,-2.12028,0.06806,1.57080,-3.01912,-0.09677,-0.44240,0.37901,,
5.5279,1,DESCENDING,-0.0000,1.35075,0.48149,-2.12034,0.06813,1.57080,-3.01912,-0.09677,-0.44240,0.37897,,
5.5365,1,DESCENDING,-0.0000,1.35075,0.48149,-2.12034,0.06813,1.57080,-3.01912,-0.09677,-0.44240,0.37897,,
5.5466,1,DESCENDING,-0.0000,1.35075,0.48149,-2.12037,0.06816,1.57080,-3.01912,-0.09677,-0.44240,0.37896,,
5.5668,1,DESCENDING,-0.0000,1.35075,0.48148,-2.12044,0.06824,1.57080,-3.01912,-0.09677,-0.44240,0.37891,,
5.5687,1,DESCENDING,-0.0000,1.35075,0.48148,-2.12046,0.06826,1.57080,-3.01912,-0.09677,-0.44240,0.37890,,
5.5776,1,DESCENDING,-0.0000,1.35075,0.48148,-2.12051,0.06832,1.57080,-3.01912,-0.09677,-0.44240,0.37887,,
5.5875,1,DESCENDING,-0.0000,1.35075,0.48147,-2.12060,0.06842,1.57080,-3.01912,-0.09677,-0.44240,0.37882,,
5.5970,1,DESCENDING,-0.0000,1.35075,0.48147,-2.12061,0.06842,1.57080,-3.01912,-0.09677,-0.44240,0.37882,,
5.6293,1,DESCENDING,-0.0000,1.35075,0.48146,-2.12072,0.06855,1.57080,-3.01912,-0.09677,-0.44240,0.37875,,
5.6302,1,DESCENDING,-0.0000,1.35075,0.48146,-2.12072,0.06855,1.57080,-3.01912,-0.09677,-0.44240,0.37875,,
5.6326,1,DESCENDING,-0.0000,1.35075,0.48146,-2.12075,0.06857,1.57080,-3.01912,-0.09677,-0.44240,0.37873,,
5.6379,1,DESCENDING,-0.0000,1.35075,0.48146,-2.12077,0.06860,1.57080,-3.01912,-0.09677,-0.44240,0.37872,,
5.6478,1,DESCENDING,-0.0000,1.35075,0.48145,-2.12087,0.06870,1.57080,-3.01912,-0.09677,-0.44240,0.37866,,
5.6593,1,DESCENDING,-0.0000,1.35075,0.48145,-2.12088,0.06872,1.57080,-3.01912,-0.09677,-0.44240,0.37866,,
5.6687,1,DESCENDING,-0.0000,1.35075,0.48145,-2.12092,0.06875,1.57080,-3.01912,-0.09677,-0.44240,0.37863,,
5.6793,1,DESCENDING,-0.0000,1.35075,0.48144,-2.12097,0.06881,1.57080,-3.01912,-0.09677,-0.44240,0.37860,,
5.6881,1,DESCENDING,-0.0000,1.35075,0.48144,-2.12099,0.06883,1.57080,-3.01912,-0.09677,-0.44240,0.37859,,
5.6967,1,DESCENDING,-0.0000,1.35075,0.48144,-2.12104,0.06888,1.57080,-3.01912,-0.09677,-0.44240,0.37856,,
5.7121,1,DESCENDING,-0.0000,1.35075,0.48143,-2.12113,0.06898,1.57080,-3.01912,-0.09677,-0.44240,0.37851,,
5.7220,1,DESCENDING,-0.0000,1.35075,0.48143,-2.12115,0.06901,1.57080,-3.01912,-0.09677,-0.44240,0.37850,,
5.7264,1,DESCENDING,-0.0000,1.35075,0.48143,-2.12117,0.06903,1.57080,-3.01912,-0.09677,-0.44240,0.37848,,
5.7397,1,DESCENDING,-0.0000,1.35075,0.48142,-2.12126,0.06912,1.57080,-3.01912,-0.09677,-0.44240,0.37843,,
5.7483,1,DESCENDING,-0.0000,1.35075,0.48142,-2.12128,0.06915,1.57080,-3.01912,-0.09677,-0.44240,0.37842,,
5.7610,1,DESCENDING,-0.0000,1.35075,0.48141,-2.12136,0.06923,1.57080,-3.01912,-0.09677,-0.44240,0.37837,,
5.7685,1,DESCENDING,-0.0000,1.35075,0.48141,-2.12142,0.06929,1.57080,-3.01912,-0.09677,-0.44240,0.37834,,
5.7786,1,DESCENDING,-0.0000,1.35075,0.48141,-2.12142,0.06930,1.57080,-3.01912,-0.09677,-0.44240,0.37834,,
5.7877,1,DESCENDING,-0.0000,1.35075,0.48140,-2.12149,0.06937,1.57080,-3.01912,-0.09677,-0.44240,0.37830,,
5.8005,1,DESCENDING,-0.0000,1.35075,0.48140,-2.12155,0.06943,1.57080,-3.01912,-0.09677,-0.44240,0.37826,,
5.8073,1,DESCENDING,-0.0000,1.35075,0.48139,-2.12157,0.06946,1.57080,-3.01912,-0.09677,-0.44240,0.37825,,
5.8235,1,DESCENDING,-0.0000,1.35075,0.48139,-2.12168,0.06957,1.57080,-3.01912,-0.09677,-0.44240,0.37819,,
5.8269,1,DESCENDING,-0.0000,1.35075,0.48138,-2.12171,0.06961,1.57080,-3.01912,-0.09677,-0.44240,0.37817,,
5.8399,1,DESCENDING,-0.0000,1.35075,0.48138,-2.12173,0.06963,1.57080,-3.01912,-0.09677,-0.44240,0.37816,,
5.8483,1,DESCENDING,-0.0000,1.35075,0.48138,-2.12177,0.06968,1.57080,-3.01912,-0.09677,-0.44240,0.37813,,
5.8619,1,DESCENDING,-0.0000,1.35075,0.48137,-2.12187,0.06978,1.57080,-3.01912,-0.09677,-0.44240,0.37807,,
5.8740,1,DESCENDING,-0.0000,1.35075,0.48137,-2.12188,0.06979,1.57080,-3.01912,-0.09677,-0.44240,0.37807,,
5.8837,1,DESCENDING,-0.0000,1.35075,0.48137,-2.12194,0.06986,1.57080,-3.01912,-0.09677,-0.44240,0.37803,,
5.8888,1,DESCENDING,-0.0000,1.35075,0.48136,-2.12197,0.06989,1.57080,-3.01912,-0.09677,-0.44240,0.37801,,
5.8963,1,DESCENDING,-0.0000,1.35075,0.48136,-2.12197,0.06989,1.57080,-3.01912,-0.09677,-0.44240,0.37801,,
5.9085,1,DESCENDING,-0.0000,1.35075,0.48136,-2.12204,0.06996,1.57080,-3.01912,-0.09677,-0.44240,0.37797,,
5.9285,1,DESCENDING,-0.0000,1.35075,0.48135,-2.12213,0.07007,1.57080,-3.01912,-0.09677,-0.44240,0.37792,,
5.9296,1,DESCENDING,-0.0000,1.35075,0.48135,-2.12213,0.07007,1.57080,-3.01912,-0.09677,-0.44240,0.37792,,
5.9389,1,DESCENDING,-0.0000,1.35075,0.48135,-2.12216,0.07010,1.57080,-3.01912,-0.09677,-0.44240,0.37790,,
5.9462,1,DESCENDING,-0.0000,1.35075,0.48134,-2.12220,0.07014,1.57080,-3.01912,-0.09677,-0.44240,0.37787,,
5.9559,1,DESCENDING,-0.0000,1.35075,0.48134,-2.12224,0.07018,1.57080,-3.01912,-0.09677,-0.44240,0.37786,,
5.9710,1,DESCENDING,-0.0000,1.35075,0.48134,-2.12230,0.07025,1.57080,-3.01912,-0.09677,-0.44240,0.37782,,
5.9898,1,DESCENDING,-0.0000,1.35075,0.48133,-2.12238,0.07034,1.57080,-3.01912,-0.09677,-0.44240,0.37777,,
5.9904,1,DESCENDING,-0.0000,1.35075,0.48133,-2.12238,0.07034,1.57080,-3.01912,-0.09677,-0.44240,0.37777,,
5.9975,1,DESCENDING,-0.0000,1.35075,0.48133,-2.12243,0.07039,1.57080,-3.01912,-0.09677,-0.44240,0.37774,,
6.0077,1,DESCENDING,-0.0000,1.35075,0.48132,-2.12252,0.07049,1.57080,-3.01912,-0.09677,-0.44240,0.37769,,
6.0243,1,DESCENDING,-0.0000,1.35075,0.48132,-2.12256,0.07053,1.57080,-3.01912,-0.09677,-0.44240,0.37766,,
6.0315,1,DESCENDING,-0.0000,1.35075,0.48131,-2.12262,0.07059,1.57080,-3.01912,-0.09677,-0.44240,0.37763,,
6.0381,1,DESCENDING,-0.0000,1.35075,0.48131,-2.12265,0.07063,1.57080,-3.01912,-0.09677,-0.44240,0.37761,,
6.0476,1,DESCENDING,-0.0000,1.35075,0.48131,-2.12267,0.07065,1.57080,-3.01912,-0.09677,-0.44240,0.37760,,
6.0567,1,DESCENDING,-0.0000,1.35075,0.48130,-2.12272,0.07070,1.57080,-3.01912,-0.09677,-0.44240,0.37757,,
6.0788,1,DESCENDING,-0.0000,1.35075,0.48130,-2.12281,0.07080,1.57080,-3.01912,-0.09677,-0.44240,0.37752,,
6.0890,1,DESCENDING,-0.0000,1.35075,0.48129,-2.12288,0.07087,1.57080,-3.01912,-0.09677,-0.44240,0.37748,,
6.0996,1,DESCENDING,-0.0000,1.35075,0.48128,-2.12297,0.07097,1.57080,-3.01912,-0.09677,-0.44240,0.37742,,
6.1081,1,DESCENDING,-0.0000,1.35075,0.48128,-2.12297,0.07097,1.57080,-3.01912,-0.09677,-0.44240,0.37742,,
6.1234,1,DESCENDING,-0.0000,1.35075,0.48128,-2.12302,0.07102,1.57080,-3.01912,-0.09677,-0.44240,0.37739,,
6.1371,1,DESCENDING,-0.0000,1.35075,0.48127,-2.12308,0.07108,1.57080,-3.01912,-0.09677,-0.44240,0.37736,,
6.1393,1,DESCENDING,-0.0000,1.35075,0.48127,-2.12308,0.07108,1.57080,-3.01912,-0.09677,-0.44240,0.37736,,
6.1520,1,DESCENDING,-0.0000,1.35075,0.48127,-2.12317,0.07119,1.57080,-3.01912,-0.09677,-0.44240,0.37730,,
6.1590,1,DESCENDING,-0.0000,1.35075,0.48126,-2.12320,0.07122,1.57080,-3.01912,-0.09677,-0.44240,0.37729,,
6.1672,1,DESCENDING,-0.0000,1.35075,0.48126,-2.12323,0.07126,1.57080,-3.01912,-0.09677,-0.44240,0.37727,,
6.1767,1,DESCENDING,-0.0000,1.35075,0.48126,-2.12326,0.07129,1.57080,-3.01912,-0.09677,-0.44240,0.37725,,
6.1910,1,DESCENDING,-0.0000,1.35075,0.48125,-2.12333,0.07136,1.57080,-3.01912,-0.09677,-0.44240,0.37721,,
6.1964,1,DESCENDING,-0.0000,1.35075,0.48125,-2.12334,0.07137,1.57080,-3.01912,-0.09677,-0.44240,0.37721,,
6.2065,1,DESCENDING,-0.0000,1.35075,0.48125,-2.12338,0.07141,1.57080,-3.01912,-0.09677,-0.44240,0.37718,,
6.2160,1,DESCENDING,-0.0000,1.35075,0.48124,-2.12347,0.07151,1.57080,-3.01912,-0.09677,-0.44240,0.37713,,
6.2321,1,DESCENDING,-0.0000,1.35075,0.48124,-2.12351,0.07156,1.57080,-3.01912,-0.09677,-0.44240,0.37710,,
6.2360,1,DESCENDING,-0.0000,1.35075,0.48124,-2.12353,0.07157,1.57080,-3.01912,-0.09677,-0.44240,0.37709,,
6.2469,1,DESCENDING,-0.0000,1.35075,0.48123,-2.12357,0.07162,1.57080,-3.01912,-0.09677,-0.44240,0.37707,,
6.2596,1,DESCENDING,-0.0000,1.35075,0.48123,-2.12362,0.07167,1.57080,-3.01912,-0.09677,-0.44240,0.37704,,
6.2661,1,DESCENDING,-0.0000,1.35075,0.48123,-2.12364,0.07170,1.57080,-3.01912,-0.09677,-0.44240,0.37703,,
6.2781,1,DESCENDING,-0.0000,1.35075,0.48122,-2.12373,0.07179,1.57080,-3.01912,-0.09677,-0.44240,0.37698,,
6.2881,1,DESCENDING,-0.0000,1.35075,0.48122,-2.12376,0.07183,1.57080,-3.01912,-0.09677,-0.44240,0.37695,,
6.2960,1,DESCENDING,-0.0000,1.35075,0.48122,-2.12379,0.07186,1.57080,-3.01912,-0.09677,-0.44240,0.37694,,
6.3063,1,DESCENDING,-0.0000,1.35075,0.48121,-2.12384,0.07191,1.57080,-3.01912,-0.09677,-0.44240,0.37691,,
6.3161,1,DESCENDING,-0.0000,1.35075,0.48121,-2.12387,0.07194,1.57080,-3.01912,-0.09677,-0.44240,0.37689,,
6.3283,1,DESCENDING,-0.0000,1.35075,0.48120,-2.12393,0.07201,1.57080,-3.01912,-0.09677,-0.44240,0.37686,,
6.3369,1,DESCENDING,-0.0000,1.35075,0.48120,-2.12399,0.07208,1.57080,-3.01912,-0.09677,-0.44240,0.37682,,
6.3480,1,DESCENDING,-0.0000,1.35075,0.48120,-2.12403,0.07212,1.57080,-3.01912,-0.09677,-0.44240,0.37680,,
6.3581,1,DESCENDING,-0.0000,1.35075,0.48119,-2.12405,0.07214,1.57080,-3.01912,-0.09677,-0.44240,0.37678,,
6.3661,1,DESCENDING,-0.0000,1.35075,0.48119,-2.12410,0.07219,1.57080,-3.01912,-0.09677,-0.44240,0.37676,,
6.3798,1,DESCENDING,-0.0000,1.35075,0.48119,-2.12415,0.07224,1.57080,-3.01912,-0.09677,-0.44240,0.37673,,
6.3875,1,DESCENDING,-0.0000,1.35075,0.48118,-2.12420,0.07230,1.57080,-3.01912,-0.09677,-0.44240,0.37670,,
6.3966,1,DESCENDING,-0.0000,1.35075,0.48118,-2.12426,0.07236,1.57080,-3.01912,-0.09677,-0.44240,0.37666,,
6.4068,1,DESCENDING,-0.0000,1.35075,0.48117,-2.12429,0.07240,1.57080,-3.01912,-0.09677,-0.44240,0.37665,,
6.4187,1,DESCENDING,-0.0000,1.35075,0.48117,-2.12433,0.07244,1.57080,-3.01912,-0.09677,-0.44240,0.37662,,
6.4315,1,DESCENDING,-0.0000,1.35075,0.48116,-2.12442,0.07254,1.57080,-3.01912,-0.09677,-0.44240,0.37657,,
6.4365,1,DESCENDING,-0.0000,1.35075,0.48116,-2.12442,0.07254,1.57080,-3.01912,-0.09677,-0.44240,0.37657,,
6.4465,1,DESCENDING,-0.0000,1.35075,0.48116,-2.12446,0.07258,1.57080,-3.01912,-0.09677,-0.44240,0.37655,,
6.4598,1,DESCENDING,-0.0000,1.35075,0.48115,-2.12458,0.07271,1.57080,-3.01912,-0.09677,-0.44240,0.37648,,
6.4662,1,DESCENDING,-0.0000,1.35075,0.48115,-2.12458,0.07271,1.57080,-3.01912,-0.09677,-0.44240,0.37648,,
6.5172,1,DESCENDING,-0.0000,1.35075,0.48113,-2.12481,0.07296,1.57080,-3.01912,-0.09677,-0.44240,0.37634,,
6.5404,1,DESCENDING,-0.0000,1.35075,0.48112,-2.12491,0.07307,1.57080,-3.01912,-0.09677,-0.44240,0.37628,,
6.5479,1,DESCENDING,-0.0000,1.35075,0.48112,-2.12497,0.07313,1.57080,-3.01912,-0.09677,-0.44240,0.37624,,
6.6998,1,DESCENDING,-0.0000,1.35075,0.48106,-2.12563,0.07385,1.57080,-3.01912,-0.09677,-0.44240,0.37586,,
6.7410,1,DESCENDING,-0.0000,1.35075,0.48105,-2.12579,0.07403,1.57080,-3.01912,-0.09677,-0.44240,0.37576,,
6.7815,1,DESCENDING,-0.0000,1.35075,0.48103,-2.12596,0.07421,1.57080,-3.01912,-0.09677,-0.44240,0.37566,,
6.7819,1,DESCENDING,-0.0000,1.35075,0.48103,-2.12596,0.07421,1.57080,-3.01912,-0.09677,-0.44240,0.37566,,
6.7924,1,DESCENDING,-0.0000,1.35075,0.48103,-2.12605,0.07431,1.57080,-3.01912,-0.09677,-0.44240,0.37560,,
6.8043,1,DESCENDING,-0.0000,1.35075,0.48103,-2.12607,0.07432,1.57080,-3.01912,-0.09677,-0.44240,0.37560,,
6.8270,1,DESCENDING,-0.0000,1.35075,0.48102,-2.12615,0.07442,1.57080,-3.01912,-0.09677,-0.44240,0.37554,,
6.9564,1,DESCENDING,-0.0000,1.35075,0.48097,-2.12672,0.07504,1.57080,-3.01912,-0.09677,-0.44240,0.37521,,
7.0623,1,DESCENDING,-0.0000,1.35075,0.48092,-2.12726,0.07562,1.57080,-3.01912,-0.09677,-0.44240,0.37489,,
7.0626,1,DESCENDING,-0.0000,1.35075,0.48092,-2.12726,0.07562,1.57080,-3.01912,-0.09677,-0.44240,0.37489,,
7.0779,1,DESCENDING,-0.0000,1.35075,0.48092,-2.12730,0.07566,1.57080,-3.01912,-0.09677,-0.44240,0.37487,,
7.1124,1,DESCENDING,-0.0000,1.35075,0.48090,-2.12748,0.07586,1.57080,-3.01912,-0.09677,-0.44240,0.37476,,
7.1847,1,DESCENDING,-0.0000,1.35075,0.48087,-2.12783,0.07624,1.57080,-3.01912,-0.09677,-0.44240,0.37455,,
7.1852,1,DESCENDING,-0.0000,1.35075,0.48087,-2.12783,0.07624,1.57080,-3.01912,-0.09677,-0.44240,0.37455,,
7.3361,1,DESCENDING,-0.0000,1.35075,0.48081,-2.12851,0.07698,1.57080,-3.01912,-0.09677,-0.44240,0.37415,,
7.4327,1,DESCENDING,-0.0000,1.35075,0.48078,-2.12894,0.07745,1.57080,-3.01912,-0.09677,-0.44240,0.37390,,
7.4331,1,DESCENDING,-0.0000,1.35075,0.48078,-2.12894,0.07745,1.57080,-3.01912,-0.09677,-0.44240,0.37390,,
7.4609,1,DESCENDING,-0.0000,1.35075,0.48077,-2.12904,0.07756,1.57080,-3.01912,-0.09677,-0.44240,0.37384,,
7.4612,1,DESCENDING,-0.0000,1.35075,0.48077,-2.12904,0.07756,1.57080,-3.01912,-0.09677,-0.44240,0.37384,,
7.4679,1,DESCENDING,-0.0000,1.35075,0.48076,-2.12908,0.07760,1.57080,-3.01912,-0.09677,-0.44240,0.37381,,
7.4902,1,DESCENDING,-0.0000,1.35075,0.48075,-2.12920,0.07773,1.57080,-3.01912,-0.09677,-0.44240,0.37374,,
7.5009,1,DESCENDING,-0.0000,1.35075,0.48075,-2.12923,0.07776,1.57080,-3.01912,-0.09677,-0.44240,0.37372,,
7.5081,1,DESCENDING,-0.0000,1.35075,0.48075,-2.12928,0.07781,1.57080,-3.01912,-0.09677,-0.44240,0.37370,,
7.5169,1,DESCENDING,-0.0000,1.35075,0.48074,-2.12930,0.07784,1.57080,-3.01912,-0.09677,-0.44240,0.37368,,
7.5275,1,DESCENDING,-0.0000,1.35075,0.48074,-2.12932,0.07786,1.57080,-3.01912,-0.09677,-0.44240,0.37367,,
7.5377,1,DESCENDING,-0.0000,1.35075,0.48073,-2.12940,0.07795,1.57080,-3.01912,-0.09677,-0.44240,0.37362,,
7.5463,1,DESCENDING,-0.0000,1.35075,0.48073,-2.12947,0.07802,1.57080,-3.01912,-0.09677,-0.44240,0.37359,,
7.5688,1,DESCENDING,-0.0000,1.35075,0.48072,-2.12954,0.07810,1.57080,-3.01912,-0.09677,-0.44240,0.37354,,
7.5691,1,DESCENDING,-0.0000,1.35075,0.48072,-2.12954,0.07810,1.57080,-3.01912,-0.09677,-0.44240,0.37354,,
7.5766,1,DESCENDING,-0.0000,1.35075,0.48072,-2.12957,0.07813,1.57080,-3.01912,-0.09677,-0.44240,0.37353,,
7.5875,1,DESCENDING,-0.0000,1.35075,0.48072,-2.12959,0.07815,1.57080,-3.01912,-0.09677,-0.44240,0.37351,,
7.5961,1,DESCENDING,-0.0000,1.35075,0.48071,-2.12967,0.07824,1.57080,-3.01912,-0.09677,-0.44240,0.37347,,
7.6102,1,DESCENDING,-0.0000,1.35075,0.48071,-2.12973,0.07830,1.57080,-3.01912,-0.09677,-0.44240,0.37343,,
7.6181,1,DESCENDING,-0.0000,1.35075,0.48070,-2.12974,0.07832,1.57080,-3.01912,-0.09677,-0.44240,0.37342,,
7.7237,1,DESCENDING,-0.0000,1.35075,0.48066,-2.13022,0.07884,1.57080,-3.01912,-0.09677,-0.44240,0.37314,,
7.8464,1,DESCENDING,-0.0000,1.35075,0.48061,-2.13083,0.07950,1.57080,-3.01912,-0.09677,-0.44240,0.37278,,
7.8468,1,DESCENDING,-0.0000,1.35075,0.48061,-2.13083,0.07950,1.57080,-3.01912,-0.09677,-0.44240,0.37278,,
7.8528,1,DESCENDING,-0.0000,1.35075,0.48061,-2.13083,0.07951,1.57080,-3.01912,-0.09677,-0.44240,0.37278,,
7.8736,1,DESCENDING,-0.0000,1.35075,0.48059,-2.13095,0.07964,1.57080,-3.01912,-0.09677,-0.44240,0.37270,,
7.8740,1,DESCENDING,-0.0000,1.35075,0.48059,-2.13095,0.07964,1.57080,-3.01912,-0.09677,-0.44240,0.37270,,
7.8894,1,DESCENDING,-0.0000,1.35075,0.48059,-2.13100,0.07969,1.57080,-3.01912,-0.09677,-0.44240,0.37268,,
7.8927,1,DESCENDING,-0.0000,1.35075,0.48059,-2.13102,0.07971,1.57080,-3.01912,-0.09677,-0.44240,0.37267,,
7.8982,1,DESCENDING,-0.0000,1.35075,0.48059,-2.13104,0.07973,1.57080,-3.01911,-0.09677,-0.44240,0.37266,,
7.9126,1,DESCENDING,-0.0000,1.35075,0.48058,-2.13109,0.07979,1.57080,-3.01911,-0.09677,-0.44240,0.37262,,
7.9172,1,DESCENDING,-0.0000,1.35075,0.48058,-2.13111,0.07981,1.57080,-3.01911,-0.09677,-0.44240,0.37261,,
7.9282,1,DESCENDING,-0.0000,1.35075,0.48057,-2.13119,0.07990,1.57080,-3.01911,-0.09677,-0.44240,0.37257,,
7.9472,1,DESCENDING,-0.0000,1.35075,0.48057,-2.13124,0.07995,1.57080,-3.01911,-0.09677,-0.44240,0.37254,,
7.9512,1,DESCENDING,-0.0000,1.35075,0.48057,-2.13126,0.07997,1.57080,-3.01911,-0.09677,-0.44240,0.37252,,
7.9593,1,DESCENDING,-0.0000,1.35075,0.48056,-2.13131,0.08004,1.57080,-3.01911,-0.09677,-0.44240,0.37249,,
7.9667,1,DESCENDING,-0.0000,1.35075,0.48056,-2.13137,0.08010,1.57080,-3.01911,-0.09677,-0.44240,0.37246,,
7.9801,1,DESCENDING,-0.0000,1.35075,0.48055,-2.13142,0.08015,1.57080,-3.01911,-0.09677,-0.44240,0.37243,,
7.9884,1,DESCENDING,-0.0000,1.35075,0.48055,-2.13147,0.08021,1.57080,-3.01911,-0.09677,-0.44240,0.37240,,
8.0000,1,DESCENDING,-0.0000,1.35075,0.48054,-2.13151,0.08025,1.57080,-3.01911,-0.09677,-0.44240,0.37238,,
8.0068,1,DESCENDING,-0.0000,1.35075,0.48054,-2.13152,0.08026,1.57080,-3.01911,-0.09677,-0.44240,0.37237,,
8.0204,1,DESCENDING,-0.0000,1.35075,0.48053,-2.13163,0.08038,1.57080,-3.01911,-0.09677,-0.44240,0.37230,,
8.0315,1,DESCENDING,-0.0000,1.35075,0.48053,-2.13166,0.08041,1.57080,-3.01911,-0.09677,-0.44240,0.37229,,
8.0402,1,DESCENDING,-0.0000,1.35075,0.48053,-2.13170,0.08046,1.57080,-3.01911,-0.09677,-0.44240,0.37226,,
8.0462,1,DESCENDING,-0.0000,1.35075,0.48052,-2.13173,0.08049,1.57080,-3.01911,-0.09677,-0.44240,0.37225,,
8.0577,1,DESCENDING,-0.0000,1.35075,0.48051,-2.13182,0.08059,1.57080,-3.01911,-0.09677,-0.44240,0.37219,,
8.0693,1,DESCENDING,-0.0000,1.35075,0.48051,-2.13183,0.08060,1.57080,-3.01911,-0.09677,-0.44240,0.37218,,
8.0778,1,DESCENDING,-0.0000,1.35075,0.48051,-2.13187,0.08064,1.57080,-3.01911,-0.09677,-0.44240,0.37216,,
8.0859,1,DESCENDING,-0.0000,1.35075,0.48051,-2.13192,0.08070,1.57080,-3.01911,-0.09677,-0.44240,0.37213,,
8.0992,1,DESCENDING,-0.0000,1.35075,0.48050,-2.13194,0.08072,1.57080,-3.01911,-0.09677,-0.44240,0.37212,,
8.1066,1,DESCENDING,-0.0000,1.35075,0.48050,-2.13199,0.08077,1.57080,-3.01911,-0.09677,-0.44240,0.37209,,
8.1165,1,DESCENDING,-0.0000,1.35075,0.48049,-2.13208,0.08087,1.57080,-3.01911,-0.09677,-0.44240,0.37204,,
8.1308,1,DESCENDING,-0.0000,1.35075,0.48049,-2.13210,0.08089,1.57080,-3.01911,-0.09677,-0.44240,0.37203,,
8.1411,1,DESCENDING,-0.0000,1.35075,0.48048,-2.13216,0.08096,1.57080,-3.01911,-0.09677,-0.44240,0.37199,,
8.1461,1,DESCENDING,-0.0000,1.35075,0.48048,-2.13218,0.08098,1.57080,-3.01911,-0.09677,-0.44240,0.37198,,
8.1563,1,DESCENDING,-0.0000,1.35075,0.48048,-2.13220,0.08101,1.57080,-3.01911,-0.09677,-0.44240,0.37196,,
8.1899,1,DESCENDING,-0.0000,1.35075,0.48046,-2.13236,0.08118,1.57080,-3.01911,-0.09677,-0.44240,0.37187,,
8.1966,1,DESCENDING,-0.0000,1.35075,0.48046,-2.13240,0.08122,1.57080,-3.01911,-0.09677,-0.44240,0.37185,,
8.2068,1,DESCENDING,-0.0000,1.35075,0.48046,-2.13245,0.08127,1.57080,-3.01911,-0.09677,-0.44240,0.37182,,
8.2183,1,DESCENDING,-0.0000,1.35075,0.48045,-2.13247,0.08129,1.57080,-3.01911,-0.09677,-0.44240,0.37181,,
8.2321,1,DESCENDING,-0.0000,1.35075,0.48044,-2.13258,0.08142,1.57080,-3.01911,-0.09677,-0.44240,0.37174,,
8.2407,1,DESCENDING,-0.0000,1.35075,0.48044,-2.13261,0.08145,1.57080,-3.01911,-0.09677,-0.44240,0.37172,,
8.2479,1,DESCENDING,-0.0000,1.35075,0.48044,-2.13262,0.08146,1.57080,-3.01911,-0.09677,-0.44240,0.37172,,
8.2608,1,DESCENDING,-0.0000,1.35075,0.48043,-2.13268,0.08153,1.57080,-3.01911,-0.09677,-0.44240,0.37168,,
8.2825,1,DESCENDING,-0.0000,1.35075,0.48043,-2.13275,0.08160,1.57080,-3.01911,-0.09677,-0.44240,0.37164,,
8.2878,1,DESCENDING,-0.0000,1.35075,0.48043,-2.13278,0.08163,1.57080,-3.01911,-0.09677,-0.44240,0.37162,,
8.2963,1,DESCENDING,-0.0000,1.35075,0.48042,-2.13287,0.08174,1.57080,-3.01911,-0.09677,-0.44240,0.37157,,
8.3093,1,DESCENDING,-0.0000,1.35075,0.48042,-2.13288,0.08175,1.57080,-3.01911,-0.09677,-0.44240,0.37156,,
8.3210,1,DESCENDING,-0.0000,1.35075,0.48041,-2.13294,0.08182,1.57080,-3.01911,-0.09677,-0.44240,0.37152,,
8.3312,1,DESCENDING,-0.0000,1.35075,0.48041,-2.13297,0.08185,1.57080,-3.01911,-0.09677,-0.44240,0.37151,,
8.3381,1,DESCENDING,-0.0000,1.35075,0.48041,-2.13299,0.08187,1.57080,-3.01911,-0.09677,-0.44240,0.37150,,
8.3484,1,DESCENDING,-0.0000,1.35075,0.48040,-2.13307,0.08196,1.57080,-3.01911,-0.09677,-0.44240,0.37145,,
8.3588,1,DESCENDING,-0.0000,1.35075,0.48039,-2.13313,0.08202,1.57080,-3.01911,-0.09677,-0.44240,0.37141,,
8.3661,1,DESCENDING,-0.0000,1.35075,0.48039,-2.13314,0.08203,1.57080,-3.01911,-0.09677,-0.44240,0.37141,,
8.3819,1,DESCENDING,-0.0000,1.35075,0.48038,-2.13321,0.08210,1.57080,-3.01911,-0.09677,-0.44240,0.37137,,
8.3862,1,DESCENDING,-0.0000,1.35075,0.48038,-2.13323,0.08213,1.57080,-3.01911,-0.09677,-0.44240,0.37135,,
8.3979,1,DESCENDING,-0.0000,1.35075,0.48038,-2.13325,0.08215,1.57080,-3.01911,-0.09677,-0.44240,0.37134,,
8.4066,1,DESCENDING,-0.0000,1.35075,0.48038,-2.13330,0.08221,1.57080,-3.01911,-0.09677,-0.44240,0.37131,,
8.4237,1,DESCENDING,-0.0000,1.35075,0.48037,-2.13340,0.08231,1.57080,-3.01911,-0.09677,-0.44240,0.37126,,
8.4486,1,DESCENDING,-0.0000,1.35075,0.48035,-2.13352,0.08245,1.57080,-3.01911,-0.09677,-0.44240,0.37118,,
8.4892,1,DESCENDING,-0.0000,1.35075,0.48034,-2.13370,0.08264,1.57080,-3.01911,-0.09677,-0.44240,0.37108,,
8.5553,1,DESCENDING,-0.0000,1.35075,0.48031,-2.13398,0.08295,1.57080,-3.01911,-0.09677,-0.44240,0.37091,,
8.5590,1,DESCENDING,-0.0000,1.35075,0.48031,-2.13401,0.08298,1.57080,-3.01911,-0.09677,-0.44240,0.37089,,
8.5594,1,DESCENDING,-0.0000,1.35075,0.48031,-2.13401,0.08298,1.57080,-3.01911,-0.09677,-0.44240,0.37089,,
8.5658,1,DESCENDING,-0.0000,1.35075,0.48030,-2.13407,0.08305,1.57080,-3.01911,-0.09677,-0.44240,0.37086,,
8.5809,1,DESCENDING,-0.0000,1.35075,0.48030,-2.13412,0.08310,1.57080,-3.01911,-0.09677,-0.44240,0.37083,,
8.5869,1,DESCENDING,-0.0000,1.35075,0.48030,-2.13413,0.08312,1.57080,-3.01911,-0.09677,-0.44240,0.37082,,
8.5961,1,DESCENDING,-0.0000,1.35075,0.48029,-2.13418,0.08317,1.57080,-3.01911,-0.09677,-0.44240,0.37079,,
8.6100,1,DESCENDING,-0.0000,1.35075,0.48029,-2.13422,0.08322,1.57080,-3.01911,-0.09677,-0.44240,0.37077,,
8.6167,1,DESCENDING,-0.0000,1.35075,0.48028,-2.13427,0.08327,1.57080,-3.01911,-0.09677,-0.44240,0.37074,,
8.6277,1,DESCENDING,-0.0000,1.35075,0.48028,-2.13433,0.08334,1.57080,-3.01911,-0.09677,-0.44240,0.37070,,
8.6508,1,DESCENDING,-0.0000,1.35075,0.48027,-2.13441,0.08343,1.57080,-3.01911,-0.09677,-0.44240,0.37065,,
8.6562,1,DESCENDING,-0.0000,1.35075,0.48027,-2.13444,0.08345,1.57080,-3.01911,-0.09677,-0.44240,0.37064,,
8.6688,1,DESCENDING,-0.0000,1.35075,0.48026,-2.13448,0.08350,1.57080,-3.01911,-0.09677,-0.44240,0.37061,,
8.6895,1,DESCENDING,-0.0000,1.35075,0.48025,-2.13463,0.08366,1.57080,-3.01911,-0.09677,-0.44240,0.37053,,
8.7009,1,DESCENDING,-0.0000,1.35075,0.48025,-2.13464,0.08367,1.57080,-3.01911,-0.09677,-0.44240,0.37052,,
8.7089,1,DESCENDING,-0.0000,1.35075,0.48024,-2.13468,0.08371,1.57080,-3.01911,-0.09677,-0.44240,0.37050,,
8.7208,1,DESCENDING,-0.0000,1.35075,0.48024,-2.13473,0.08377,1.57080,-3.01911,-0.09677,-0.44240,0.37047,,
8.7411,1,DESCENDING,-0.0000,1.35075,0.48023,-2.13483,0.08388,1.57080,-3.01911,-0.09677,-0.44240,0.37041,,
8.7515,1,DESCENDING,-0.0000,1.35075,0.48022,-2.13489,0.08395,1.57080,-3.01911,-0.09677,-0.44240,0.37037,,
8.7588,1,DESCENDING,-0.0000,1.35075,0.48022,-2.13489,0.08395,1.57080,-3.01911,-0.09677,-0.44240,0.37037,,
8.7678,1,DESCENDING,-0.0000,1.35075,0.48022,-2.13492,0.08398,1.57080,-3.01911,-0.09677,-0.44240,0.37035,,
8.7771,1,DESCENDING,-0.0000,1.35075,0.48021,-2.13499,0.08406,1.57080,-3.01911,-0.09677,-0.44240,0.37031,,
8.7859,1,DESCENDING,-0.0000,1.35075,0.48021,-2.13499,0.08406,1.57080,-3.01911,-0.09677,-0.44240,0.37031,,
8.7962,1,DESCENDING,-0.0000,1.35075,0.48021,-2.13503,0.08410,1.57080,-3.01911,-0.09677,-0.44240,0.37029,,
8.8076,1,DESCENDING,-0.0000,1.35075,0.48020,-2.13512,0.08420,1.57080,-3.01911,-0.09677,-0.44240,0.37023,,
8.8165,1,DESCENDING,-0.0000,1.35075,0.48020,-2.13515,0.08424,1.57080,-3.01911,-0.09677,-0.44240,0.37021,,
8.8260,1,DESCENDING,-0.0000,1.35075,0.48020,-2.13518,0.08427,1.57080,-3.01911,-0.09677,-0.44240,0.37020,,
8.8505,1,DESCENDING,-0.0000,1.35075,0.48019,-2.13527,0.08437,1.57080,-3.01911,-0.09677,-0.44240,0.37014,,
8.8512,1,DESCENDING,-0.0000,1.35075,0.48019,-2.13527,0.08437,1.57080,-3.01911,-0.09677,-0.44240,0.37014,,
8.8619,1,DESCENDING,-0.0000,1.35075,0.48018,-2.13535,0.08445,1.57080,-3.01911,-0.09677,-0.44240,0.37010,,
8.8661,1,DESCENDING,-0.0000,1.35075,0.48018,-2.13538,0.08449,1.57080,-3.01911,-0.09677,-0.44240,0.37008,,
8.8775,1,DESCENDING,-0.0000,1.35075,0.48017,-2.13542,0.08453,1.57080,-3.01911,-0.09677,-0.44240,0.37006,,
8.8896,1,DESCENDING,-0.0000,1.35075,0.48017,-2.13546,0.08458,1.57080,-3.01911,-0.09677,-0.44240,0.37003,,
8.9008,1,DESCENDING,-0.0000,1.35075,0.48016,-2.13551,0.08463,1.57080,-3.01911,-0.09677,-0.44240,0.37000,,
8.9077,1,DESCENDING,-0.0000,1.35075,0.48016,-2.13552,0.08464,1.57080,-3.01911,-0.09677,-0.44240,0.37000,,
8.9170,1,DESCENDING,-0.0000,1.35075,0.48016,-2.13558,0.08471,1.57080,-3.01911,-0.09677,-0.44240,0.36996,,
8.9261,1,DESCENDING,-0.0000,1.35075,0.48015,-2.13564,0.08478,1.57080,-3.01911,-0.09677,-0.44240,0.36992,,
8.9408,1,DESCENDING,-0.0000,1.35075,0.48015,-2.13569,0.08482,1.57080,-3.01911,-0.09677,-0.44240,0.36990,,
8.9477,1,DESCENDING,-0.0000,1.35075,0.48014,-2.13570,0.08484,1.57080,-3.01911,-0.09677,-0.44240,0.36989,,
8.9677,1,DESCENDING,-0.0000,1.35075,0.48014,-2.13578,0.08492,1.57080,-3.01911,-0.09677,-0.44240,0.36984,,
8.9687,1,DESCENDING,-0.0000,1.35075,0.48014,-2.13579,0.08494,1.57080,-3.01911,-0.09677,-0.44240,0.36983,,
8.9777,1,DESCENDING,-0.0000,1.35075,0.48013,-2.13584,0.08500,1.57080,-3.01911,-0.09677,-0.44240,0.36980,,
9.0002,1,DESCENDING,-0.0000,1.35075,0.48012,-2.13594,0.08510,1.57080,-3.01911,-0.09677,-0.44240,0.36975,,
9.0008,1,DESCENDING,-0.0000,1.35075,0.48012,-2.13596,0.08512,1.57080,-3.01911,-0.09677,-0.44240,0.36974,,
9.0070,1,DESCENDING,-0.0000,1.35075,0.48012,-2.13598,0.08514,1.57080,-3.01911,-0.09677,-0.44240,0.36972,,
9.0180,1,DESCENDING,-0.0000,1.35075,0.48011,-2.13606,0.08524,1.57080,-3.01911,-0.09677,-0.44240,0.36967,,
9.0272,1,DESCENDING,-0.0000,1.35075,0.48011,-2.13607,0.08524,1.57080,-3.01911,-0.09677,-0.44240,0.36967,,
9.0377,1,DESCENDING,-0.0000,1.35075,0.48010,-2.13613,0.08531,1.57080,-3.01911,-0.09677,-0.44240,0.36963,,
9.0480,1,DESCENDING,-0.0000,1.35075,0.48010,-2.13619,0.08538,1.57080,-3.01911,-0.09677,-0.44240,0.36960,,
9.0580,1,DESCENDING,-0.0000,1.35075,0.48009,-2.13623,0.08542,1.57080,-3.01911,-0.09677,-0.44240,0.36958,,
9.0677,1,DESCENDING,-0.0000,1.35075,0.48009,-2.13626,0.08546,1.57080,-3.01911,-0.09677,-0.44240,0.36956,,
9.0794,1,DESCENDING,-0.0000,1.35075,0.48008,-2.13635,0.08555,1.57080,-3.01911,-0.09677,-0.44240,0.36950,,
9.0929,1,DESCENDING,-0.0000,1.35075,0.48008,-2.13639,0.08560,1.57080,-3.01911,-0.09677,-0.44240,0.36948,,
9.0985,1,DESCENDING,-0.0000,1.35075,0.48007,-2.13642,0.08562,1.57080,-3.01911,-0.09677,-0.44240,0.36946,,
9.1082,1,DESCENDING,-0.0000,1.35075,0.48007,-2.13648,0.08569,1.57080,-3.01911,-0.09677,-0.44240,0.36943,,
9.1170,1,DESCENDING,-0.0000,1.35075,0.48006,-2.13651,0.08573,1.57080,-3.01911,-0.09677,-0.44240,0.36941,,
9.1264,1,DESCENDING,-0.0000,1.35075,0.48006,-2.13655,0.08577,1.57080,-3.01911,-0.09677,-0.44240,0.36939,,
9.1607,1,DESCENDING,-0.0000,1.35075,0.48004,-2.13673,0.08597,1.57080,-3.01911,-0.09677,-0.44240,0.36928,,
9.1612,1,DESCENDING,-0.0000,1.35075,0.48004,-2.13673,0.08597,1.57080,-3.01911,-0.09677,-0.44240,0.36928,,
9.1670,1,DESCENDING,-0.0000,1.35075,0.48004,-2.13676,0.08600,1.57080,-3.01911,-0.09677,-0.44240,0.36926,,
9.1762,1,DESCENDING,-0.0000,1.35075,0.48004,-2.13679,0.08604,1.57080,-3.01911,-0.09677,-0.44240,0.36924,,
9.1962,1,DESCENDING,-0.0000,1.35075,0.48003,-2.13689,0.08614,1.57080,-3.01911,-0.09677,-0.44240,0.36918,,
9.1966,1,DESCENDING,-0.0000,1.35075,0.48003,-2.13689,0.08614,1.57080,-3.01911,-0.09677,-0.44240,0.36918,,
9.2075,1,DESCENDING,-0.0000,1.35075,0.48002,-2.13693,0.08618,1.57080,-3.01911,-0.09677,-0.44240,0.36916,,
9.2163,1,DESCENDING,-0.0000,1.35075,0.48002,-2.13696,0.08622,1.57080,-3.01911,-0.09677,-0.44240,0.36914,,
9.2259,1,DESCENDING,-0.0000,1.35075,0.48001,-2.13705,0.08632,1.57080,-3.01911,-0.09677,-0.44240,0.36909,,
9.2389,1,DESCENDING,-0.0000,1.35075,0.48001,-2.13708,0.08636,1.57080,-3.01911,-0.09677,-0.44240,0.36907,,
9.2480,1,DESCENDING,-0.0000,1.35075,0.48000,-2.13712,0.08640,1.57080,-3.01911,-0.09677,-0.44240,0.36905,,
9.2634,1,DESCENDING,-0.0000,1.35075,0.48000,-2.13721,0.08649,1.57080,-3.01911,-0.09677,-0.44240,0.36899,,
9.2776,1,DESCENDING,-0.0000,1.35075,0.47999,-2.13727,0.08657,1.57080,-3.01911,-0.09677,-0.44240,0.36895,,
9.2780,1,DESCENDING,-0.0000,1.35075,0.47999,-2.13727,0.08657,1.57080,-3.01911,-0.09677,-0.44240,0.36895,,
9.2861,1,DESCENDING,-0.0000,1.35075,0.47998,-2.13733,0.08663,1.57080,-3.01911,-0.09677,-0.44240,0.36892,,
9.3027,1,DESCENDING,-0.0000,1.35075,0.47998,-2.13738,0.08669,1.57080,-3.01911,-0.09677,-0.44240,0.36889,,
9.3097,1,DESCENDING,-0.0000,1.35075,0.47997,-2.13743,0.08674,1.57080,-3.01911,-0.09677,-0.44240,0.36886,,
9.3677,1,DESCENDING,-0.0000,1.35075,0.47995,-2.13766,0.08700,1.57080,-3.01911,-0.09677,-0.44240,0.36872,,
9.3681,1,DESCENDING,-0.0000,1.35075,0.47995,-2.13766,0.08700,1.57080,-3.01911,-0.09677,-0.44240,0.36872,,
9.3703,1,DESCENDING,-0.0000,1.35075,0.47995,-2.13769,0.08703,1.57080,-3.01911,-0.09677,-0.44240,0.36871,,
9.3706,1,DESCENDING,-0.0000,1.35075,0.47995,-2.13769,0.08703,1.57080,-3.01911,-0.09677,-0.44240,0.36871,,
9.3774,1,DESCENDING,-0.0000,1.35075,0.47994,-2.13775,0.08709,1.57080,-3.01911,-0.09677,-0.44240,0.36867,,
9.3880,1,DESCENDING,-0.0000,1.35075,0.47994,-2.13778,0.08713,1.57080,-3.01911,-0.09677,-0.44240,0.36865,,
9.4012,1,DESCENDING,-0.0000,1.35075,0.47993,-2.13783,0.08718,1.57080,-3.01911,-0.09677,-0.44240,0.36862,,
9.4083,1,DESCENDING,-0.0000,1.35075,0.47993,-2.13786,0.08721,1.57080,-3.01911,-0.09677,-0.44240,0.36861,,
9.4173,1,DESCENDING,-0.0000,1.35075,0.47993,-2.13789,0.08724,1.57080,-3.01911,-0.09677,-0.44240,0.36859,,
9.4256,1,DESCENDING,-0.0000,1.35075,0.47992,-2.13793,0.08728,1.57080,-3.01911,-0.09677,-0.44240,0.36857,,
9.4362,1,DESCENDING,-0.0000,1.35075,0.47992,-2.13798,0.08735,1.57080,-3.01911,-0.09677,-0.44240,0.36853,,
9.4595,1,DESCENDING,-0.0000,1.35075,0.47991,-2.13808,0.08745,1.57080,-3.01911,-0.09677,-0.44240,0.36848,,
9.4598,1,DESCENDING,-0.0000,1.35075,0.47991,-2.13808,0.08745,1.57080,-3.01911,-0.09677,-0.44240,0.36848,,
9.4678,1,DESCENDING,-0.0000,1.35075,0.47990,-2.13812,0.08750,1.57080,-3.01911,-0.09677,-0.44240,0.36845,,
9.4772,1,DESCENDING,-0.0000,1.35075,0.47990,-2.13815,0.08753,1.57080,-3.01911,-0.09677,-0.44240,0.36843,,
9.4869,1,DESCENDING,-0.0000,1.35075,0.47990,-2.13819,0.08757,1.57080,-3.01911,-0.09677,-0.44240,0.36841,,
9.5121,1,DESCENDING,-0.0000,1.35075,0.47988,-2.13831,0.08771,1.57080,-3.01911,-0.09677,-0.44240,0.36834,,
9.5129,1,DESCENDING,-0.0000,1.35075,0.47988,-2.13832,0.08772,1.57080,-3.01911,-0.09677,-0.44240,0.36833,,
9.5157,1,DESCENDING,-0.0000,1.35075,0.47988,-2.13832,0.08772,1.57080,-3.01911,-0.09677,-0.44240,0.36833,,
9.5285,1,DESCENDING,-0.0000,1.35075,0.47988,-2.13838,0.08779,1.57080,-3.01911,-0.09677,-0.44240,0.36830,,
9.5375,1,DESCENDING,-0.0000,1.35075,0.47987,-2.13841,0.08782,1.57080,-3.01911,-0.09677,-0.44240,0.36828,,
9.5619,1,DESCENDING,-0.0000,1.35075,0.47986,-2.13857,0.08799,1.57080,-3.01911,-0.09677,-0.44240,0.36818,,
9.5693,1,DESCENDING,-0.0000,1.35075,0.47986,-2.13857,0.08800,1.57080,-3.01911,-0.09677,-0.44240,0.36818,,
9.5774,1,DESCENDING,-0.0000,1.35075,0.47985,-2.13860,0.08803,1.57080,-3.01911,-0.09677,-0.44240,0.36817,,
9.5893,1,DESCENDING,-0.0000,1.35075,0.47985,-2.13867,0.08810,1.57080,-3.01911,-0.09677,-0.44240,0.36812,,
9.6066,1,DESCENDING,-0.0000,1.35075,0.47984,-2.13871,0.08815,1.57080,-3.01911,-0.09677,-0.44240,0.36810,,
9.6072,1,DESCENDING,-0.0000,1.35075,0.47984,-2.13871,0.08815,1.57080,-3.01911,-0.09677,-0.44240,0.36810,,
9.6162,1,DESCENDING,-0.0000,1.35075,0.47984,-2.13877,0.08821,1.57080,-3.01911,-0.09677,-0.44240,0.36807,,
9.6282,1,DESCENDING,-0.0000,1.35075,0.47983,-2.13883,0.08828,1.57080,-3.01911,-0.09677,-0.44240,0.36803,,
9.6392,1,DESCENDING,-0.0000,1.35075,0.47983,-2.13886,0.08831,1.57080,-3.01911,-0.09677,-0.44240,0.36801,,
9.6630,1,DESCENDING,-0.0000,1.35075,0.47982,-2.13895,0.08841,1.57080,-3.01911,-0.09677,-0.44240,0.36796,,
9.6633,1,DESCENDING,-0.0000,1.35075,0.47982,-2.13895,0.08841,1.57080,-3.01911,-0.09677,-0.44240,0.36796,,
9.6756,1,DESCENDING,-0.0000,1.35075,0.47981,-2.13903,0.08850,1.57080,-3.01911,-0.09677,-0.44240,0.36791,,
9.6767,1,DESCENDING,-0.0000,1.35075,0.47981,-2.13903,0.08850,1.57080,-3.01911,-0.09677,-0.44240,0.36791,,
9.6860,1,DESCENDING,-0.0000,1.35075,0.47980,-2.13909,0.08857,1.57080,-3.01911,-0.09677,-0.44240,0.36787,,
9.6973,1,DESCENDING,-0.0000,1.35075,0.47980,-2.13913,0.08861,1.57080,-3.01911,-0.09677,-0.44240,0.36785,,
9.7076,1,DESCENDING,-0.0000,1.35075,0.47979,-2.13919,0.08868,1.57080,-3.01911,-0.09677,-0.44240,0.36782,,
9.7162,1,DESCENDING,-0.0000,1.35075,0.47979,-2.13925,0.08874,1.57080,-3.01911,-0.09677,-0.44240,0.36778,,
9.7273,1,DESCENDING,-0.0000,1.35075,0.47979,-2.13926,0.08876,1.57080,-3.01911,-0.09677,-0.44240,0.36777,,
9.7384,1,DESCENDING,-0.0000,1.35075,0.47978,-2.13932,0.08882,1.57080,-3.01911,-0.09677,-0.44240,0.36773,,
9.7462,1,DESCENDING,-0.0000,1.35075,0.47978,-2.13935,0.08885,1.57080,-3.01911,-0.09677,-0.44240,0.36772,,
9.7597,1,DESCENDING,-0.0000,1.35075,0.47977,-2.13939,0.08890,1.57080,-3.01911,-0.09677,-0.44240,0.36769,,
9.7675,1,DESCENDING,-0.0000,1.35075,0.47977,-2.13945,0.08896,1.57080,-3.01911,-0.09677,-0.44240,0.36766,,
9.8242,1,DESCENDING,-0.0000,1.35075,0.47974,-2.13968,0.08922,1.57080,-3.01911,-0.09677,-0.44240,0.36752,,
9.8481,1,DESCENDING,-0.0000,1.35075,0.47973,-2.13979,0.08934,1.57080,-3.01911,-0.09677,-0.44240,0.36746,,
9.8486,1,DESCENDING,-0.0000,1.35075,0.47973,-2.13979,0.08934,1.57080,-3.01911,-0.09677,-0.44240,0.36746,,
9.8936,1,DESCENDING,-0.0000,1.35075,0.47971,-2.14003,0.08961,1.57080,-3.01911,-0.09677,-0.44240,0.36731,,
9.8943,1,DESCENDING,-0.0000,1.35075,0.47971,-2.14003,0.08961,1.57080,-3.01911,-0.09677,-0.44240,0.36731,,
9.8977,1,DESCENDING,-0.0000,1.35075,0.47971,-2.14003,0.08961,1.57080,-3.01911,-0.09677,-0.44240,0.36731,,
9.9186,1,DESCENDING,-0.0000,1.35075,0.47970,-2.14011,0.08969,1.57080,-3.01911,-0.09677,-0.44240,0.36727,,
9.9201,1,DESCENDING,-0.0000,1.35075,0.47970,-2.14011,0.08969,1.57080,-3.01911,-0.09677,-0.44240,0.36727,,
9.9264,1,DESCENDING,-0.0000,1.35075,0.47970,-2.14013,0.08972,1.57080,-3.01911,-0.09677,-0.44240,0.36725,,
9.9391,1,DESCENDING,-0.0000,1.35075,0.47969,-2.14018,0.08977,1.57080,-3.01911,-0.09677,-0.44240,0.36723,,
9.9477,1,DESCENDING,-0.0000,1.35075,0.47969,-2.14023,0.08983,1.57080,-3.01911,-0.09677,-0.44240,0.36719,,
9.9561,1,DESCENDING,-0.0000,1.35075,0.47968,-2.14030,0.08990,1.57080,-3.01911,-0.09677,-0.44240,0.36716,,
9.9810,1,DESCENDING,-0.0000,1.35075,0.47967,-2.14039,0.09001,1.57080,-3.01911,-0.09677,-0.44240,0.36710,,
9.9813,1,DESCENDING,-0.0000,1.35075,0.47967,-2.14039,0.09001,1.57080,-3.01911,-0.09677,-0.44240,0.36710,,
9.9899,1,DESCENDING,-0.0000,1.35075,0.47967,-2.14040,0.09001,1.57080,-3.01911,-0.09677,-0.44240,0.36709,,
9.9967,1,DESCENDING,-0.0000,1.35075,0.47967,-2.14042,0.09003,1.57080,-3.01911,-0.09677,-0.44240,0.36708,,
10.0064,1,DESCENDING,-0.0000,1.35075,0.47966,-2.14049,0.09012,1.57080,-3.01911,-0.09677,-0.44240,0.36704,,
10.0207,1,DESCENDING,-0.0000,1.35075,0.47965,-2.14056,0.09019,1.57080,-3.01911,-0.09677,-0.44240,0.36700,,
10.0263,1,DESCENDING,-0.0000,1.35075,0.47965,-2.14058,0.09021,1.57080,-3.01911,-0.09677,-0.44240,0.36699,,
10.0361,1,DESCENDING,-0.0000,1.35075,0.47964,-2.14062,0.09026,1.57080,-3.01911,-0.09677,-0.44240,0.36696,,
10.0899,1,DESCENDING,-0.0000,1.35075,0.47962,-2.14086,0.09052,1.57080,-3.01911,-0.09677,-0.44240,0.36682,,
10.0937,1,DESCENDING,-0.0000,1.35075,0.47962,-2.14088,0.09055,1.57080,-3.01911,-0.09677,-0.44240,0.36681,,
10.0964,1,DESCENDING,-0.0000,1.35075,0.47962,-2.14088,0.09055,1.57080,-3.01911,-0.09677,-0.44240,0.36681,,
10.1069,1,DESCENDING,-0.0000,1.35075,0.47961,-2.14095,0.09062,1.57080,-3.01911,-0.09677,-0.44240,0.36677,,
10.1180,1,DESCENDING,-0.0000,1.35075,0.47961,-2.14099,0.09066,1.57080,-3.01911,-0.09677,-0.44240,0.36674,,
10.1270,1,DESCENDING,-0.0000,1.35075,0.47960,-2.14104,0.09072,1.57080,-3.01911,-0.09677,-0.44240,0.36671,,
10.1396,1,DESCENDING,-0.0000,1.35075,0.47959,-2.14110,0.09079,1.57080,-3.01911,-0.09677,-0.44240,0.36668,,
10.1486,1,DESCENDING,-0.0000,1.35075,0.47959,-2.14112,0.09081,1.57080,-3.01911,-0.09677,-0.44240,0.36666,,
10.1569,1,DESCENDING,-0.0000,1.35075,0.47959,-2.14117,0.09086,1.57080,-3.01911,-0.09677,-0.44240,0.36664,,
10.2323,1,DESCENDING,-0.0000,1.35075,0.47955,-2.14152,0.09125,1.57080,-3.01911,-0.09677,-0.44240,0.36643,,
10.2327,1,DESCENDING,-0.0000,1.35075,0.47955,-2.14152,0.09125,1.57080,-3.01911,-0.09677,-0.44240,0.36643,,
10.2539,1,DESCENDING,-0.0000,1.35075,0.47954,-2.14162,0.09136,1.57080,-3.01911,-0.09677,-0.44240,0.36637,,
10.2560,1,DESCENDING,-0.0000,1.35075,0.47954,-2.14162,0.09136,1.57080,-3.01911,-0.09677,-0.44240,0.36637,,
10.2572,1,DESCENDING,-0.0000,1.35075,0.47954,-2.14162,0.09136,1.57080,-3.01911,-0.09677,-0.44240,0.36637,,
10.2664,1,DESCENDING,-0.0000,1.35075,0.47954,-2.14164,0.09138,1.57080,-3.01911,-0.09677,-0.44240,0.36635,,
10.2912,1,DESCENDING,-0.0000,1.35075,0.47952,-2.14178,0.09154,1.57080,-3.01911,-0.09677,-0.44240,0.36627,,
10.2917,1,DESCENDING,-0.0000,1.35075,0.47952,-2.14178,0.09154,1.57080,-3.01911,-0.09677,-0.44240,0.36627,,
10.2962,1,DESCENDING,-0.0000,1.35075,0.47952,-2.14179,0.09155,1.57080,-3.01911,-0.09677,-0.44240,0.36627,,
10.3103,1,DESCENDING,-0.0000,1.35075,0.47951,-2.14186,0.09162,1.57080,-3.01911,-0.09677,-0.44240,0.36623,,
10.3279,1,DESCENDING,-0.0000,1.35075,0.47951,-2.14190,0.09167,1.57080,-3.01911,-0.09677,-0.44240,0.36620,,
10.3387,1,DESCENDING,-0.0000,1.35075,0.47950,-2.14198,0.09176,1.57080,-3.01911,-0.09677,-0.44240,0.36615,,
10.3529,1,DESCENDING,-0.0000,1.35075,0.47949,-2.14205,0.09183,1.57080,-3.01911,-0.09677,-0.44240,0.36611,,
10.3578,1,DESCENDING,-0.0000,1.35075,0.47949,-2.14206,0.09185,1.57080,-3.01911,-0.09677,-0.44240,0.36611,,
10.3685,1,DESCENDING,-0.0000,1.35075,0.47949,-2.14209,0.09189,1.57080,-3.01911,-0.09677,-0.44240,0.36608,,
10.3923,1,DESCENDING,-0.0000,1.35075,0.47948,-2.14219,0.09199,1.57080,-3.01911,-0.09677,-0.44240,0.36603,,
10.3992,1,DESCENDING,-0.0000,1.35075,0.47947,-2.14224,0.09205,1.57080,-3.01911,-0.09677,-0.44240,0.36600,,
10.4075,1,DESCENDING,-0.0000,1.35075,0.47947,-2.14230,0.09212,1.57080,-3.01911,-0.09677,-0.44240,0.36596,,
10.4309,1,DESCENDING,-0.0000,1.35075,0.47946,-2.14240,0.09223,1.57080,-3.01911,-0.09677,-0.44240,0.36590,,
10.4312,1,DESCENDING,-0.0000,1.35075,0.47946,-2.14240,0.09223,1.57080,-3.01911,-0.09677,-0.44240,0.36590,,
10.4390,1,DESCENDING,-0.0000,1.35075,0.47945,-2.14243,0.09226,1.57080,-3.01911,-0.09677,-0.44240,0.36588,,
10.4506,1,DESCENDING,-0.0000,1.35075,0.47945,-2.14247,0.09230,1.57080,-3.01911,-0.09677,-0.44240,0.36586,,
10.4599,1,DESCENDING,-0.0000,1.35075,0.47944,-2.14253,0.09237,1.57080,-3.01911,-0.09677,-0.44240,0.36583,,
10.4936,1,DESCENDING,-0.0000,1.35075,0.47942,-2.14272,0.09258,1.57080,-3.01911,-0.09677,-0.44240,0.36571,,
10.5176,1,DESCENDING,-0.0000,1.35075,0.47941,-2.14281,0.09268,1.57080,-3.01911,-0.09677,-0.44240,0.36566,,
10.5336,1,DESCENDING,-0.0000,1.35075,0.47940,-2.14288,0.09275,1.57080,-3.01911,-0.09677,-0.44240,0.36562,,
10.5432,1,DESCENDING,-0.0000,1.35075,0.47940,-2.14291,0.09279,1.57080,-3.01911,-0.09677,-0.44240,0.36560,,
10.5580,1,DESCENDING,-0.0000,1.35075,0.47939,-2.14300,0.09289,1.57080,-3.01911,-0.09677,-0.44240,0.36554,,
10.5813,1,DESCENDING,-0.0000,1.35075,0.47938,-2.14313,0.09303,1.57080,-3.01911,-0.09677,-0.44240,0.36547,,
10.5976,1,DESCENDING,-0.0000,1.35075,0.47937,-2.14318,0.09309,1.57080,-3.01911,-0.09677,-0.44240,0.36544,,
10.6015,1,DESCENDING,-0.0000,1.35075,0.47937,-2.14320,0.09311,1.57080,-3.01911,-0.09677,-0.44240,0.36543,,
10.6121,1,DESCENDING,-0.0000,1.35075,0.47936,-2.14325,0.09317,1.57080,-3.01911,-0.09677,-0.44240,0.36539,,
10.6181,1,DESCENDING,-0.0000,1.35075,0.47936,-2.14329,0.09321,1.57080,-3.01911,-0.09677,-0.44240,0.36537,,
10.6338,1,DESCENDING,-0.0000,1.35075,0.47935,-2.14335,0.09328,1.57080,-3.01911,-0.09677,-0.44240,0.36533,,
10.6468,1,DESCENDING,-0.0000,1.35075,0.47934,-2.14344,0.09338,1.57080,-3.01911,-0.09677,-0.44240,0.36528,,
10.6486,1,DESCENDING,-0.0000,1.35075,0.47934,-2.14344,0.09338,1.57080,-3.01911,-0.09677,-0.44240,0.36528,,
10.6493,1,DESCENDING,-0.0000,1.35075,0.47934,-2.14344,0.09338,1.57080,-3.01911,-0.09677,-0.44240,0.36528,,
10.6522,1,DESCENDING,-0.0000,1.35075,0.47934,-2.14344,0.09338,1.57080,-3.01911,-0.09677,-0.44240,0.36528,,
10.6602,1,DESCENDING,-0.0000,1.35075,0.47934,-2.14346,0.09340,1.57080,-3.01911,-0.09677,-0.44240,0.36527,,
10.6636,1,DESCENDING,-0.0000,1.35075,0.47934,-2.14348,0.09342,1.57080,-3.01911,-0.09677,-0.44240,0.36526,,
10.6664,1,DESCENDING,-0.0000,1.35075,0.47934,-2.14351,0.09345,1.57080,-3.01911,-0.09677,-0.44240,0.36524,,
10.6677,1,DESCENDING,-0.0000,1.35075,0.47934,-2.14351,0.09345,1.57080,-3.01911,-0.09677,-0.44240,0.36524,,
10.6831,1,DESCENDING,-0.0000,1.35075,0.47933,-2.14357,0.09353,1.57080,-3.01911,-0.09677,-0.44240,0.36520,,
10.6898,1,DESCENDING,-0.0000,1.35075,0.47932,-2.14361,0.09357,1.57080,-3.01911,-0.09677,-0.44240,0.36518,,
10.6988,1,DESCENDING,-0.0000,1.35075,0.47932,-2.14367,0.09363,1.57080,-3.01911,-0.09677,-0.44240,0.36515,,
10.7128,1,DESCENDING,-0.0000,1.35075,0.47931,-2.14373,0.09369,1.57080,-3.01911,-0.09677,-0.44240,0.36511,,
10.7167,1,DESCENDING,-0.0000,1.35075,0.47931,-2.14373,0.09370,1.57080,-3.01911,-0.09677,-0.44240,0.36511,,
10.7323,1,DESCENDING,-0.0000,1.35075,0.47930,-2.14382,0.09380,1.57080,-3.01911,-0.09677,-0.44240,0.36505,,
10.7384,1,DESCENDING,-0.0000,1.35075,0.47929,-2.14388,0.09387,1.57080,-3.01911,-0.09677,-0.44240,0.36502,,
10.7501,1,DESCENDING,-0.0000,1.35075,0.47929,-2.14390,0.09388,1.57080,-3.01911,-0.09677,-0.44240,0.36501,,
10.7582,1,DESCENDING,-0.0000,1.35075,0.47929,-2.14393,0.09393,1.57080,-3.01911,-0.09677,-0.44240,0.36499,,
10.7697,1,DESCENDING,-0.0000,1.35075,0.47928,-2.14398,0.09398,1.57080,-3.01911,-0.09677,-0.44240,0.36496,,
10.7785,1,DESCENDING,-0.0000,1.35075,0.47928,-2.14400,0.09400,1.57080,-3.01911,-0.09677,-0.44240,0.36495,,
10.7899,1,DESCENDING,-0.0000,1.35075,0.47927,-2.14408,0.09409,1.57080,-3.01911,-0.09677,-0.44240,0.36490,,
10.8026,1,DESCENDING,-0.0000,1.35075,0.47927,-2.14412,0.09413,1.57080,-3.01911,-0.09677,-0.44240,0.36488,,
10.8084,1,DESCENDING,-0.0000,1.35075,0.47927,-2.14413,0.09415,1.57080,-3.01911,-0.09677,-0.44240,0.36487,,
10.8180,1,DESCENDING,-0.0000,1.35075,0.47926,-2.14421,0.09423,1.57080,-3.01911,-0.09677,-0.44240,0.36482,,
10.8436,1,DESCENDING,-0.0000,1.35075,0.47925,-2.14431,0.09434,1.57080,-3.01911,-0.09677,-0.44240,0.36476,,
10.8475,1,DESCENDING,-0.0000,1.35075,0.47924,-2.14434,0.09437,1.57080,-3.01911,-0.09677,-0.44240,0.36475,,
10.8477,1,DESCENDING,-0.0000,1.35075,0.47924,-2.14434,0.09437,1.57080,-3.01911,-0.09677,-0.44240,0.36475,,
10.8597,1,DESCENDING,-0.0000,1.35075,0.47923,-2.14443,0.09447,1.57080,-3.01911,-0.09677,-0.44240,0.36469,,
10.8681,1,DESCENDING,-0.0000,1.35075,0.47923,-2.14443,0.09448,1.57080,-3.01911,-0.09677,-0.44240,0.36469,,
10.8819,1,DESCENDING,-0.0000,1.35075,0.47923,-2.14450,0.09456,1.57080,-3.01911,-0.09677,-0.44240,0.36465,,
10.9029,1,DESCENDING,-0.0000,1.35075,0.47922,-2.14457,0.09463,1.57080,-3.01911,-0.09677,-0.44240,0.36461,,
10.9034,1,DESCENDING,-0.0000,1.35075,0.47922,-2.14457,0.09463,1.57080,-3.01911,-0.09677,-0.44240,0.36461,,
10.9092,1,DESCENDING,-0.0000,1.35075,0.47922,-2.14460,0.09466,1.57080,-3.01911,-0.09677,-0.44240,0.36459,,
10.9199,1,DESCENDING,-0.0000,1.35075,0.47921,-2.14469,0.09476,1.57080,-3.01911,-0.09677,-0.44240,0.36454,,
10.9437,1,DESCENDING,-0.0000,1.35075,0.47920,-2.14476,0.09485,1.57080,-3.01911,-0.09677,-0.44240,0.36449,,
10.9440,1,DESCENDING,-0.0000,1.35075,0.47920,-2.14476,0.09485,1.57080,-3.01911,-0.09677,-0.44240,0.36449,,
10.9462,1,DESCENDING,-0.0000,1.35075,0.47920,-2.14479,0.09487,1.57080,-3.01911,-0.09677,-0.44240,0.36448,,
10.9631,1,DESCENDING,-0.0000,1.35075,0.47919,-2.14483,0.09492,1.57080,-3.01911,-0.09677,-0.44240,0.36445,,
10.9667,1,DESCENDING,-0.0000,1.35075,0.47919,-2.14486,0.09495,1.57080,-3.01911,-0.09677,-0.44240,0.36443,,
10.9766,1,DESCENDING,-0.0000,1.35075,0.47918,-2.14492,0.09502,1.57080,-3.01911,-0.09677,-0.44240,0.36440,,
10.9893,1,DESCENDING,-0.0000,1.35075,0.47918,-2.14495,0.09506,1.57080,-3.01911,-0.09677,-0.44240,0.36438,,
10.9987,1,DESCENDING,-0.0000,1.35075,0.47917,-2.14500,0.09511,1.57080,-3.01911,-0.09677,-0.44240,0.36435,,
11.0106,1,DESCENDING,-0.0000,1.35075,0.47917,-2.14505,0.09516,1.57080,-3.01911,-0.09677,-0.44240,0.36432,,
11.0163,1,DESCENDING,-0.0000,1.35075,0.47917,-2.14505,0.09517,1.57080,-3.01911,-0.09677,-0.44240,0.36432,,
11.0270,1,DESCENDING,-0.0000,1.35075,0.47916,-2.14512,0.09524,1.57080,-3.01911,-0.09677,-0.44240,0.36428,,
11.0476,1,DESCENDING,-0.0000,1.35075,0.47915,-2.14521,0.09535,1.57080,-3.01911,-0.09677,-0.44240,0.36422,,
11.0480,1,DESCENDING,-0.0000,1.35075,0.47915,-2.14521,0.09535,1.57080,-3.01911,-0.09677,-0.44240,0.36422,,
11.0580,1,DESCENDING,-0.0000,1.35075,0.47914,-2.14526,0.09540,1.57080,-3.01911,-0.09677,-0.44240,0.36419,,
11.0681,1,DESCENDING,-0.0000,1.35075,0.47914,-2.14531,0.09545,1.57080,-3.01911,-0.09677,-0.44240,0.36417,,
11.0782,1,DESCENDING,-0.0000,1.35075,0.47913,-2.14533,0.09548,1.57080,-3.01911,-0.09677,-0.44240,0.36415,,
11.0959,1,DESCENDING,-0.0000,1.35075,0.47912,-2.14544,0.09560,1.57080,-3.01911,-0.09677,-0.44240,0.36409,,
11.1001,1,DESCENDING,-0.0000,1.35075,0.47912,-2.14547,0.09563,1.57080,-3.01911,-0.09677,-0.44240,0.36407,,
11.1073,1,DESCENDING,-0.0000,1.35075,0.47912,-2.14547,0.09564,1.57080,-3.01911,-0.09677,-0.44240,0.36407,,
11.1166,1,DESCENDING,-0.0000,1.35075,0.47912,-2.14550,0.09567,1.57080,-3.01911,-0.09677,-0.44240,0.36405,,
11.1401,1,DESCENDING,-0.0000,1.35075,0.47911,-2.14559,0.09577,1.57080,-3.01911,-0.09677,-0.44240,0.36400,,
11.1406,1,DESCENDING,-0.0000,1.35075,0.47911,-2.14559,0.09577,1.57080,-3.01911,-0.09677,-0.44240,0.36400,,
11.1484,1,DESCENDING,-0.0000,1.35075,0.47910,-2.14564,0.09582,1.57080,-3.01911,-0.09677,-0.44240,0.36397,,
11.1592,1,DESCENDING,-0.0000,1.35075,0.47909,-2.14573,0.09592,1.57080,-3.01911,-0.09677,-0.44240,0.36391,,
11.1702,1,DESCENDING,-0.0000,1.35075,0.47909,-2.14575,0.09594,1.57080,-3.01911,-0.09677,-0.44240,0.36391,,
11.1766,1,DESCENDING,-0.0000,1.35075,0.47909,-2.14576,0.09595,1.57080,-3.01911,-0.09677,-0.44240,0.36390,,
11.1876,1,DESCENDING,-0.0000,1.35075,0.47908,-2.14583,0.09603,1.57080,-3.01911,-0.09677,-0.44240,0.36385,,
11.1984,1,DESCENDING,-0.0000,1.35075,0.47908,-2.14585,0.09605,1.57080,-3.01911,-0.09677,-0.44240,0.36384,,
11.2103,1,DESCENDING,-0.0000,1.35075,0.47907,-2.14593,0.09614,1.57080,-3.01911,-0.09677,-0.44240,0.36379,,
11.2164,1,DESCENDING,-0.0000,1.35075,0.47906,-2.14596,0.09618,1.57080,-3.01911,-0.09677,-0.44240,0.36378,,
11.2303,1,DESCENDING,-0.0000,1.35075,0.47906,-2.14601,0.09623,1.57080,-3.01911,-0.09677,-0.44240,0.36375,,
11.2592,1,DESCENDING,-0.0000,1.35075,0.47905,-2.14611,0.09634,1.57080,-3.01911,-0.09677,-0.44240,0.36369,,
11.2622,1,DESCENDING,-0.0000,1.35075,0.47904,-2.14613,0.09637,1.57080,-3.01911,-0.09677,-0.44240,0.36367,,
11.2672,1,DESCENDING,-0.0000,1.35075,0.47904,-2.14616,0.09640,1.57080,-3.01911,-0.09677,-0.44240,0.36366,,
11.2789,1,DESCENDING,-0.0000,1.35075,0.47903,-2.14625,0.09650,1.57080,-3.01911,-0.09677,-0.44240,0.36360,,
11.2899,1,DESCENDING,-0.0000,1.35075,0.47903,-2.14626,0.09651,1.57080,-3.01911,-0.09677,-0.44240,0.36360,,
11.2968,1,DESCENDING,-0.0000,1.35075,0.47903,-2.14628,0.09653,1.57080,-3.01911,-0.09677,-0.44240,0.36358,,
11.3074,1,DESCENDING,-0.0000,1.35075,0.47902,-2.14635,0.09661,1.57080,-3.01911,-0.09677,-0.44240,0.36354,,
11.3186,1,DESCENDING,-0.0000,1.35075,0.47902,-2.14637,0.09663,1.57080,-3.01911,-0.09677,-0.44240,0.36353,,
11.3296,1,DESCENDING,-0.0000,1.35075,0.47901,-2.14642,0.09669,1.57080,-3.01911,-0.09677,-0.44240,0.36350,,
11.3476,1,DESCENDING,-0.0000,1.35075,0.47900,-2.14652,0.09679,1.57080,-3.01911,-0.09677,-0.44240,0.36344,,
11.3599,1,DESCENDING,-0.0000,1.35075,0.47900,-2.14656,0.09685,1.57080,-3.01911,-0.09677,-0.44240,0.36342,,
11.3672,1,DESCENDING,-0.0000,1.35075,0.47899,-2.14661,0.09690,1.57080,-3.01911,-0.09677,-0.44240,0.36339,,
11.3681,1,DESCENDING,-0.0000,1.35075,0.47899,-2.14661,0.09690,1.57080,-3.01911,-0.09677,-0.44240,0.36339,,
11.3766,1,DESCENDING,-0.0000,1.35075,0.47899,-2.14662,0.09691,1.57080,-3.01911,-0.09677,-0.44240,0.36338,,
