Martins-Lucaas/RoboticArm/sensors/Data/20260621_170529__samples.csv
t_rel_s,cycle,phase,force_net_n,q1,q2,q3,q4,q5,q6,tcp_x,tcp_y,tcp_z,touch_value,touch_age_ms
0.0080,1,HOME,0.0000,1.35075,0.47844,-2.15134,0.10218,1.57080,-3.01911,-0.09677,-0.44240,0.36056,,
0.1652,1,HOME,0.0000,1.35075,0.47844,-2.15134,0.10218,1.57080,-3.01911,-0.09677,-0.44240,0.36056,,
0.2958,1,HOME,0.0000,1.35075,0.47882,-2.14684,0.09731,1.57080,-3.01911,-0.09675,-0.44247,0.36321,,
0.2969,1,HOME,0.0000,1.35075,0.47882,-2.14684,0.09731,1.57080,-3.01911,-0.09675,-0.44247,0.36321,,
0.3985,1,HOME,0.0000,1.35075,0.47921,-2.14222,0.09229,1.57080,-3.01911,-0.09674,-0.44252,0.36593,,
0.3989,1,HOME,0.0000,1.35075,0.47921,-2.14222,0.09229,1.57080,-3.01911,-0.09674,-0.44252,0.36593,,
0.3995,1,HOME,0.0000,1.35075,0.47922,-2.14203,0.09209,1.57080,-3.01911,-0.09674,-0.44253,0.36605,,
0.4001,1,HOME,0.0000,1.35075,0.47922,-2.14203,0.09209,1.57080,-3.01911,-0.09674,-0.44253,0.36605,,
0.4005,1,HOME,0.0000,1.35075,0.47922,-2.14203,0.09209,1.57080,-3.01911,-0.09674,-0.44253,0.36605,,
0.4007,1,HOME,0.0000,1.35075,0.47922,-2.14203,0.09209,1.57080,-3.01911,-0.09674,-0.44253,0.36605,,
0.5006,1,HOME,0.0000,1.35075,0.47961,-2.13745,0.08713,1.57080,-3.01911,-0.09673,-0.44257,0.36874,,
0.5010,1,HOME,0.0000,1.35075,0.47961,-2.13745,0.08713,1.57080,-3.01911,-0.09673,-0.44257,0.36874,,
0.5013,1,HOME,0.0000,1.35075,0.47961,-2.13745,0.08713,1.57080,-3.01911,-0.09673,-0.44257,0.36874,,
0.5016,1,HOME,0.0000,1.35075,0.47961,-2.13745,0.08713,1.57080,-3.01911,-0.09673,-0.44257,0.36874,,
0.5045,1,HOME,0.0000,1.35075,0.47962,-2.13727,0.08693,1.57080,-3.01911,-0.09673,-0.44257,0.36885,,
0.5050,1,HOME,0.0000,1.35075,0.47962,-2.13727,0.08693,1.57080,-3.01911,-0.09673,-0.44257,0.36885,,
0.5056,1,HOME,0.0000,1.35075,0.47962,-2.13727,0.08693,1.57080,-3.01911,-0.09673,-0.44257,0.36885,,
0.6034,1,HOME,0.0000,1.35075,0.48001,-2.13270,0.08198,1.57080,-3.01911,-0.09672,-0.44260,0.37155,,
0.6038,1,HOME,0.0000,1.35075,0.48001,-2.13270,0.08198,1.57080,-3.01911,-0.09672,-0.44260,0.37155,,
0.6041,1,HOME,0.0000,1.35075,0.48001,-2.13270,0.08198,1.57080,-3.01911,-0.09672,-0.44260,0.37155,,
0.6044,1,HOME,0.0000,1.35075,0.48001,-2.13270,0.08198,1.57080,-3.01911,-0.09672,-0.44260,0.37155,,
0.6047,1,HOME,0.0000,1.35075,0.48001,-2.13270,0.08198,1.57080,-3.01911,-0.09672,-0.44260,0.37155,,
0.6050,1,HOME,0.0000,1.35075,0.48001,-2.13270,0.08198,1.57080,-3.01911,-0.09672,-0.44260,0.37155,,
0.6054,1,HOME,0.0000,1.35075,0.48001,-2.13270,0.08198,1.57080,-3.01911,-0.09672,-0.44260,0.37155,,
0.6057,1,HOME,0.0000,1.35075,0.48001,-2.13270,0.08198,1.57080,-3.01911,-0.09672,-0.44260,0.37155,,
0.6060,1,HOME,0.0000,1.35075,0.48001,-2.13270,0.08198,1.57080,-3.01911,-0.09672,-0.44260,0.37155,,
0.6064,1,HOME,0.0000,1.35075,0.48001,-2.13270,0.08198,1.57080,-3.01911,-0.09672,-0.44260,0.37155,,
0.7077,1,HOME,0.0000,1.35075,0.48041,-2.12796,0.07683,1.57080,-3.01911,-0.09672,-0.44261,0.37435,,
0.7162,1,HOME,0.0000,1.35075,0.48044,-2.12759,0.07643,1.57080,-3.01911,-0.09672,-0.44261,0.37457,,
0.7167,1,HOME,0.0000,1.35075,0.48044,-2.12759,0.07643,1.57080,-3.01911,-0.09672,-0.44261,0.37457,,
0.7171,1,HOME,0.0000,1.35075,0.48044,-2.12759,0.07643,1.57080,-3.01911,-0.09672,-0.44261,0.37457,,
0.8084,1,HOME,0.0000,1.35075,0.48080,-2.12339,0.07187,1.57080,-3.01912,-0.09672,-0.44262,0.37705,,
0.8089,1,HOME,0.0000,1.35075,0.48080,-2.12339,0.07187,1.57080,-3.01912,-0.09672,-0.44262,0.37705,,
0.8093,1,HOME,0.0000,1.35075,0.48080,-2.12339,0.07187,1.57080,-3.01912,-0.09672,-0.44262,0.37705,,
0.8096,1,HOME,0.0000,1.35075,0.48080,-2.12339,0.07187,1.57080,-3.01912,-0.09672,-0.44262,0.37705,,
0.8098,1,HOME,0.0000,1.35075,0.48080,-2.12339,0.07187,1.57080,-3.01912,-0.09672,-0.44262,0.37705,,
0.8102,1,HOME,0.0000,1.35075,0.48080,-2.12339,0.07187,1.57080,-3.01912,-0.09672,-0.44262,0.37705,,
0.9128,1,HOME,0.0000,1.35075,0.48120,-2.11864,0.06672,1.57080,-3.01912,-0.09672,-0.44260,0.37985,,
0.9131,1,HOME,0.0000,1.35075,0.48120,-2.11864,0.06672,1.57080,-3.01912,-0.09672,-0.44260,0.37985,,
0.9136,1,HOME,0.0000,1.35075,0.48120,-2.11864,0.06672,1.57080,-3.01912,-0.09672,-0.44260,0.37985,,
1.0126,1,HOME,0.0000,1.35075,0.48159,-2.11407,0.06177,1.57080,-3.01912,-0.09673,-0.44258,0.38255,,
1.0131,1,HOME,0.0000,1.35075,0.48159,-2.11407,0.06177,1.57080,-3.01912,-0.09673,-0.44258,0.38255,,
1.0135,1,HOME,0.0000,1.35075,0.48159,-2.11407,0.06177,1.57080,-3.01912,-0.09673,-0.44258,0.38255,,
1.0140,1,HOME,0.0000,1.35075,0.48159,-2.11407,0.06177,1.57080,-3.01912,-0.09673,-0.44258,0.38255,,
1.0144,1,HOME,0.0000,1.35075,0.48159,-2.11407,0.06177,1.57080,-3.01912,-0.09673,-0.44258,0.38255,,
1.0147,1,HOME,0.0000,1.35075,0.48159,-2.11407,0.06177,1.57080,-3.01912,-0.09673,-0.44258,0.38255,,
1.0151,1,HOME,0.0000,1.35075,0.48159,-2.11407,0.06177,1.57080,-3.01912,-0.09673,-0.44258,0.38255,,
1.0156,1,HOME,0.0000,1.35075,0.48160,-2.11389,0.06157,1.57080,-3.01912,-0.09673,-0.44257,0.38266,,
1.0161,1,HOME,0.0000,1.35075,0.48160,-2.11389,0.06157,1.57080,-3.01912,-0.09673,-0.44257,0.38266,,
1.0167,1,HOME,0.0000,1.35075,0.48160,-2.11389,0.06157,1.57080,-3.01912,-0.09673,-0.44257,0.38266,,
1.0170,1,HOME,0.0000,1.35075,0.48160,-2.11389,0.06157,1.57080,-3.01912,-0.09673,-0.44257,0.38266,,
1.1162,1,HOME,0.0000,1.35075,0.48199,-2.10932,0.05662,1.57080,-3.01912,-0.09674,-0.44253,0.38536,,
1.1167,1,HOME,0.0000,1.35075,0.48199,-2.10932,0.05662,1.57080,-3.01912,-0.09674,-0.44253,0.38536,,
1.1171,1,HOME,0.0000,1.35075,0.48199,-2.10932,0.05662,1.57080,-3.01912,-0.09674,-0.44253,0.38536,,
1.1174,1,HOME,0.0000,1.35075,0.48199,-2.10932,0.05662,1.57080,-3.01912,-0.09674,-0.44253,0.38536,,
1.1177,1,HOME,0.0000,1.35075,0.48199,-2.10932,0.05662,1.57080,-3.01912,-0.09674,-0.44253,0.38536,,
1.1181,1,HOME,0.0000,1.35075,0.48199,-2.10932,0.05662,1.57080,-3.01912,-0.09674,-0.44253,0.38536,,
1.1187,1,HOME,0.0000,1.35075,0.48199,-2.10932,0.05662,1.57080,-3.01912,-0.09674,-0.44253,0.38536,,
1.1191,1,HOME,0.0000,1.35075,0.48199,-2.10932,0.05662,1.57080,-3.01912,-0.09674,-0.44253,0.38536,,
1.1198,1,HOME,0.0000,1.35075,0.48200,-2.10914,0.05642,1.57080,-3.01912,-0.09674,-0.44253,0.38547,,
1.2184,1,HOME,0.0000,1.35075,0.48237,-2.10476,0.05167,1.57080,-3.01912,-0.09675,-0.44248,0.38806,,
1.2187,1,HOME,0.0000,1.35075,0.48237,-2.10476,0.05167,1.57080,-3.01912,-0.09675,-0.44248,0.38806,,
1.2191,1,HOME,0.0000,1.35075,0.48237,-2.10476,0.05167,1.57080,-3.01912,-0.09675,-0.44248,0.38806,,
1.2195,1,HOME,0.0000,1.35075,0.48239,-2.10460,0.05150,1.57080,-3.01912,-0.09675,-0.44248,0.38815,,
1.2199,1,HOME,0.0000,1.35075,0.48239,-2.10460,0.05150,1.57080,-3.01912,-0.09675,-0.44248,0.38815,,
1.2239,1,HOME,0.0000,1.35075,0.48240,-2.10442,0.05130,1.57080,-3.01912,-0.09675,-0.44247,0.38826,,
1.2244,1,HOME,0.0000,1.35075,0.48240,-2.10442,0.05130,1.57080,-3.01912,-0.09675,-0.44247,0.38826,,
1.2247,1,HOME,0.0000,1.35075,0.48240,-2.10442,0.05130,1.57080,-3.01912,-0.09675,-0.44247,0.38826,,
1.3198,1,HOME,0.0000,1.35075,0.48278,-2.09998,0.04649,1.57080,-3.01912,-0.09677,-0.44241,0.39089,,
1.3202,1,HOME,0.0000,1.35075,0.48278,-2.09998,0.04649,1.57080,-3.01912,-0.09677,-0.44241,0.39089,,
1.3204,1,HOME,0.0000,1.35075,0.48278,-2.09998,0.04649,1.57080,-3.01912,-0.09677,-0.44241,0.39089,,
1.3208,1,HOME,0.0000,1.35075,0.48278,-2.09998,0.04649,1.57080,-3.01912,-0.09677,-0.44241,0.39089,,
1.3210,1,HOME,0.0000,1.35075,0.48278,-2.09998,0.04649,1.57080,-3.01912,-0.09677,-0.44241,0.39089,,
1.3214,1,HOME,0.0000,1.35075,0.48278,-2.09998,0.04649,1.57080,-3.01912,-0.09677,-0.44241,0.39089,,
1.3216,1,HOME,0.0000,1.35075,0.48278,-2.09998,0.04649,1.57080,-3.01912,-0.09677,-0.44241,0.39089,,
1.3221,1,HOME,0.0000,1.35075,0.48278,-2.09998,0.04649,1.57080,-3.01912,-0.09677,-0.44241,0.39089,,
1.4229,1,HOME,0.0000,1.35075,0.48284,-2.09928,0.04573,1.57080,-3.01912,-0.09677,-0.44240,0.39130,,
1.4237,1,HOME,0.0000,1.35075,0.48284,-2.09928,0.04573,1.57080,-3.01912,-0.09677,-0.44240,0.39130,,
1.4243,1,HOME,0.0000,1.35075,0.48284,-2.09928,0.04573,1.57080,-3.01912,-0.09677,-0.44240,0.39130,,
1.4247,1,HOME,0.0000,1.35075,0.48284,-2.09928,0.04573,1.57080,-3.01912,-0.09677,-0.44240,0.39130,,
1.4251,1,HOME,0.0000,1.35075,0.48284,-2.09928,0.04573,1.57080,-3.01912,-0.09677,-0.44240,0.39130,,
1.5248,1,HOME,0.0000,1.35075,0.48284,-2.09928,0.04573,1.57080,-3.01912,-0.09677,-0.44240,0.39130,,
1.5253,1,HOME,0.0000,1.35075,0.48284,-2.09928,0.04573,1.57080,-3.01912,-0.09677,-0.44240,0.39130,,
1.5255,1,HOME,0.0000,1.35075,0.48284,-2.09928,0.04573,1.57080,-3.01912,-0.09677,-0.44240,0.39130,,
1.5258,1,HOME,0.0000,1.35075,0.48284,-2.09928,0.04573,1.57080,-3.01912,-0.09677,-0.44240,0.39130,,
1.5266,1,HOME,0.0000,1.35075,0.48284,-2.09928,0.04573,1.57080,-3.01912,-0.09677,-0.44240,0.39130,,
1.5275,1,HOME,0.0000,1.35075,0.48284,-2.09928,0.04573,1.57080,-3.01912,-0.09677,-0.44240,0.39130,,
1.6278,1,HOME,0.0000,1.35075,0.48284,-2.09928,0.04573,1.57080,-3.01912,-0.09677,-0.44240,0.39130,,
1.6284,1,HOME,0.0000,1.35075,0.48284,-2.09928,0.04573,1.57080,-3.01912,-0.09677,-0.44240,0.39130,,
1.6288,1,HOME,0.0000,1.35075,0.48284,-2.09928,0.04573,1.57080,-3.01912,-0.09677,-0.44240,0.39130,,
1.6292,1,HOME,0.0000,1.35075,0.48284,-2.09928,0.04573,1.57080,-3.01912,-0.09677,-0.44240,0.39130,,
1.6295,1,HOME,0.0000,1.35075,0.48284,-2.09928,0.04573,1.57080,-3.01912,-0.09677,-0.44240,0.39130,,
1.6297,1,HOME,0.0000,1.35075,0.48284,-2.09928,0.04573,1.57080,-3.01912,-0.09677,-0.44240,0.39130,,
1.6299,1,HOME,0.0000,1.35075,0.48284,-2.09928,0.04573,1.57080,-3.01912,-0.09677,-0.44240,0.39130,,
1.6311,1,HOME,0.0000,1.35075,0.48284,-2.09928,0.04573,1.57080,-3.01912,-0.09677,-0.44240,0.39130,,
1.6321,1,HOME,0.0000,1.35075,0.48284,-2.09928,0.04573,1.57080,-3.01912,-0.09677,-0.44240,0.39130,,
1.7356,1,HOME,0.0000,1.35075,0.48284,-2.09928,0.04573,1.57080,-3.01912,-0.09677,-0.44240,0.39130,,
1.7361,1,HOME,0.0000,1.35075,0.48284,-2.09928,0.04573,1.57080,-3.01912,-0.09677,-0.44240,0.39130,,
1.7365,1,HOME,0.0000,1.35075,0.48284,-2.09928,0.04573,1.57080,-3.01912,-0.09677,-0.44240,0.39130,,
1.7368,1,HOME,0.0000,1.35075,0.48284,-2.09928,0.04573,1.57080,-3.01912,-0.09677,-0.44240,0.39130,,
1.7372,1,HOME,0.0000,1.35075,0.48284,-2.09928,0.04573,1.57080,-3.01912,-0.09677,-0.44240,0.39130,,
1.7376,1,HOME,0.0000,1.35075,0.48284,-2.09928,0.04573,1.57080,-3.01912,-0.09677,-0.44240,0.39130,,
1.7380,1,HOME,0.0000,1.35075,0.48284,-2.09928,0.04573,1.57080,-3.01912,-0.09677,-0.44240,0.39130,,
1.7383,1,HOME,0.0000,1.35075,0.48284,-2.09928,0.04573,1.57080,-3.01912,-0.09677,-0.44240,0.39130,,
1.7386,1,HOME,0.0000,1.35075,0.48284,-2.09928,0.04573,1.57080,-3.01912,-0.09677,-0.44240,0.39130,,
1.8331,1,HOME,0.0000,1.35075,0.48284,-2.09928,0.04573,1.57080,-3.01912,-0.09677,-0.44240,0.39130,,
1.8339,1,HOME,0.0000,1.35075,0.48284,-2.09928,0.04573,1.57080,-3.01912,-0.09677,-0.44240,0.39130,,
1.8346,1,HOME,0.0000,1.35075,0.48284,-2.09928,0.04573,1.57080,-3.01912,-0.09677,-0.44240,0.39130,,
1.8350,1,HOME,0.0000,1.35075,0.48284,-2.09928,0.04573,1.57080,-3.01912,-0.09677,-0.44240,0.39130,,
1.8355,1,HOME,0.0000,1.35075,0.48284,-2.09928,0.04573,1.57080,-3.01912,-0.09677,-0.44240,0.39130,,
1.8358,1,HOME,0.0000,1.35075,0.48284,-2.09928,0.04573,1.57080,-3.01912,-0.09677,-0.44240,0.39130,,
1.8363,1,HOME,0.0000,1.35075,0.48284,-2.09928,0.04573,1.57080,-3.01912,-0.09677,-0.44240,0.39130,,
1.8372,1,HOME,0.0000,1.35075,0.48284,-2.09928,0.04573,1.57080,-3.01912,-0.09677,-0.44240,0.39130,,
1.8378,1,HOME,0.0000,1.35075,0.48284,-2.09928,0.04573,1.57080,-3.01912,-0.09677,-0.44240,0.39130,,
1.8385,1,HOME,0.0000,1.35075,0.48284,-2.09928,0.04573,1.57080,-3.01912,-0.09677,-0.44240,0.39130,,
1.8390,1,HOME,0.0000,1.35075,0.48284,-2.09928,0.04573,1.57080,-3.01912,-0.09677,-0.44240,0.39130,,
1.8397,1,HOME,0.0000,1.35075,0.48284,-2.09928,0.04573,1.57080,-3.01912,-0.09677,-0.44240,0.39130,,
1.8400,1,HOME,0.0000,1.35075,0.48284,-2.09928,0.04573,1.57080,-3.01912,-0.09677,-0.44240,0.39130,,
1.9344,1,HOME,0.0000,1.35075,0.48284,-2.09928,0.04573,1.57080,-3.01912,-0.09677,-0.44240,0.39130,,
1.9348,1,HOME,0.0000,1.35075,0.48284,-2.09928,0.04573,1.57080,-3.01912,-0.09677,-0.44240,0.39130,,
1.9351,1,HOME,0.0000,1.35075,0.48284,-2.09928,0.04573,1.57080,-3.01912,-0.09677,-0.44240,0.39130,,
1.9355,1,HOME,0.0000,1.35075,0.48284,-2.09928,0.04573,1.57080,-3.01912,-0.09677,-0.44240,0.39130,,
1.9365,1,HOME,0.0000,1.35075,0.48284,-2.09928,0.04573,1.57080,-3.01912,-0.09677,-0.44240,0.39130,,
1.9368,1,HOME,0.0000,1.35075,0.48284,-2.09928,0.04573,1.57080,-3.01912,-0.09677,-0.44240,0.39130,,
1.9372,1,HOME,0.0000,1.35075,0.48284,-2.09928,0.04573,1.57080,-3.01912,-0.09677,-0.44240,0.39130,,
1.9374,1,HOME,0.0000,1.35075,0.48284,-2.09928,0.04573,1.57080,-3.01912,-0.09677,-0.44240,0.39130,,
1.9378,1,HOME,0.0000,1.35075,0.48284,-2.09928,0.04573,1.57080,-3.01912,-0.09677,-0.44240,0.39130,,
1.9382,1,HOME,0.0000,1.35075,0.48284,-2.09928,0.04573,1.57080,-3.01912,-0.09677,-0.44240,0.39130,,
2.0366,1,HOME,0.0000,1.35075,0.48284,-2.09928,0.04573,1.57080,-3.01912,-0.09677,-0.44240,0.39130,,
2.0369,1,HOME,0.0000,1.35075,0.48284,-2.09928,0.04573,1.57080,-3.01912,-0.09677,-0.44240,0.39130,,
2.0372,1,HOME,0.0000,1.35075,0.48284,-2.09928,0.04573,1.57080,-3.01912,-0.09677,-0.44240,0.39130,,
2.0376,1,HOME,0.0000,1.35075,0.48284,-2.09928,0.04573,1.57080,-3.01912,-0.09677,-0.44240,0.39130,,
2.0379,1,HOME,0.0000,1.35075,0.48284,-2.09928,0.04573,1.57080,-3.01912,-0.09677,-0.44240,0.39130,,
2.0382,1,HOME,0.0000,1.35075,0.48284,-2.09928,0.04573,1.57080,-3.01912,-0.09677,-0.44240,0.39130,,
2.0386,1,HOME,0.0000,1.35075,0.48284,-2.09928,0.04573,1.57080,-3.01912,-0.09677,-0.44240,0.39130,,
2.0393,1,HOME,0.0000,1.35075,0.48284,-2.09928,0.04573,1.57080,-3.01912,-0.09677,-0.44240,0.39130,,
2.1393,1,HOME,0.0000,1.35075,0.48284,-2.09928,0.04573,1.57080,-3.01912,-0.09677,-0.44240,0.39130,,
2.1397,1,HOME,0.0000,1.35075,0.48284,-2.09928,0.04573,1.57080,-3.01912,-0.09677,-0.44240,0.39130,,
2.1400,1,HOME,0.0000,1.35075,0.48284,-2.09928,0.04573,1.57080,-3.01912,-0.09677,-0.44240,0.39130,,
2.1404,1,HOME,0.0000,1.35075,0.48284,-2.09928,0.04573,1.57080,-3.01912,-0.09677,-0.44240,0.39130,,
2.1409,1,HOME,0.0000,1.35075,0.48284,-2.09928,0.04573,1.57080,-3.01912,-0.09677,-0.44240,0.39130,,
2.1414,1,HOME,0.0000,1.35075,0.48284,-2.09928,0.04573,1.57080,-3.01912,-0.09677,-0.44240,0.39130,,
2.1417,1,HOME,0.0000,1.35075,0.48284,-2.09928,0.04573,1.57080,-3.01912,-0.09677,-0.44240,0.39130,,
2.1420,1,HOME,0.0000,1.35075,0.48284,-2.09928,0.04573,1.57080,-3.01912,-0.09677,-0.44240,0.39130,,
2.2441,1,DESCENDING,0.0000,1.35075,0.48284,-2.09928,0.04573,1.57080,-3.01912,-0.09677,-0.44240,0.39130,,
2.2445,1,DESCENDING,0.0000,1.35075,0.48284,-2.09928,0.04573,1.57080,-3.01912,-0.09677,-0.44240,0.39130,,
2.2448,1,DESCENDING,0.0000,1.35075,0.48284,-2.09928,0.04573,1.57080,-3.01912,-0.09677,-0.44240,0.39130,,
2.2452,1,DESCENDING,0.0000,1.35075,0.48284,-2.09928,0.04573,1.57080,-3.01912,-0.09677,-0.44240,0.39130,,
2.2456,1,DESCENDING,0.0000,1.35075,0.48284,-2.09928,0.04573,1.57080,-3.01912,-0.09677,-0.44240,0.39130,,
2.3439,1,DESCENDING,0.0000,1.35075,0.48284,-2.09928,0.04573,1.57080,-3.01912,-0.09677,-0.44240,0.39130,,
2.3443,1,DESCENDING,0.0000,1.35075,0.48284,-2.09928,0.04573,1.57080,-3.01912,-0.09677,-0.44240,0.39130,,
2.3445,1,DESCENDING,0.0000,1.35075,0.48284,-2.09928,0.04573,1.57080,-3.01912,-0.09677,-0.44240,0.39130,,
2.3449,1,DESCENDING,0.0000,1.35075,0.48284,-2.09928,0.04573,1.57080,-3.01912,-0.09677,-0.44240,0.39130,,
2.3452,1,DESCENDING,0.0000,1.35075,0.48284,-2.09928,0.04573,1.57080,-3.01912,-0.09677,-0.44240,0.39130,,
2.3455,1,DESCENDING,0.0000,1.35075,0.48284,-2.09928,0.04573,1.57080,-3.01912,-0.09677,-0.44240,0.39130,,
2.3457,1,DESCENDING,0.0000,1.35075,0.48284,-2.09928,0.04573,1.57080,-3.01912,-0.09677,-0.44240,0.39130,,
2.3463,1,DESCENDING,0.0000,1.35075,0.48284,-2.09928,0.04573,1.57080,-3.01912,-0.09677,-0.44240,0.39130,,
2.3466,1,DESCENDING,0.0000,1.35075,0.48284,-2.09928,0.04573,1.57080,-3.01912,-0.09677,-0.44240,0.39130,,
2.3468,1,DESCENDING,0.0000,1.35075,0.48284,-2.09928,0.04573,1.57080,-3.01912,-0.09677,-0.44240,0.39130,,
2.3475,1,DESCENDING,0.0000,1.35075,0.48284,-2.09928,0.04573,1.57080,-3.01912,-0.09677,-0.44240,0.39130,,
2.3481,1,DESCENDING,0.0000,1.35075,0.48284,-2.09928,0.04573,1.57080,-3.01912,-0.09677,-0.44240,0.39130,,
2.3484,1,DESCENDING,0.0000,1.35075,0.48284,-2.09928,0.04573,1.57080,-3.01912,-0.09677,-0.44240,0.39130,,
2.3488,1,DESCENDING,0.0000,1.35075,0.48284,-2.09928,0.04573,1.57080,-3.01912,-0.09677,-0.44240,0.39130,,
2.3494,1,DESCENDING,0.0000,1.35075,0.48284,-2.09928,0.04573,1.57080,-3.01912,-0.09677,-0.44240,0.39130,,
2.3498,1,DESCENDING,0.0000,1.35075,0.48284,-2.09928,0.04573,1.57080,-3.01912,-0.09677,-0.44240,0.39130,,
2.4476,1,DESCENDING,0.0000,1.35075,0.48283,-2.09946,0.04592,1.57080,-3.01912,-0.09677,-0.44240,0.39120,,
2.4482,1,DESCENDING,0.0000,1.35075,0.48283,-2.09946,0.04592,1.57080,-3.01912,-0.09677,-0.44240,0.39120,,
2.4486,1,DESCENDING,0.0000,1.35075,0.48283,-2.09947,0.04593,1.57080,-3.01912,-0.09677,-0.44240,0.39119,,
2.5487,1,DESCENDING,0.0000,1.35075,0.48281,-2.09972,0.04619,1.57080,-3.01912,-0.09677,-0.44240,0.39105,,
2.5492,1,DESCENDING,0.0000,1.35075,0.48281,-2.09972,0.04619,1.57080,-3.01912,-0.09677,-0.44240,0.39105,,
2.5495,1,DESCENDING,0.0000,1.35075,0.48281,-2.09972,0.04619,1.57080,-3.01912,-0.09677,-0.44240,0.39105,,
2.5499,1,DESCENDING,0.0000,1.35075,0.48281,-2.09972,0.04619,1.57080,-3.01912,-0.09677,-0.44240,0.39105,,
2.5502,1,DESCENDING,0.0000,1.35075,0.48281,-2.09972,0.04619,1.57080,-3.01912,-0.09677,-0.44240,0.39105,,
2.5505,1,DESCENDING,0.0000,1.35075,0.48281,-2.09972,0.04619,1.57080,-3.01912,-0.09677,-0.44240,0.39105,,
2.5508,1,DESCENDING,0.0000,1.35075,0.48281,-2.09972,0.04619,1.57080,-3.01912,-0.09677,-0.44240,0.39105,,
2.5511,1,DESCENDING,0.0000,1.35075,0.48281,-2.09972,0.04619,1.57080,-3.01912,-0.09677,-0.44240,0.39105,,
2.5515,1,DESCENDING,0.0000,1.35075,0.48281,-2.09972,0.04619,1.57080,-3.01912,-0.09677,-0.44240,0.39105,,
2.5518,1,DESCENDING,0.0000,1.35075,0.48281,-2.09972,0.04619,1.57080,-3.01912,-0.09677,-0.44240,0.39105,,
2.5523,1,DESCENDING,0.0000,1.35075,0.48281,-2.09972,0.04619,1.57080,-3.01912,-0.09677,-0.44240,0.39105,,
2.5526,1,DESCENDING,0.0000,1.35075,0.48281,-2.09972,0.04619,1.57080,-3.01912,-0.09677,-0.44240,0.39105,,
2.5531,1,DESCENDING,0.0000,1.35075,0.48281,-2.09972,0.04619,1.57080,-3.01912,-0.09677,-0.44240,0.39105,,
2.5534,1,DESCENDING,0.0000,1.35075,0.48281,-2.09972,0.04619,1.57080,-3.01912,-0.09677,-0.44240,0.39105,,
2.5537,1,DESCENDING,0.0000,1.35075,0.48281,-2.09972,0.04619,1.57080,-3.01912,-0.09677,-0.44240,0.39105,,
2.6511,1,DESCENDING,0.0000,1.35075,0.48280,-2.09995,0.04644,1.57080,-3.01912,-0.09677,-0.44240,0.39091,,
2.6515,1,DESCENDING,0.0000,1.35075,0.48280,-2.09995,0.04644,1.57080,-3.01912,-0.09677,-0.44240,0.39091,,
2.6527,1,DESCENDING,0.0000,1.35075,0.48280,-2.09996,0.04645,1.57080,-3.01912,-0.09677,-0.44240,0.39090,,
2.6589,1,DESCENDING,0.0000,1.35075,0.48280,-2.09998,0.04646,1.57080,-3.01912,-0.09677,-0.44240,0.39090,,
2.6593,1,DESCENDING,0.0000,1.35075,0.48280,-2.09998,0.04646,1.57080,-3.01912,-0.09677,-0.44240,0.39090,,
2.7536,1,DESCENDING,0.0000,1.35075,0.48279,-2.10021,0.04670,1.57080,-3.01912,-0.09677,-0.44240,0.39076,,
2.7541,1,DESCENDING,0.0000,1.35075,0.48279,-2.10021,0.04670,1.57080,-3.01912,-0.09677,-0.44240,0.39076,,
2.7545,1,DESCENDING,0.0000,1.35075,0.48279,-2.10021,0.04670,1.57080,-3.01912,-0.09677,-0.44240,0.39076,,
2.7550,1,DESCENDING,0.0000,1.35075,0.48279,-2.10021,0.04670,1.57080,-3.01912,-0.09677,-0.44240,0.39076,,
2.7554,1,DESCENDING,0.0000,1.35075,0.48279,-2.10021,0.04670,1.57080,-3.01912,-0.09677,-0.44240,0.39076,,
2.7557,1,DESCENDING,0.0000,1.35075,0.48279,-2.10021,0.04670,1.57080,-3.01912,-0.09677,-0.44240,0.39076,,
2.7565,1,DESCENDING,0.0000,1.35075,0.48279,-2.10022,0.04672,1.57080,-3.01912,-0.09677,-0.44240,0.39075,,
2.7567,1,DESCENDING,0.0000,1.35075,0.48279,-2.10022,0.04672,1.57080,-3.01912,-0.09677,-0.44240,0.39075,,
2.7572,1,DESCENDING,0.0000,1.35075,0.48279,-2.10022,0.04672,1.57080,-3.01912,-0.09677,-0.44240,0.39075,,
2.8568,1,DESCENDING,0.0000,1.35075,0.48278,-2.10044,0.04695,1.57080,-3.01912,-0.09677,-0.44240,0.39063,,
2.8573,1,DESCENDING,0.0000,1.35075,0.48278,-2.10044,0.04695,1.57080,-3.01912,-0.09677,-0.44240,0.39063,,
2.8575,1,DESCENDING,0.0000,1.35075,0.48278,-2.10044,0.04695,1.57080,-3.01912,-0.09677,-0.44240,0.39063,,
2.8579,1,DESCENDING,0.0000,1.35075,0.48278,-2.10044,0.04695,1.57080,-3.01912,-0.09677,-0.44240,0.39063,,
2.8581,1,DESCENDING,0.0000,1.35075,0.48278,-2.10044,0.04695,1.57080,-3.01912,-0.09677,-0.44240,0.39063,,
2.8584,1,DESCENDING,0.0000,1.35075,0.48278,-2.10044,0.04695,1.57080,-3.01912,-0.09677,-0.44240,0.39063,,
2.8589,1,DESCENDING,0.0000,1.35075,0.48278,-2.10044,0.04695,1.57080,-3.01912,-0.09677,-0.44240,0.39063,,
2.8593,1,DESCENDING,0.0000,1.35075,0.48278,-2.10044,0.04695,1.57080,-3.01912,-0.09677,-0.44240,0.39063,,
2.9591,1,DESCENDING,0.0000,1.35075,0.48277,-2.10066,0.04718,1.57080,-3.01912,-0.09677,-0.44240,0.39050,,
2.9598,1,DESCENDING,0.0000,1.35075,0.48277,-2.10066,0.04718,1.57080,-3.01912,-0.09677,-0.44240,0.39050,,
2.9602,1,DESCENDING,0.0000,1.35075,0.48277,-2.10066,0.04718,1.57080,-3.01912,-0.09677,-0.44240,0.39050,,
2.9608,1,DESCENDING,0.0000,1.35075,0.48276,-2.10067,0.04719,1.57080,-3.01912,-0.09677,-0.44240,0.39049,,
2.9610,1,DESCENDING,0.0000,1.35075,0.48276,-2.10067,0.04719,1.57080,-3.01912,-0.09677,-0.44240,0.39049,,
2.9614,1,DESCENDING,0.0000,1.35075,0.48276,-2.10067,0.04719,1.57080,-3.01912,-0.09677,-0.44240,0.39049,,
3.0609,1,DESCENDING,0.0000,1.35075,0.48275,-2.10089,0.04742,1.57080,-3.01912,-0.09677,-0.44240,0.39036,,
3.0614,1,DESCENDING,0.0000,1.35075,0.48275,-2.10089,0.04742,1.57080,-3.01912,-0.09677,-0.44240,0.39036,,
3.0617,1,DESCENDING,0.0000,1.35075,0.48275,-2.10089,0.04742,1.57080,-3.01912,-0.09677,-0.44240,0.39036,,
3.0619,1,DESCENDING,0.0000,1.35075,0.48275,-2.10089,0.04742,1.57080,-3.01912,-0.09677,-0.44240,0.39036,,
3.0624,1,DESCENDING,0.0000,1.35075,0.48275,-2.10089,0.04742,1.57080,-3.01912,-0.09677,-0.44240,0.39036,,
3.0626,1,DESCENDING,0.0000,1.35075,0.48275,-2.10089,0.04742,1.57080,-3.01912,-0.09677,-0.44240,0.39036,,
3.0631,1,DESCENDING,0.0000,1.35075,0.48275,-2.10089,0.04742,1.57080,-3.01912,-0.09677,-0.44240,0.39036,,
3.0634,1,DESCENDING,0.0000,1.35075,0.48275,-2.10089,0.04742,1.57080,-3.01912,-0.09677,-0.44240,0.39036,,
3.0637,1,DESCENDING,0.0000,1.35075,0.48275,-2.10089,0.04742,1.57080,-3.01912,-0.09677,-0.44240,0.39036,,
3.0644,1,DESCENDING,0.0000,1.35075,0.48275,-2.10089,0.04742,1.57080,-3.01912,-0.09677,-0.44240,0.39036,,
3.0647,1,DESCENDING,0.0000,1.35075,0.48275,-2.10089,0.04742,1.57080,-3.01912,-0.09677,-0.44240,0.39036,,
3.0651,1,DESCENDING,0.0000,1.35075,0.48275,-2.10089,0.04742,1.57080,-3.01912,-0.09677,-0.44240,0.39036,,
3.0654,1,DESCENDING,0.0000,1.35075,0.48275,-2.10089,0.04742,1.57080,-3.01912,-0.09677,-0.44240,0.39036,,
3.0658,1,DESCENDING,0.0000,1.35075,0.48275,-2.10089,0.04742,1.57080,-3.01912,-0.09677,-0.44240,0.39036,,
3.0665,1,DESCENDING,0.0000,1.35075,0.48275,-2.10089,0.04742,1.57080,-3.01912,-0.09677,-0.44240,0.39036,,
3.0673,1,DESCENDING,0.0000,1.35075,0.48275,-2.10089,0.04742,1.57080,-3.01912,-0.09677,-0.44240,0.39036,,
3.1631,1,DESCENDING,0.0000,1.35075,0.48274,-2.10112,0.04767,1.57080,-3.01912,-0.09677,-0.44240,0.39023,,
3.1635,1,DESCENDING,0.0000,1.35075,0.48274,-2.10112,0.04767,1.57080,-3.01912,-0.09677,-0.44240,0.39023,,
3.1639,1,DESCENDING,0.0000,1.35075,0.48274,-2.10112,0.04767,1.57080,-3.01912,-0.09677,-0.44240,0.39023,,
3.1645,1,DESCENDING,0.0000,1.35075,0.48274,-2.10114,0.04768,1.57080,-3.01912,-0.09677,-0.44240,0.39022,,
3.1648,1,DESCENDING,0.0000,1.35075,0.48274,-2.10114,0.04768,1.57080,-3.01912,-0.09677,-0.44240,0.39022,,
3.1651,1,DESCENDING,0.0000,1.35075,0.48274,-2.10114,0.04768,1.57080,-3.01912,-0.09677,-0.44240,0.39022,,
3.1655,1,DESCENDING,0.0000,1.35075,0.48274,-2.10114,0.04768,1.57080,-3.01912,-0.09677,-0.44240,0.39022,,
3.1658,1,DESCENDING,0.0000,1.35075,0.48274,-2.10114,0.04768,1.57080,-3.01912,-0.09677,-0.44240,0.39022,,
3.2689,1,DESCENDING,0.0000,1.35075,0.48273,-2.10141,0.04797,1.57080,-3.01912,-0.09677,-0.44240,0.39006,,
3.2694,1,DESCENDING,0.0000,1.35075,0.48273,-2.10141,0.04797,1.57080,-3.01912,-0.09677,-0.44240,0.39006,,
3.2696,1,DESCENDING,0.0000,1.35075,0.48273,-2.10141,0.04797,1.57080,-3.01912,-0.09677,-0.44240,0.39006,,
3.2700,1,DESCENDING,0.0000,1.35075,0.48273,-2.10141,0.04797,1.57080,-3.01912,-0.09677,-0.44240,0.39006,,
3.2704,1,DESCENDING,0.0000,1.35075,0.48273,-2.10141,0.04797,1.57080,-3.01912,-0.09677,-0.44240,0.39006,,
3.2707,1,DESCENDING,0.0000,1.35075,0.48273,-2.10141,0.04797,1.57080,-3.01912,-0.09677,-0.44240,0.39006,,
3.2709,1,DESCENDING,0.0000,1.35075,0.48273,-2.10141,0.04797,1.57080,-3.01912,-0.09677,-0.44240,0.39006,,
3.2719,1,DESCENDING,0.0000,1.35075,0.48273,-2.10141,0.04797,1.57080,-3.01912,-0.09677,-0.44240,0.39006,,
3.2727,1,DESCENDING,0.0000,1.35075,0.48273,-2.10141,0.04797,1.57080,-3.01912,-0.09677,-0.44240,0.39006,,
3.3680,1,DESCENDING,0.0000,1.35075,0.48271,-2.10162,0.04819,1.57080,-3.01912,-0.09677,-0.44240,0.38994,,
3.3684,1,DESCENDING,0.0000,1.35075,0.48271,-2.10162,0.04819,1.57080,-3.01912,-0.09677,-0.44240,0.38994,,
3.3687,1,DESCENDING,0.0000,1.35075,0.48271,-2.10162,0.04820,1.57080,-3.01912,-0.09677,-0.44240,0.38994,,
3.3691,1,DESCENDING,0.0000,1.35075,0.48271,-2.10162,0.04820,1.57080,-3.01912,-0.09677,-0.44240,0.38994,,
3.3696,1,DESCENDING,0.0000,1.35075,0.48271,-2.10162,0.04820,1.57080,-3.01912,-0.09677,-0.44240,0.38994,,
3.3700,1,DESCENDING,0.0000,1.35075,0.48271,-2.10162,0.04820,1.57080,-3.01912,-0.09677,-0.44240,0.38994,,
3.3705,1,DESCENDING,0.0000,1.35075,0.48271,-2.10162,0.04820,1.57080,-3.01912,-0.09677,-0.44240,0.38994,,
3.3709,1,DESCENDING,0.0000,1.35075,0.48271,-2.10162,0.04820,1.57080,-3.01912,-0.09677,-0.44240,0.38994,,
3.3714,1,DESCENDING,0.0000,1.35075,0.48271,-2.10162,0.04820,1.57080,-3.01912,-0.09677,-0.44240,0.38994,,
3.3718,1,DESCENDING,0.0000,1.35075,0.48271,-2.10162,0.04820,1.57080,-3.01912,-0.09677,-0.44240,0.38994,,
3.3725,1,DESCENDING,0.0000,1.35075,0.48271,-2.10163,0.04820,1.57080,-3.01912,-0.09677,-0.44240,0.38993,,
3.3728,1,DESCENDING,0.0000,1.35075,0.48271,-2.10163,0.04820,1.57080,-3.01912,-0.09677,-0.44240,0.38993,,
3.3732,1,DESCENDING,0.0000,1.35075,0.48271,-2.10163,0.04820,1.57080,-3.01912,-0.09677,-0.44240,0.38993,,
3.3735,1,DESCENDING,0.0000,1.35075,0.48271,-2.10163,0.04820,1.57080,-3.01912,-0.09677,-0.44240,0.38993,,
3.4703,1,DESCENDING,0.0000,1.35075,0.48270,-2.10184,0.04843,1.57080,-3.01912,-0.09677,-0.44240,0.38981,,
3.4706,1,DESCENDING,0.0000,1.35075,0.48270,-2.10184,0.04843,1.57080,-3.01912,-0.09677,-0.44240,0.38981,,
3.4710,1,DESCENDING,0.0000,1.35075,0.48270,-2.10184,0.04843,1.57080,-3.01912,-0.09677,-0.44240,0.38981,,
3.4714,1,DESCENDING,0.0000,1.35075,0.48270,-2.10184,0.04843,1.57080,-3.01912,-0.09677,-0.44240,0.38981,,
3.4717,1,DESCENDING,0.0000,1.35075,0.48270,-2.10184,0.04843,1.57080,-3.01912,-0.09677,-0.44240,0.38981,,
3.4721,1,DESCENDING,0.0000,1.35075,0.48270,-2.10184,0.04843,1.57080,-3.01912,-0.09677,-0.44240,0.38981,,
3.4725,1,DESCENDING,0.0000,1.35075,0.48270,-2.10184,0.04843,1.57080,-3.01912,-0.09677,-0.44240,0.38981,,
3.4731,1,DESCENDING,0.0000,1.35075,0.48270,-2.10186,0.04844,1.57080,-3.01912,-0.09677,-0.44240,0.38980,,
3.4736,1,DESCENDING,0.0000,1.35075,0.48270,-2.10186,0.04844,1.57080,-3.01912,-0.09677,-0.44240,0.38980,,
3.4740,1,DESCENDING,0.0000,1.35075,0.48270,-2.10186,0.04844,1.57080,-3.01912,-0.09677,-0.44240,0.38980,,
3.4745,1,DESCENDING,0.0000,1.35075,0.48270,-2.10186,0.04844,1.57080,-3.01912,-0.09677,-0.44240,0.38980,,
3.4749,1,DESCENDING,0.0000,1.35075,0.48270,-2.10186,0.04844,1.57080,-3.01912,-0.09677,-0.44240,0.38980,,
3.4759,1,DESCENDING,0.0000,1.35075,0.48270,-2.10186,0.04844,1.57080,-3.01912,-0.09677,-0.44240,0.38980,,
3.5730,1,DESCENDING,0.0000,1.35075,0.48269,-2.10207,0.04867,1.57080,-3.01912,-0.09677,-0.44240,0.38967,,
3.5734,1,DESCENDING,0.0000,1.35075,0.48269,-2.10207,0.04867,1.57080,-3.01912,-0.09677,-0.44240,0.38967,,
3.5738,1,DESCENDING,0.0000,1.35075,0.48269,-2.10207,0.04867,1.57080,-3.01912,-0.09677,-0.44240,0.38967,,
3.6762,1,DESCENDING,0.0000,1.35075,0.48268,-2.10230,0.04890,1.57080,-3.01912,-0.09677,-0.44240,0.38954,,
3.6767,1,DESCENDING,0.0000,1.35075,0.48268,-2.10230,0.04890,1.57080,-3.01912,-0.09677,-0.44240,0.38954,,
3.6775,1,DESCENDING,0.0000,1.35075,0.48268,-2.10230,0.04891,1.57080,-3.01912,-0.09677,-0.44240,0.38954,,
3.6833,1,DESCENDING,0.0000,1.35075,0.48268,-2.10231,0.04892,1.57080,-3.01912,-0.09677,-0.44240,0.38953,,
3.6837,1,DESCENDING,0.0000,1.35075,0.48268,-2.10231,0.04892,1.57080,-3.01912,-0.09677,-0.44240,0.38953,,
3.6840,1,DESCENDING,0.0000,1.35075,0.48268,-2.10231,0.04892,1.57080,-3.01912,-0.09677,-0.44240,0.38953,,
3.6844,1,DESCENDING,0.0000,1.35075,0.48268,-2.10231,0.04892,1.57080,-3.01912,-0.09677,-0.44240,0.38953,,
3.6848,1,DESCENDING,0.0000,1.35075,0.48268,-2.10231,0.04892,1.57080,-3.01912,-0.09677,-0.44240,0.38953,,
3.6852,1,DESCENDING,0.0000,1.35075,0.48268,-2.10231,0.04892,1.57080,-3.01912,-0.09677,-0.44240,0.38953,,
3.7785,1,DESCENDING,0.0000,1.35075,0.48266,-2.10252,0.04915,1.57080,-3.01912,-0.09677,-0.44240,0.38941,,
3.7790,1,DESCENDING,0.0000,1.35075,0.48266,-2.10254,0.04916,1.57080,-3.01912,-0.09677,-0.44240,0.38940,,
3.7794,1,DESCENDING,0.0000,1.35075,0.48266,-2.10254,0.04916,1.57080,-3.01912,-0.09677,-0.44240,0.38940,,
3.7798,1,DESCENDING,0.0000,1.35075,0.48266,-2.10254,0.04916,1.57080,-3.01912,-0.09677,-0.44240,0.38940,,
3.7802,1,DESCENDING,0.0000,1.35075,0.48266,-2.10254,0.04916,1.57080,-3.01912,-0.09677,-0.44240,0.38940,,
3.7807,1,DESCENDING,0.0000,1.35075,0.48266,-2.10254,0.04916,1.57080,-3.01912,-0.09677,-0.44240,0.38940,,
3.7809,1,DESCENDING,0.0000,1.35075,0.48266,-2.10254,0.04916,1.57080,-3.01912,-0.09677,-0.44240,0.38940,,
3.7814,1,DESCENDING,0.0000,1.35075,0.48266,-2.10256,0.04918,1.57080,-3.01912,-0.09677,-0.44240,0.38939,,
3.7816,1,DESCENDING,0.0000,1.35075,0.48266,-2.10256,0.04918,1.57080,-3.01912,-0.09677,-0.44240,0.38939,,
3.8818,1,DESCENDING,0.0000,1.35075,0.48265,-2.10275,0.04938,1.57080,-3.01912,-0.09677,-0.44240,0.38928,,
3.8822,1,DESCENDING,0.0000,1.35075,0.48265,-2.10275,0.04938,1.57080,-3.01912,-0.09677,-0.44240,0.38928,,
3.8825,1,DESCENDING,0.0000,1.35075,0.48265,-2.10275,0.04938,1.57080,-3.01912,-0.09677,-0.44240,0.38928,,
3.8828,1,DESCENDING,0.0000,1.35075,0.48265,-2.10275,0.04938,1.57080,-3.01912,-0.09677,-0.44240,0.38928,,
3.8833,1,DESCENDING,0.0000,1.35075,0.48265,-2.10275,0.04938,1.57080,-3.01912,-0.09677,-0.44240,0.38928,,
3.8836,1,DESCENDING,0.0000,1.35075,0.48265,-2.10275,0.04938,1.57080,-3.01912,-0.09677,-0.44240,0.38928,,
3.8841,1,DESCENDING,0.0000,1.35075,0.48265,-2.10275,0.04938,1.57080,-3.01912,-0.09677,-0.44240,0.38928,,
3.8845,1,DESCENDING,0.0000,1.35075,0.48265,-2.10275,0.04938,1.57080,-3.01912,-0.09677,-0.44240,0.38928,,
3.8848,1,DESCENDING,0.0000,1.35075,0.48265,-2.10275,0.04938,1.57080,-3.01912,-0.09677,-0.44240,0.38928,,
3.9823,1,DESCENDING,0.0000,1.35075,0.48264,-2.10298,0.04963,1.57080,-3.01912,-0.09677,-0.44240,0.38914,,
3.9829,1,DESCENDING,0.0000,1.35075,0.48264,-2.10298,0.04963,1.57080,-3.01912,-0.09677,-0.44240,0.38914,,
3.9831,1,DESCENDING,0.0000,1.35075,0.48264,-2.10298,0.04963,1.57080,-3.01912,-0.09677,-0.44240,0.38914,,
3.9834,1,DESCENDING,0.0000,1.35075,0.48264,-2.10298,0.04963,1.57080,-3.01912,-0.09677,-0.44240,0.38914,,
3.9838,1,DESCENDING,0.0000,1.35075,0.48264,-2.10298,0.04963,1.57080,-3.01912,-0.09677,-0.44240,0.38914,,
3.9843,1,DESCENDING,0.0000,1.35075,0.48264,-2.10298,0.04963,1.57080,-3.01912,-0.09677,-0.44240,0.38914,,
3.9845,1,DESCENDING,0.0000,1.35075,0.48264,-2.10298,0.04963,1.57080,-3.01912,-0.09677,-0.44240,0.38914,,
3.9848,1,DESCENDING,0.0000,1.35075,0.48264,-2.10298,0.04963,1.57080,-3.01912,-0.09677,-0.44240,0.38914,,
3.9854,1,DESCENDING,0.0000,1.35075,0.48264,-2.10299,0.04964,1.57080,-3.01912,-0.09677,-0.44240,0.38914,,
3.9856,1,DESCENDING,0.0000,1.35075,0.48264,-2.10299,0.04964,1.57080,-3.01912,-0.09677,-0.44240,0.38914,,
3.9859,1,DESCENDING,0.0000,1.35075,0.48264,-2.10299,0.04964,1.57080,-3.01912,-0.09677,-0.44240,0.38914,,
4.0848,1,DESCENDING,0.0000,1.35075,0.48263,-2.10322,0.04988,1.57080,-3.01912,-0.09677,-0.44240,0.38900,,
4.0852,1,DESCENDING,0.0000,1.35075,0.48263,-2.10322,0.04988,1.57080,-3.01912,-0.09677,-0.44240,0.38900,,
4.0855,1,DESCENDING,0.0000,1.35075,0.48263,-2.10322,0.04988,1.57080,-3.01912,-0.09677,-0.44240,0.38900,,
4.0858,1,DESCENDING,0.0000,1.35075,0.48263,-2.10322,0.04988,1.57080,-3.01912,-0.09677,-0.44240,0.38900,,
4.0860,1,DESCENDING,0.0000,1.35075,0.48263,-2.10322,0.04988,1.57080,-3.01912,-0.09677,-0.44240,0.38900,,
4.0864,1,DESCENDING,0.0000,1.35075,0.48263,-2.10322,0.04988,1.57080,-3.01912,-0.09677,-0.44240,0.38900,,
4.0866,1,DESCENDING,0.0000,1.35075,0.48263,-2.10322,0.04988,1.57080,-3.01912,-0.09677,-0.44240,0.38900,,
4.0870,1,DESCENDING,0.0000,1.35075,0.48263,-2.10322,0.04988,1.57080,-3.01912,-0.09677,-0.44240,0.38900,,
4.0874,1,DESCENDING,0.0000,1.35075,0.48263,-2.10322,0.04988,1.57080,-3.01912,-0.09677,-0.44240,0.38900,,
4.1871,1,DESCENDING,0.0000,1.35075,0.48261,-2.10344,0.05011,1.57080,-3.01912,-0.09677,-0.44240,0.38888,,
4.1875,1,DESCENDING,0.0000,1.35075,0.48261,-2.10344,0.05011,1.57080,-3.01912,-0.09677,-0.44240,0.38888,,
4.1880,1,DESCENDING,0.0000,1.35075,0.48261,-2.10344,0.05011,1.57080,-3.01912,-0.09677,-0.44240,0.38888,,
4.1884,1,DESCENDING,0.0000,1.35075,0.48261,-2.10344,0.05011,1.57080,-3.01912,-0.09677,-0.44240,0.38888,,
4.1886,1,DESCENDING,0.0000,1.35075,0.48261,-2.10344,0.05011,1.57080,-3.01912,-0.09677,-0.44240,0.38888,,
4.1890,1,DESCENDING,0.0000,1.35075,0.48261,-2.10344,0.05011,1.57080,-3.01912,-0.09677,-0.44240,0.38888,,
4.1895,1,DESCENDING,0.0000,1.35075,0.48261,-2.10346,0.05013,1.57080,-3.01912,-0.09677,-0.44240,0.38887,,
4.1900,1,DESCENDING,0.0000,1.35075,0.48261,-2.10346,0.05013,1.57080,-3.01912,-0.09677,-0.44240,0.38887,,
4.1903,1,DESCENDING,0.0000,1.35075,0.48261,-2.10346,0.05013,1.57080,-3.01912,-0.09677,-0.44240,0.38887,,
4.1907,1,DESCENDING,0.0000,1.35075,0.48261,-2.10346,0.05013,1.57080,-3.01912,-0.09677,-0.44240,0.38887,,
4.1921,1,DESCENDING,0.0000,1.35075,0.48261,-2.10346,0.05013,1.57080,-3.01912,-0.09677,-0.44240,0.38887,,
4.1926,1,DESCENDING,0.0000,1.35075,0.48261,-2.10346,0.05013,1.57080,-3.01912,-0.09677,-0.44240,0.38887,,
4.1945,1,DESCENDING,0.0000,1.35075,0.48261,-2.10347,0.05014,1.57080,-3.01912,-0.09677,-0.44240,0.38886,,
4.1949,1,DESCENDING,0.0000,1.35075,0.48261,-2.10347,0.05014,1.57080,-3.01912,-0.09677,-0.44240,0.38886,,
4.1952,1,DESCENDING,0.0000,1.35075,0.48261,-2.10347,0.05014,1.57080,-3.01912,-0.09677,-0.44240,0.38886,,
4.1955,1,DESCENDING,0.0000,1.35075,0.48261,-2.10347,0.05014,1.57080,-3.01912,-0.09677,-0.44240,0.38886,,
4.2898,1,DESCENDING,0.0000,1.35075,0.48260,-2.10371,0.05040,1.57080,-3.01912,-0.09677,-0.44240,0.38872,,
4.2904,1,DESCENDING,0.0000,1.35075,0.48260,-2.10371,0.05040,1.57080,-3.01912,-0.09677,-0.44240,0.38872,,
4.2908,1,DESCENDING,0.0000,1.35075,0.48260,-2.10371,0.05040,1.57080,-3.01912,-0.09677,-0.44240,0.38872,,
4.2913,1,DESCENDING,0.0000,1.35075,0.48260,-2.10371,0.05040,1.57080,-3.01912,-0.09677,-0.44240,0.38872,,
4.3920,1,DESCENDING,0.0000,1.35075,0.48259,-2.10391,0.05061,1.57080,-3.01912,-0.09677,-0.44240,0.38860,,
4.3925,1,DESCENDING,0.0000,1.35075,0.48259,-2.10391,0.05061,1.57080,-3.01912,-0.09677,-0.44240,0.38860,,
4.3928,1,DESCENDING,0.0000,1.35075,0.48259,-2.10391,0.05061,1.57080,-3.01912,-0.09677,-0.44240,0.38860,,
4.3936,1,DESCENDING,0.0000,1.35075,0.48259,-2.10392,0.05062,1.57080,-3.01912,-0.09677,-0.44240,0.38860,,
4.3940,1,DESCENDING,0.0000,1.35075,0.48259,-2.10392,0.05062,1.57080,-3.01912,-0.09677,-0.44240,0.38860,,
4.3942,1,DESCENDING,0.0000,1.35075,0.48259,-2.10392,0.05062,1.57080,-3.01912,-0.09677,-0.44240,0.38860,,
4.3947,1,DESCENDING,0.0000,1.35075,0.48259,-2.10392,0.05062,1.57080,-3.01912,-0.09677,-0.44240,0.38860,,
4.3952,1,DESCENDING,0.0000,1.35075,0.48259,-2.10392,0.05062,1.57080,-3.01912,-0.09677,-0.44240,0.38860,,
4.3954,1,DESCENDING,0.0000,1.35075,0.48259,-2.10392,0.05062,1.57080,-3.01912,-0.09677,-0.44240,0.38860,,
4.3959,1,DESCENDING,0.0000,1.35075,0.48259,-2.10392,0.05062,1.57080,-3.01912,-0.09677,-0.44240,0.38860,,
4.3962,1,DESCENDING,0.0000,1.35075,0.48259,-2.10392,0.05062,1.57080,-3.01912,-0.09677,-0.44240,0.38860,,
4.4944,1,DESCENDING,0.0000,1.35075,0.48257,-2.10415,0.05086,1.57080,-3.01912,-0.09677,-0.44240,0.38846,,
4.4947,1,DESCENDING,0.0000,1.35075,0.48257,-2.10415,0.05086,1.57080,-3.01912,-0.09677,-0.44240,0.38846,,
4.4950,1,DESCENDING,0.0000,1.35075,0.48257,-2.10415,0.05086,1.57080,-3.01912,-0.09677,-0.44240,0.38846,,
4.4954,1,DESCENDING,0.0000,1.35075,0.48257,-2.10415,0.05086,1.57080,-3.01912,-0.09677,-0.44240,0.38846,,
4.4957,1,DESCENDING,0.0000,1.35075,0.48257,-2.10415,0.05086,1.57080,-3.01912,-0.09677,-0.44240,0.38846,,
4.4961,1,DESCENDING,0.0000,1.35075,0.48257,-2.10415,0.05086,1.57080,-3.01912,-0.09677,-0.44240,0.38846,,
4.4964,1,DESCENDING,0.0000,1.35075,0.48257,-2.10415,0.05086,1.57080,-3.01912,-0.09677,-0.44240,0.38846,,
4.4967,1,DESCENDING,0.0000,1.35075,0.48257,-2.10415,0.05086,1.57080,-3.01912,-0.09677,-0.44240,0.38846,,
4.4971,1,DESCENDING,0.0000,1.35075,0.48257,-2.10415,0.05086,1.57080,-3.01912,-0.09677,-0.44240,0.38846,,
4.6096,1,DESCENDING,0.0000,1.35075,0.48256,-2.10441,0.05114,1.57080,-3.01912,-0.09677,-0.44240,0.38831,,
4.6105,1,DESCENDING,0.0000,1.35075,0.48256,-2.10441,0.05114,1.57080,-3.01912,-0.09677,-0.44240,0.38831,,
4.6107,1,DESCENDING,0.0000,1.35075,0.48256,-2.10441,0.05114,1.57080,-3.01912,-0.09677,-0.44240,0.38831,,
4.6112,1,DESCENDING,0.0000,1.35075,0.48256,-2.10441,0.05114,1.57080,-3.01912,-0.09677,-0.44240,0.38831,,
4.6116,1,DESCENDING,0.0000,1.35075,0.48256,-2.10441,0.05114,1.57080,-3.01912,-0.09677,-0.44240,0.38831,,
4.6118,1,DESCENDING,0.0000,1.35075,0.48256,-2.10441,0.05114,1.57080,-3.01912,-0.09677,-0.44240,0.38831,,
4.7399,1,DESCENDING,0.0000,1.35075,0.48254,-2.10471,0.05145,1.57080,-3.01912,-0.09677,-0.44240,0.38814,,
4.7408,1,DESCENDING,0.0000,1.35075,0.48254,-2.10471,0.05145,1.57080,-3.01912,-0.09677,-0.44240,0.38814,,
4.7422,1,DESCENDING,0.0000,1.35075,0.48254,-2.10473,0.05147,1.57080,-3.01912,-0.09677,-0.44240,0.38813,,
4.7428,1,DESCENDING,0.0000,1.35075,0.48254,-2.10473,0.05147,1.57080,-3.01912,-0.09677,-0.44240,0.38813,,
4.7432,1,DESCENDING,0.0000,1.35075,0.48254,-2.10473,0.05147,1.57080,-3.01912,-0.09677,-0.44240,0.38813,,
4.7435,1,DESCENDING,0.0000,1.35075,0.48254,-2.10473,0.05147,1.57080,-3.01912,-0.09677,-0.44240,0.38813,,
4.7438,1,DESCENDING,0.0000,1.35075,0.48254,-2.10473,0.05147,1.57080,-3.01912,-0.09677,-0.44240,0.38813,,
4.7441,1,DESCENDING,0.0000,1.35075,0.48254,-2.10473,0.05147,1.57080,-3.01912,-0.09677,-0.44240,0.38813,,
4.7491,1,DESCENDING,0.0000,1.35075,0.48254,-2.10474,0.05149,1.57080,-3.01912,-0.09677,-0.44240,0.38812,,
4.7501,1,DESCENDING,0.0000,1.35075,0.48254,-2.10474,0.05149,1.57080,-3.01912,-0.09677,-0.44240,0.38812,,
4.7511,1,DESCENDING,0.0000,1.35075,0.48254,-2.10474,0.05149,1.57080,-3.01912,-0.09677,-0.44240,0.38812,,
4.7537,1,DESCENDING,0.0000,1.35075,0.48254,-2.10474,0.05149,1.57080,-3.01912,-0.09677,-0.44240,0.38812,,
4.7559,1,DESCENDING,0.0000,1.35075,0.48254,-2.10474,0.05149,1.57080,-3.01912,-0.09677,-0.44240,0.38812,,
4.8026,1,DESCENDING,0.0000,1.35075,0.48253,-2.10486,0.05161,1.57080,-3.01912,-0.09677,-0.44240,0.38805,,
4.8029,1,DESCENDING,0.0000,1.35075,0.48253,-2.10486,0.05161,1.57080,-3.01912,-0.09677,-0.44240,0.38805,,
4.8033,1,DESCENDING,0.0000,1.35075,0.48253,-2.10486,0.05161,1.57080,-3.01912,-0.09677,-0.44240,0.38805,,
4.8041,1,DESCENDING,0.0000,1.35075,0.48253,-2.10486,0.05161,1.57080,-3.01912,-0.09677,-0.44240,0.38805,,
4.8046,1,DESCENDING,0.0000,1.35075,0.48253,-2.10486,0.05161,1.57080,-3.01912,-0.09677,-0.44240,0.38805,,
4.8050,1,DESCENDING,0.0000,1.35075,0.48253,-2.10486,0.05161,1.57080,-3.01912,-0.09677,-0.44240,0.38805,,
4.8057,1,DESCENDING,0.0000,1.35075,0.48253,-2.10487,0.05163,1.57080,-3.01912,-0.09677,-0.44240,0.38804,,
4.8062,1,DESCENDING,0.0000,1.35075,0.48253,-2.10487,0.05163,1.57080,-3.01912,-0.09677,-0.44240,0.38804,,
4.8066,1,DESCENDING,0.0000,1.35075,0.48253,-2.10487,0.05163,1.57080,-3.01912,-0.09677,-0.44240,0.38804,,
4.8071,1,DESCENDING,0.0000,1.35075,0.48253,-2.10487,0.05163,1.57080,-3.01912,-0.09677,-0.44240,0.38804,,
4.8075,1,DESCENDING,0.0000,1.35075,0.48253,-2.10487,0.05163,1.57080,-3.01912,-0.09677,-0.44240,0.38804,,
4.8086,1,DESCENDING,0.0000,1.35075,0.48253,-2.10487,0.05163,1.57080,-3.01912,-0.09677,-0.44240,0.38804,,
4.8095,1,DESCENDING,0.0000,1.35075,0.48253,-2.10487,0.05163,1.57080,-3.01912,-0.09677,-0.44240,0.38804,,
4.8099,1,DESCENDING,0.0000,1.35075,0.48253,-2.10487,0.05163,1.57080,-3.01912,-0.09677,-0.44240,0.38804,,
4.8103,1,DESCENDING,0.0000,1.35075,0.48253,-2.10487,0.05163,1.57080,-3.01912,-0.09677,-0.44240,0.38804,,
4.9046,1,DESCENDING,0.0000,1.35075,0.48252,-2.10506,0.05183,1.57080,-3.01912,-0.09677,-0.44240,0.38793,,
4.9050,1,DESCENDING,0.0000,1.35075,0.48252,-2.10506,0.05183,1.57080,-3.01912,-0.09677,-0.44240,0.38793,,
4.9055,1,DESCENDING,0.0000,1.35075,0.48252,-2.10507,0.05183,1.57080,-3.01912,-0.09677,-0.44240,0.38793,,
4.9057,1,DESCENDING,0.0000,1.35075,0.48252,-2.10507,0.05183,1.57080,-3.01912,-0.09677,-0.44240,0.38793,,
4.9062,1,DESCENDING,0.0000,1.35075,0.48252,-2.10507,0.05183,1.57080,-3.01912,-0.09677,-0.44240,0.38793,,
4.9072,1,DESCENDING,0.0000,1.35075,0.48252,-2.10507,0.05183,1.57080,-3.01912,-0.09677,-0.44240,0.38793,,
4.9079,1,DESCENDING,0.0000,1.35075,0.48252,-2.10507,0.05183,1.57080,-3.01912,-0.09677,-0.44240,0.38793,,
4.9084,1,DESCENDING,0.0000,1.35075,0.48252,-2.10507,0.05183,1.57080,-3.01912,-0.09677,-0.44240,0.38793,,
5.0071,1,DESCENDING,0.0000,1.35075,0.48251,-2.10529,0.05207,1.57080,-3.01912,-0.09677,-0.44240,0.38780,,
5.0078,1,DESCENDING,0.0000,1.35075,0.48251,-2.10529,0.05207,1.57080,-3.01912,-0.09677,-0.44240,0.38780,,
5.0082,1,DESCENDING,0.0000,1.35075,0.48251,-2.10529,0.05207,1.57080,-3.01912,-0.09677,-0.44240,0.38780,,
5.0085,1,DESCENDING,0.0000,1.35075,0.48251,-2.10529,0.05207,1.57080,-3.01912,-0.09677,-0.44240,0.38780,,
5.0088,1,DESCENDING,0.0000,1.35075,0.48251,-2.10529,0.05207,1.57080,-3.01912,-0.09677,-0.44240,0.38780,,
5.0091,1,DESCENDING,0.0000,1.35075,0.48251,-2.10529,0.05207,1.57080,-3.01912,-0.09677,-0.44240,0.38780,,
5.0093,1,DESCENDING,0.0000,1.35075,0.48251,-2.10529,0.05207,1.57080,-3.01912,-0.09677,-0.44240,0.38780,,
5.1090,1,DESCENDING,0.0000,1.35075,0.48249,-2.10553,0.05232,1.57080,-3.01912,-0.09677,-0.44240,0.38766,,
5.1097,1,DESCENDING,0.0000,1.35075,0.48249,-2.10553,0.05232,1.57080,-3.01912,-0.09677,-0.44240,0.38766,,
5.1102,1,DESCENDING,0.0000,1.35075,0.48249,-2.10553,0.05232,1.57080,-3.01912,-0.09677,-0.44240,0.38766,,
5.1106,1,DESCENDING,0.0000,1.35075,0.48249,-2.10553,0.05232,1.57080,-3.01912,-0.09677,-0.44240,0.38766,,
5.1111,1,DESCENDING,0.0000,1.35075,0.48249,-2.10553,0.05232,1.57080,-3.01912,-0.09677,-0.44240,0.38766,,
5.1116,1,DESCENDING,0.0000,1.35075,0.48249,-2.10553,0.05232,1.57080,-3.01912,-0.09677,-0.44240,0.38766,,
5.1120,1,DESCENDING,0.0000,1.35075,0.48249,-2.10553,0.05232,1.57080,-3.01912,-0.09677,-0.44240,0.38766,,
5.1124,1,DESCENDING,0.0000,1.35075,0.48249,-2.10553,0.05232,1.57080,-3.01912,-0.09677,-0.44240,0.38766,,
5.1128,1,DESCENDING,0.0000,1.35075,0.48249,-2.10553,0.05232,1.57080,-3.01912,-0.09677,-0.44240,0.38766,,
5.2111,1,DESCENDING,0.0000,1.35075,0.48248,-2.10575,0.05255,1.57080,-3.01912,-0.09677,-0.44240,0.38753,,
5.2116,1,DESCENDING,0.0000,1.35075,0.48248,-2.10575,0.05255,1.57080,-3.01912,-0.09677,-0.44240,0.38753,,
5.2119,1,DESCENDING,0.0000,1.35075,0.48248,-2.10575,0.05255,1.57080,-3.01912,-0.09677,-0.44240,0.38753,,
5.2125,1,DESCENDING,0.0000,1.35075,0.48248,-2.10575,0.05255,1.57080,-3.01912,-0.09677,-0.44240,0.38753,,
5.2153,1,DESCENDING,0.0000,1.35075,0.48248,-2.10576,0.05257,1.57080,-3.01912,-0.09677,-0.44240,0.38752,,
5.2158,1,DESCENDING,0.0000,1.35075,0.48248,-2.10576,0.05257,1.57080,-3.01912,-0.09677,-0.44240,0.38752,,
5.2163,1,DESCENDING,0.0000,1.35075,0.48248,-2.10576,0.05257,1.57080,-3.01912,-0.09677,-0.44240,0.38752,,
5.2167,1,DESCENDING,0.0000,1.35075,0.48248,-2.10576,0.05257,1.57080,-3.01912,-0.09677,-0.44240,0.38752,,
5.3137,1,DESCENDING,0.0000,1.35075,0.48247,-2.10602,0.05284,1.57080,-3.01912,-0.09677,-0.44240,0.38737,,
5.3141,1,DESCENDING,0.0000,1.35075,0.48247,-2.10602,0.05284,1.57080,-3.01912,-0.09677,-0.44240,0.38737,,
5.3144,1,DESCENDING,0.0000,1.35075,0.48247,-2.10602,0.05284,1.57080,-3.01912,-0.09677,-0.44240,0.38737,,
5.3148,1,DESCENDING,0.0000,1.35075,0.48247,-2.10602,0.05284,1.57080,-3.01912,-0.09677,-0.44240,0.38737,,
5.3152,1,DESCENDING,0.0000,1.35075,0.48247,-2.10602,0.05284,1.57080,-3.01912,-0.09677,-0.44240,0.38737,,
5.3154,1,DESCENDING,0.0000,1.35075,0.48247,-2.10602,0.05284,1.57080,-3.01912,-0.09677,-0.44240,0.38737,,
5.3158,1,DESCENDING,0.0000,1.35075,0.48247,-2.10602,0.05284,1.57080,-3.01912,-0.09677,-0.44240,0.38737,,
5.3164,1,DESCENDING,0.0000,1.35075,0.48247,-2.10602,0.05284,1.57080,-3.01912,-0.09677,-0.44240,0.38737,,
5.3168,1,DESCENDING,0.0000,1.35075,0.48247,-2.10602,0.05284,1.57080,-3.01912,-0.09677,-0.44240,0.38737,,
5.4161,1,DESCENDING,0.0000,1.35075,0.48245,-2.10625,0.05308,1.57080,-3.01912,-0.09677,-0.44240,0.38724,,
5.4166,1,DESCENDING,0.0000,1.35075,0.48245,-2.10625,0.05308,1.57080,-3.01912,-0.09677,-0.44240,0.38724,,
5.4168,1,DESCENDING,0.0000,1.35075,0.48245,-2.10625,0.05308,1.57080,-3.01912,-0.09677,-0.44240,0.38724,,
5.4171,1,DESCENDING,0.0000,1.35075,0.48245,-2.10625,0.05308,1.57080,-3.01912,-0.09677,-0.44240,0.38724,,
5.4177,1,DESCENDING,0.0000,1.35075,0.48245,-2.10626,0.05309,1.57080,-3.01912,-0.09677,-0.44240,0.38723,,
5.4182,1,DESCENDING,0.0000,1.35075,0.48245,-2.10626,0.05309,1.57080,-3.01912,-0.09677,-0.44240,0.38723,,
5.4186,1,DESCENDING,0.0000,1.35075,0.48245,-2.10626,0.05309,1.57080,-3.01912,-0.09677,-0.44240,0.38723,,
5.4189,1,DESCENDING,0.0000,1.35075,0.48245,-2.10626,0.05309,1.57080,-3.01912,-0.09677,-0.44240,0.38723,,
5.4194,1,DESCENDING,0.0000,1.35075,0.48245,-2.10626,0.05309,1.57080,-3.01912,-0.09677,-0.44240,0.38723,,
5.4197,1,DESCENDING,0.0000,1.35075,0.48245,-2.10626,0.05309,1.57080,-3.01912,-0.09677,-0.44240,0.38723,,
5.4360,1,DESCENDING,0.0000,1.35075,0.48245,-2.10631,0.05315,1.57080,-3.01912,-0.09677,-0.44240,0.38720,,
5.4410,1,DESCENDING,0.0000,1.35075,0.48245,-2.10631,0.05315,1.57080,-3.01912,-0.09677,-0.44240,0.38720,,
5.4421,1,DESCENDING,0.0000,1.35075,0.48245,-2.10631,0.05315,1.57080,-3.01912,-0.09677,-0.44240,0.38720,,
5.4466,1,DESCENDING,0.0000,1.35075,0.48245,-2.10632,0.05316,1.57080,-3.01912,-0.09677,-0.44240,0.38720,,
5.4587,1,DESCENDING,0.0000,1.35075,0.48245,-2.10636,0.05320,1.57080,-3.01912,-0.09677,-0.44240,0.38717,,
5.4679,1,DESCENDING,0.0000,1.35075,0.48244,-2.10639,0.05323,1.57080,-3.01912,-0.09677,-0.44240,0.38715,,
5.4803,1,DESCENDING,0.0000,1.35075,0.48244,-2.10640,0.05324,1.57080,-3.01912,-0.09677,-0.44240,0.38715,,
5.4855,1,DESCENDING,0.0000,1.35075,0.48244,-2.10642,0.05327,1.57080,-3.01912,-0.09677,-0.44240,0.38713,,
5.4998,1,DESCENDING,0.0000,1.35075,0.48244,-2.10646,0.05330,1.57080,-3.01912,-0.09677,-0.44240,0.38712,,
5.5063,1,DESCENDING,0.0000,1.35075,0.48244,-2.10647,0.05331,1.57080,-3.01912,-0.09677,-0.44240,0.38711,,
5.5319,1,DESCENDING,0.0000,1.35075,0.48244,-2.10654,0.05339,1.57080,-3.01912,-0.09677,-0.44240,0.38707,,
5.5361,1,DESCENDING,0.0000,1.35075,0.48244,-2.10654,0.05339,1.57080,-3.01912,-0.09677,-0.44240,0.38707,,
5.5370,1,DESCENDING,0.0000,1.35075,0.48244,-2.10654,0.05339,1.57080,-3.01912,-0.09677,-0.44240,0.38707,,
5.5434,1,DESCENDING,0.0000,1.35075,0.48243,-2.10656,0.05341,1.57080,-3.01912,-0.09677,-0.44240,0.38706,,
5.5666,1,DESCENDING,0.0000,1.35075,0.48243,-2.10662,0.05347,1.57080,-3.01912,-0.09677,-0.44240,0.38702,,
5.5670,1,DESCENDING,0.0000,1.35075,0.48243,-2.10662,0.05347,1.57080,-3.01912,-0.09677,-0.44240,0.38702,,
5.6073,1,DESCENDING,0.0000,1.35075,0.48243,-2.10670,0.05356,1.57080,-3.01912,-0.09677,-0.44240,0.38697,,
5.6288,1,DESCENDING,0.0000,1.35075,0.48242,-2.10675,0.05361,1.57080,-3.01912,-0.09677,-0.44240,0.38694,,
5.6444,1,DESCENDING,0.0000,1.35075,0.48242,-2.10679,0.05365,1.57080,-3.01912,-0.09677,-0.44240,0.38692,,
5.6512,1,DESCENDING,0.0000,1.35075,0.48242,-2.10680,0.05367,1.57080,-3.01912,-0.09677,-0.44240,0.38691,,
5.6540,1,DESCENDING,0.0000,1.35075,0.48242,-2.10680,0.05367,1.57080,-3.01912,-0.09677,-0.44240,0.38691,,
5.6564,1,DESCENDING,0.0000,1.35075,0.48242,-2.10680,0.05367,1.57080,-3.01912,-0.09677,-0.44240,0.38691,,
5.6701,1,DESCENDING,0.0000,1.35075,0.48242,-2.10685,0.05372,1.57080,-3.01912,-0.09677,-0.44240,0.38689,,
5.6704,1,DESCENDING,0.0000,1.35075,0.48242,-2.10685,0.05372,1.57080,-3.01912,-0.09677,-0.44240,0.38689,,
5.6748,1,DESCENDING,0.0000,1.35075,0.48242,-2.10687,0.05374,1.57080,-3.01912,-0.09677,-0.44240,0.38688,,
5.6897,1,DESCENDING,0.0000,1.35075,0.48241,-2.10689,0.05376,1.57080,-3.01912,-0.09677,-0.44240,0.38686,,
5.6991,1,DESCENDING,0.0000,1.35075,0.48241,-2.10691,0.05378,1.57080,-3.01912,-0.09677,-0.44240,0.38685,,
5.7043,1,DESCENDING,0.0000,1.35075,0.48241,-2.10692,0.05379,1.57080,-3.01912,-0.09677,-0.44240,0.38684,,
5.7223,1,DESCENDING,0.0000,1.35075,0.48241,-2.10696,0.05383,1.57080,-3.01912,-0.09677,-0.44240,0.38682,,
5.7386,1,DESCENDING,0.0000,1.35075,0.48241,-2.10702,0.05389,1.57080,-3.01912,-0.09677,-0.44240,0.38679,,
5.7458,1,DESCENDING,0.0000,1.35075,0.48241,-2.10702,0.05390,1.57080,-3.01912,-0.09677,-0.44240,0.38679,,
5.7597,1,DESCENDING,0.0000,1.35075,0.48240,-2.10704,0.05392,1.57080,-3.01912,-0.09677,-0.44240,0.38677,,
5.7674,1,DESCENDING,0.0000,1.35075,0.48240,-2.10707,0.05395,1.57080,-3.01912,-0.09677,-0.44240,0.38676,,
5.7712,1,DESCENDING,0.0000,1.35075,0.48240,-2.10707,0.05395,1.57080,-3.01912,-0.09677,-0.44240,0.38676,,
5.7765,1,DESCENDING,0.0000,1.35075,0.48240,-2.10707,0.05395,1.57080,-3.01912,-0.09677,-0.44240,0.38676,,
5.7825,1,DESCENDING,0.0000,1.35075,0.48240,-2.10709,0.05397,1.57080,-3.01912,-0.09677,-0.44240,0.38675,,
5.8135,1,DESCENDING,0.0000,1.35075,0.48240,-2.10716,0.05405,1.57080,-3.01912,-0.09677,-0.44240,0.38670,,
5.8143,1,DESCENDING,0.0000,1.35075,0.48240,-2.10716,0.05405,1.57080,-3.01912,-0.09677,-0.44240,0.38670,,
5.8363,1,DESCENDING,0.0000,1.35075,0.48240,-2.10720,0.05409,1.57080,-3.01912,-0.09677,-0.44240,0.38668,,
5.8553,1,DESCENDING,0.0000,1.35075,0.48239,-2.10727,0.05416,1.57080,-3.01912,-0.09677,-0.44240,0.38664,,
5.8563,1,DESCENDING,0.0000,1.35075,0.48239,-2.10727,0.05416,1.57080,-3.01912,-0.09677,-0.44240,0.38664,,
5.8741,1,DESCENDING,0.0000,1.35075,0.48239,-2.10730,0.05420,1.57080,-3.01912,-0.09677,-0.44240,0.38662,,
5.8746,1,DESCENDING,0.0000,1.35075,0.48239,-2.10730,0.05420,1.57080,-3.01912,-0.09677,-0.44240,0.38662,,
5.8868,1,DESCENDING,0.0000,1.35075,0.48239,-2.10735,0.05425,1.57080,-3.01912,-0.09677,-0.44240,0.38660,,
5.9040,1,DESCENDING,0.0000,1.35075,0.48239,-2.10737,0.05427,1.57080,-3.01912,-0.09677,-0.44240,0.38658,,
5.9146,1,DESCENDING,0.0000,1.35075,0.48238,-2.10741,0.05431,1.57080,-3.01912,-0.09677,-0.44240,0.38656,,
5.9176,1,DESCENDING,0.0000,1.35075,0.48238,-2.10743,0.05433,1.57080,-3.01912,-0.09677,-0.44240,0.38655,,
5.9471,1,DESCENDING,0.0000,1.35075,0.48238,-2.10749,0.05440,1.57080,-3.01912,-0.09677,-0.44240,0.38651,,
5.9498,1,DESCENDING,0.0000,1.35075,0.48238,-2.10749,0.05440,1.57080,-3.01912,-0.09677,-0.44240,0.38651,,
5.9575,1,DESCENDING,0.0000,1.35075,0.48238,-2.10750,0.05441,1.57080,-3.01912,-0.09677,-0.44240,0.38650,,
6.0305,1,DESCENDING,0.0000,1.35075,0.48237,-2.10768,0.05460,1.57080,-3.01912,-0.09677,-0.44240,0.38640,,
6.0309,1,DESCENDING,0.0000,1.35075,0.48237,-2.10768,0.05460,1.57080,-3.01912,-0.09677,-0.44240,0.38640,,
6.0311,1,DESCENDING,0.0000,1.35075,0.48237,-2.10768,0.05460,1.57080,-3.01912,-0.09677,-0.44240,0.38640,,
6.0314,1,DESCENDING,0.0000,1.35075,0.48237,-2.10768,0.05460,1.57080,-3.01912,-0.09677,-0.44240,0.38640,,
6.1327,1,DESCENDING,0.0000,1.35075,0.48235,-2.10792,0.05485,1.57080,-3.01912,-0.09677,-0.44240,0.38626,,
6.1332,1,DESCENDING,0.0000,1.35075,0.48235,-2.10792,0.05485,1.57080,-3.01912,-0.09677,-0.44240,0.38626,,
6.1337,1,DESCENDING,0.0000,1.35075,0.48235,-2.10792,0.05485,1.57080,-3.01912,-0.09677,-0.44240,0.38626,,
6.1339,1,DESCENDING,0.0000,1.35075,0.48235,-2.10792,0.05485,1.57080,-3.01912,-0.09677,-0.44240,0.38626,,
6.1342,1,DESCENDING,0.0000,1.35075,0.48235,-2.10792,0.05485,1.57080,-3.01912,-0.09677,-0.44240,0.38626,,
6.1345,1,DESCENDING,0.0000,1.35075,0.48235,-2.10792,0.05485,1.57080,-3.01912,-0.09677,-0.44240,0.38626,,
6.1348,1,DESCENDING,0.0000,1.35075,0.48235,-2.10792,0.05485,1.57080,-3.01912,-0.09677,-0.44240,0.38626,,
6.1352,1,DESCENDING,0.0000,1.35075,0.48235,-2.10792,0.05485,1.57080,-3.01912,-0.09677,-0.44240,0.38626,,
6.1356,1,DESCENDING,0.0000,1.35075,0.48235,-2.10792,0.05485,1.57080,-3.01912,-0.09677,-0.44240,0.38626,,
6.1360,1,DESCENDING,0.0000,1.35075,0.48235,-2.10792,0.05485,1.57080,-3.01912,-0.09677,-0.44240,0.38626,,
6.1364,1,DESCENDING,0.0000,1.35075,0.48235,-2.10792,0.05485,1.57080,-3.01912,-0.09677,-0.44240,0.38626,,
6.1369,1,DESCENDING,0.0000,1.35075,0.48235,-2.10792,0.05485,1.57080,-3.01912,-0.09677,-0.44240,0.38626,,
6.2384,1,DESCENDING,0.0000,1.35075,0.48234,-2.10814,0.05509,1.57080,-3.01912,-0.09677,-0.44240,0.38613,,
6.2388,1,DESCENDING,0.0000,1.35075,0.48234,-2.10814,0.05509,1.57080,-3.01912,-0.09677,-0.44240,0.38613,,
6.2390,1,DESCENDING,0.0000,1.35075,0.48234,-2.10814,0.05509,1.57080,-3.01912,-0.09677,-0.44240,0.38613,,
6.2392,1,DESCENDING,0.0000,1.35075,0.48234,-2.10814,0.05509,1.57080,-3.01912,-0.09677,-0.44240,0.38613,,
6.2397,1,DESCENDING,0.0000,1.35075,0.48234,-2.10814,0.05509,1.57080,-3.01912,-0.09677,-0.44240,0.38613,,
6.3376,1,DESCENDING,0.0000,1.35075,0.48232,-2.10838,0.05535,1.57080,-3.01912,-0.09677,-0.44240,0.38599,,
6.3382,1,DESCENDING,0.0000,1.35075,0.48232,-2.10838,0.05535,1.57080,-3.01912,-0.09677,-0.44240,0.38599,,
6.3387,1,DESCENDING,0.0000,1.35075,0.48232,-2.10838,0.05535,1.57080,-3.01912,-0.09677,-0.44240,0.38599,,
6.3392,1,DESCENDING,0.0000,1.35075,0.48232,-2.10838,0.05535,1.57080,-3.01912,-0.09677,-0.44240,0.38599,,
6.3396,1,DESCENDING,0.0000,1.35075,0.48232,-2.10838,0.05535,1.57080,-3.01912,-0.09677,-0.44240,0.38599,,
6.3399,1,DESCENDING,0.0000,1.35075,0.48232,-2.10838,0.05535,1.57080,-3.01912,-0.09677,-0.44240,0.38599,,
6.3403,1,DESCENDING,0.0000,1.35075,0.48232,-2.10838,0.05535,1.57080,-3.01912,-0.09677,-0.44240,0.38599,,
6.4405,1,DESCENDING,0.0000,1.35075,0.48231,-2.10861,0.05559,1.57080,-3.01912,-0.09677,-0.44240,0.38586,,
6.4416,1,DESCENDING,0.0000,1.35075,0.48231,-2.10862,0.05560,1.57080,-3.01912,-0.09677,-0.44240,0.38585,,
6.4419,1,DESCENDING,0.0000,1.35075,0.48231,-2.10862,0.05560,1.57080,-3.01912,-0.09677,-0.44240,0.38585,,
6.4425,1,DESCENDING,0.0000,1.35075,0.48231,-2.10862,0.05560,1.57080,-3.01912,-0.09677,-0.44240,0.38585,,
6.4428,1,DESCENDING,0.0000,1.35075,0.48231,-2.10862,0.05560,1.57080,-3.01912,-0.09677,-0.44240,0.38585,,
6.4434,1,DESCENDING,0.0000,1.35075,0.48231,-2.10862,0.05560,1.57080,-3.01912,-0.09677,-0.44240,0.38585,,
6.4437,1,DESCENDING,0.0000,1.35075,0.48231,-2.10862,0.05560,1.57080,-3.01912,-0.09677,-0.44240,0.38585,,
6.4441,1,DESCENDING,0.0000,1.35075,0.48231,-2.10862,0.05560,1.57080,-3.01912,-0.09677,-0.44240,0.38585,,
6.4444,1,DESCENDING,0.0000,1.35075,0.48231,-2.10862,0.05560,1.57080,-3.01912,-0.09677,-0.44240,0.38585,,
6.4449,1,DESCENDING,0.0000,1.35075,0.48231,-2.10862,0.05560,1.57080,-3.01912,-0.09677,-0.44240,0.38585,,
6.4456,1,DESCENDING,0.0000,1.35075,0.48231,-2.10863,0.05561,1.57080,-3.01912,-0.09677,-0.44240,0.38585,,
6.4462,1,DESCENDING,0.0000,1.35075,0.48231,-2.10863,0.05561,1.57080,-3.01912,-0.09677,-0.44240,0.38585,,
6.5430,1,DESCENDING,0.0000,1.35075,0.48229,-2.10886,0.05585,1.57080,-3.01912,-0.09677,-0.44240,0.38571,,
6.5435,1,DESCENDING,0.0000,1.35075,0.48229,-2.10886,0.05585,1.57080,-3.01912,-0.09677,-0.44240,0.38571,,
6.5439,1,DESCENDING,0.0000,1.35075,0.48229,-2.10886,0.05585,1.57080,-3.01912,-0.09677,-0.44240,0.38571,,
6.5443,1,DESCENDING,0.0000,1.35075,0.48229,-2.10886,0.05585,1.57080,-3.01912,-0.09677,-0.44240,0.38571,,
6.5446,1,DESCENDING,0.0000,1.35075,0.48229,-2.10886,0.05585,1.57080,-3.01912,-0.09677,-0.44240,0.38571,,
6.5450,1,DESCENDING,0.0000,1.35075,0.48229,-2.10886,0.05585,1.57080,-3.01912,-0.09677,-0.44240,0.38571,,
6.5453,1,DESCENDING,0.0000,1.35075,0.48229,-2.10886,0.05585,1.57080,-3.01912,-0.09677,-0.44240,0.38571,,
6.5458,1,DESCENDING,0.0000,1.35075,0.48229,-2.10887,0.05586,1.57080,-3.01912,-0.09677,-0.44240,0.38570,,
6.5461,1,DESCENDING,0.0000,1.35075,0.48229,-2.10887,0.05586,1.57080,-3.01912,-0.09677,-0.44240,0.38570,,
6.6459,1,DESCENDING,0.0000,1.35075,0.48228,-2.10910,0.05611,1.57080,-3.01912,-0.09677,-0.44240,0.38557,,
6.6462,1,DESCENDING,0.0000,1.35075,0.48228,-2.10910,0.05611,1.57080,-3.01912,-0.09677,-0.44240,0.38557,,
6.6471,1,DESCENDING,0.0000,1.35075,0.48228,-2.10910,0.05611,1.57080,-3.01912,-0.09677,-0.44240,0.38557,,
6.6474,1,DESCENDING,0.0000,1.35075,0.48228,-2.10910,0.05611,1.57080,-3.01912,-0.09677,-0.44240,0.38557,,
6.6478,1,DESCENDING,0.0000,1.35075,0.48228,-2.10910,0.05611,1.57080,-3.01912,-0.09677,-0.44240,0.38557,,
6.6490,1,DESCENDING,0.0000,1.35075,0.48228,-2.10910,0.05611,1.57080,-3.01912,-0.09677,-0.44240,0.38557,,
6.6496,1,DESCENDING,0.0000,1.35075,0.48228,-2.10910,0.05611,1.57080,-3.01912,-0.09677,-0.44240,0.38557,,
6.6554,1,DESCENDING,0.0000,1.35075,0.48228,-2.10911,0.05611,1.57080,-3.01912,-0.09677,-0.44240,0.38557,,
6.6557,1,DESCENDING,0.0000,1.35075,0.48228,-2.10911,0.05611,1.57080,-3.01912,-0.09677,-0.44240,0.38557,,
6.7471,1,DESCENDING,0.0000,1.35075,0.48227,-2.10930,0.05632,1.57080,-3.01912,-0.09677,-0.44240,0.38545,,
6.7475,1,DESCENDING,0.0000,1.35075,0.48227,-2.10930,0.05632,1.57080,-3.01912,-0.09677,-0.44240,0.38545,,
6.7479,1,DESCENDING,0.0000,1.35075,0.48227,-2.10930,0.05632,1.57080,-3.01912,-0.09677,-0.44240,0.38545,,
6.7483,1,DESCENDING,0.0000,1.35075,0.48227,-2.10930,0.05632,1.57080,-3.01912,-0.09677,-0.44240,0.38545,,
6.7486,1,DESCENDING,0.0000,1.35075,0.48227,-2.10930,0.05632,1.57080,-3.01912,-0.09677,-0.44240,0.38545,,
6.7495,1,DESCENDING,0.0000,1.35075,0.48226,-2.10932,0.05634,1.57080,-3.01912,-0.09677,-0.44240,0.38544,,
6.7501,1,DESCENDING,0.0000,1.35075,0.48226,-2.10932,0.05634,1.57080,-3.01912,-0.09677,-0.44240,0.38544,,
6.7505,1,DESCENDING,0.0000,1.35075,0.48226,-2.10932,0.05634,1.57080,-3.01912,-0.09677,-0.44240,0.38544,,
6.8502,1,DESCENDING,0.0000,1.35075,0.48225,-2.10955,0.05658,1.57080,-3.01912,-0.09677,-0.44240,0.38531,,
6.8505,1,DESCENDING,0.0000,1.35075,0.48225,-2.10955,0.05658,1.57080,-3.01912,-0.09677,-0.44240,0.38531,,
6.8509,1,DESCENDING,0.0000,1.35075,0.48225,-2.10955,0.05658,1.57080,-3.01912,-0.09677,-0.44240,0.38531,,
6.8513,1,DESCENDING,0.0000,1.35075,0.48225,-2.10955,0.05658,1.57080,-3.01912,-0.09677,-0.44240,0.38531,,
6.8516,1,DESCENDING,0.0000,1.35075,0.48225,-2.10955,0.05658,1.57080,-3.01912,-0.09677,-0.44240,0.38531,,
6.8518,1,DESCENDING,0.0000,1.35075,0.48225,-2.10955,0.05658,1.57080,-3.01912,-0.09677,-0.44240,0.38531,,
6.8522,1,DESCENDING,0.0000,1.35075,0.48225,-2.10955,0.05658,1.57080,-3.01912,-0.09677,-0.44240,0.38531,,
6.8526,1,DESCENDING,0.0000,1.35075,0.48225,-2.10955,0.05658,1.57080,-3.01912,-0.09677,-0.44240,0.38531,,
6.8530,1,DESCENDING,0.0000,1.35075,0.48225,-2.10955,0.05658,1.57080,-3.01912,-0.09677,-0.44240,0.38531,,
6.9532,1,DESCENDING,0.0000,1.35075,0.48224,-2.10977,0.05682,1.57080,-3.01912,-0.09677,-0.44240,0.38518,,
6.9540,1,DESCENDING,0.0000,1.35075,0.48224,-2.10977,0.05682,1.57080,-3.01912,-0.09677,-0.44240,0.38518,,
6.9544,1,DESCENDING,0.0000,1.35075,0.48224,-2.10977,0.05682,1.57080,-3.01912,-0.09677,-0.44240,0.38518,,
6.9547,1,DESCENDING,0.0000,1.35075,0.48224,-2.10977,0.05682,1.57080,-3.01912,-0.09677,-0.44240,0.38518,,
6.9553,1,DESCENDING,0.0000,1.35075,0.48224,-2.10977,0.05682,1.57080,-3.01912,-0.09677,-0.44240,0.38518,,
6.9556,1,DESCENDING,0.0000,1.35075,0.48224,-2.10977,0.05682,1.57080,-3.01912,-0.09677,-0.44240,0.38518,,
6.9561,1,DESCENDING,0.0000,1.35075,0.48224,-2.10977,0.05682,1.57080,-3.01912,-0.09677,-0.44240,0.38518,,
6.9564,1,DESCENDING,0.0000,1.35075,0.48224,-2.10977,0.05682,1.57080,-3.01912,-0.09677,-0.44240,0.38518,,
6.9568,1,DESCENDING,0.0000,1.35075,0.48224,-2.10977,0.05682,1.57080,-3.01912,-0.09677,-0.44240,0.38518,,
6.9575,1,DESCENDING,0.0000,1.35075,0.48223,-2.10979,0.05684,1.57080,-3.01912,-0.09677,-0.44240,0.38517,,
7.0545,1,DESCENDING,0.0000,1.35075,0.48222,-2.11000,0.05707,1.57080,-3.01912,-0.09677,-0.44240,0.38504,,
7.0551,1,DESCENDING,0.0000,1.35075,0.48222,-2.11000,0.05707,1.57080,-3.01912,-0.09677,-0.44240,0.38504,,
7.0554,1,DESCENDING,0.0000,1.35075,0.48222,-2.11000,0.05707,1.57080,-3.01912,-0.09677,-0.44240,0.38504,,
7.0557,1,DESCENDING,0.0000,1.35075,0.48222,-2.11000,0.05707,1.57080,-3.01912,-0.09677,-0.44240,0.38504,,
7.0559,1,DESCENDING,0.0000,1.35075,0.48222,-2.11000,0.05707,1.57080,-3.01912,-0.09677,-0.44240,0.38504,,
7.0564,1,DESCENDING,0.0000,1.35075,0.48222,-2.11000,0.05707,1.57080,-3.01912,-0.09677,-0.44240,0.38504,,
7.0570,1,DESCENDING,0.0000,1.35075,0.48222,-2.11000,0.05707,1.57080,-3.01912,-0.09677,-0.44240,0.38504,,
7.1573,1,DESCENDING,0.0000,1.35075,0.48221,-2.11024,0.05732,1.57080,-3.01912,-0.09677,-0.44240,0.38490,,
7.1579,1,DESCENDING,0.0000,1.35075,0.48221,-2.11024,0.05732,1.57080,-3.01912,-0.09677,-0.44240,0.38490,,
7.1582,1,DESCENDING,0.0000,1.35075,0.48221,-2.11024,0.05732,1.57080,-3.01912,-0.09677,-0.44240,0.38490,,
7.1584,1,DESCENDING,0.0000,1.35075,0.48221,-2.11024,0.05732,1.57080,-3.01912,-0.09677,-0.44240,0.38490,,
7.1587,1,DESCENDING,0.0000,1.35075,0.48221,-2.11024,0.05732,1.57080,-3.01912,-0.09677,-0.44240,0.38490,,
7.1591,1,DESCENDING,0.0000,1.35075,0.48221,-2.11024,0.05732,1.57080,-3.01912,-0.09677,-0.44240,0.38490,,
7.1593,1,DESCENDING,0.0000,1.35075,0.48221,-2.11024,0.05732,1.57080,-3.01912,-0.09677,-0.44240,0.38490,,
7.1596,1,DESCENDING,0.0000,1.35075,0.48221,-2.11024,0.05732,1.57080,-3.01912,-0.09677,-0.44240,0.38490,,
7.1599,1,DESCENDING,0.0000,1.35075,0.48221,-2.11024,0.05732,1.57080,-3.01912,-0.09677,-0.44240,0.38490,,
7.2630,1,DESCENDING,0.0000,1.35075,0.48219,-2.11046,0.05756,1.57080,-3.01912,-0.09677,-0.44240,0.38477,,
7.2635,1,DESCENDING,0.0000,1.35075,0.48219,-2.11046,0.05756,1.57080,-3.01912,-0.09677,-0.44240,0.38477,,
7.2639,1,DESCENDING,0.0000,1.35075,0.48219,-2.11046,0.05756,1.57080,-3.01912,-0.09677,-0.44240,0.38477,,
7.2644,1,DESCENDING,0.0000,1.35075,0.48219,-2.11046,0.05756,1.57080,-3.01912,-0.09677,-0.44240,0.38477,,
7.2647,1,DESCENDING,0.0000,1.35075,0.48219,-2.11046,0.05756,1.57080,-3.01912,-0.09677,-0.44240,0.38477,,
7.2653,1,DESCENDING,0.0000,1.35075,0.48219,-2.11048,0.05757,1.57080,-3.01912,-0.09677,-0.44240,0.38476,,
7.2658,1,DESCENDING,0.0000,1.35075,0.48219,-2.11048,0.05757,1.57080,-3.01912,-0.09677,-0.44240,0.38476,,
7.3626,1,DESCENDING,0.0000,1.35075,0.48217,-2.11072,0.05783,1.57080,-3.01912,-0.09677,-0.44240,0.38462,,
7.3630,1,DESCENDING,0.0000,1.35075,0.48217,-2.11072,0.05783,1.57080,-3.01912,-0.09677,-0.44240,0.38462,,
7.3634,1,DESCENDING,0.0000,1.35075,0.48217,-2.11072,0.05783,1.57080,-3.01912,-0.09677,-0.44240,0.38462,,
7.3638,1,DESCENDING,0.0000,1.35075,0.48217,-2.11072,0.05783,1.57080,-3.01912,-0.09677,-0.44240,0.38462,,
7.3643,1,DESCENDING,0.0000,1.35075,0.48217,-2.11072,0.05783,1.57080,-3.01912,-0.09677,-0.44240,0.38462,,
7.3647,1,DESCENDING,0.0000,1.35075,0.48217,-2.11072,0.05783,1.57080,-3.01912,-0.09677,-0.44240,0.38462,,
7.3651,1,DESCENDING,0.0000,1.35075,0.48217,-2.11072,0.05783,1.57080,-3.01912,-0.09677,-0.44240,0.38462,,
7.3656,1,DESCENDING,0.0000,1.35075,0.48217,-2.11072,0.05783,1.57080,-3.01912,-0.09677,-0.44240,0.38462,,
7.3661,1,DESCENDING,0.0000,1.35075,0.48217,-2.11072,0.05783,1.57080,-3.01912,-0.09677,-0.44240,0.38462,,
7.3663,1,DESCENDING,0.0000,1.35075,0.48217,-2.11072,0.05783,1.57080,-3.01912,-0.09677,-0.44240,0.38462,,
7.4639,1,DESCENDING,0.0000,1.35075,0.48216,-2.11095,0.05807,1.57080,-3.01912,-0.09677,-0.44240,0.38449,,
7.4644,1,DESCENDING,0.0000,1.35075,0.48216,-2.11095,0.05807,1.57080,-3.01912,-0.09677,-0.44240,0.38449,,
7.4648,1,DESCENDING,0.0000,1.35075,0.48216,-2.11095,0.05807,1.57080,-3.01912,-0.09677,-0.44240,0.38449,,
7.5665,1,DESCENDING,0.0000,1.35075,0.48214,-2.11119,0.05834,1.57080,-3.01912,-0.09677,-0.44240,0.38434,,
7.5670,1,DESCENDING,0.0000,1.35075,0.48214,-2.11119,0.05834,1.57080,-3.01912,-0.09677,-0.44240,0.38434,,
7.5672,1,DESCENDING,0.0000,1.35075,0.48214,-2.11119,0.05834,1.57080,-3.01912,-0.09677,-0.44240,0.38434,,
7.5675,1,DESCENDING,0.0000,1.35075,0.48214,-2.11119,0.05834,1.57080,-3.01912,-0.09677,-0.44240,0.38434,,
7.5678,1,DESCENDING,0.0000,1.35075,0.48214,-2.11119,0.05834,1.57080,-3.01912,-0.09677,-0.44240,0.38434,,
7.5685,1,DESCENDING,0.0000,1.35075,0.48214,-2.11119,0.05834,1.57080,-3.01912,-0.09677,-0.44240,0.38434,,
7.5688,1,DESCENDING,0.0000,1.35075,0.48214,-2.11119,0.05834,1.57080,-3.01912,-0.09677,-0.44240,0.38434,,
7.5692,1,DESCENDING,0.0000,1.35075,0.48214,-2.11119,0.05834,1.57080,-3.01912,-0.09677,-0.44240,0.38434,,
7.6688,1,DESCENDING,0.0000,1.35075,0.48213,-2.11143,0.05859,1.57080,-3.01912,-0.09677,-0.44240,0.38421,,
7.6693,1,DESCENDING,0.0000,1.35075,0.48213,-2.11143,0.05859,1.57080,-3.01912,-0.09677,-0.44240,0.38421,,
7.6721,1,DESCENDING,0.0000,1.35075,0.48213,-2.11143,0.05859,1.57080,-3.01912,-0.09677,-0.44240,0.38420,,
7.6726,1,DESCENDING,0.0000,1.35075,0.48213,-2.11143,0.05859,1.57080,-3.01912,-0.09677,-0.44240,0.38420,,
7.6730,1,DESCENDING,0.0000,1.35075,0.48213,-2.11143,0.05859,1.57080,-3.01912,-0.09677,-0.44240,0.38420,,
7.6733,1,DESCENDING,0.0000,1.35075,0.48213,-2.11143,0.05859,1.57080,-3.01912,-0.09677,-0.44240,0.38420,,
7.6737,1,DESCENDING,0.0000,1.35075,0.48213,-2.11143,0.05859,1.57080,-3.01912,-0.09677,-0.44240,0.38420,,
7.6794,1,DESCENDING,0.0000,1.35075,0.48213,-2.11145,0.05861,1.57080,-3.01912,-0.09677,-0.44240,0.38419,,
7.6805,1,DESCENDING,0.0000,1.35075,0.48213,-2.11145,0.05861,1.57080,-3.01912,-0.09677,-0.44240,0.38419,,
7.6810,1,DESCENDING,0.0000,1.35075,0.48213,-2.11145,0.05861,1.57080,-3.01912,-0.09677,-0.44240,0.38419,,
7.6816,1,DESCENDING,0.0000,1.35075,0.48213,-2.11145,0.05861,1.57080,-3.01912,-0.09677,-0.44240,0.38419,,
7.7713,1,DESCENDING,0.0000,1.35075,0.48211,-2.11168,0.05885,1.57080,-3.01912,-0.09677,-0.44240,0.38406,,
7.7717,1,DESCENDING,0.0000,1.35075,0.48211,-2.11168,0.05885,1.57080,-3.01912,-0.09677,-0.44240,0.38406,,
7.7720,1,DESCENDING,0.0000,1.35075,0.48211,-2.11168,0.05885,1.57080,-3.01912,-0.09677,-0.44240,0.38406,,
7.7723,1,DESCENDING,0.0000,1.35075,0.48211,-2.11168,0.05885,1.57080,-3.01912,-0.09677,-0.44240,0.38406,,
7.7731,1,DESCENDING,0.0000,1.35075,0.48211,-2.11168,0.05885,1.57080,-3.01912,-0.09677,-0.44240,0.38406,,
7.7737,1,DESCENDING,0.0000,1.35075,0.48211,-2.11168,0.05885,1.57080,-3.01912,-0.09677,-0.44240,0.38406,,
7.7740,1,DESCENDING,0.0000,1.35075,0.48211,-2.11168,0.05885,1.57080,-3.01912,-0.09677,-0.44240,0.38406,,
7.7743,1,DESCENDING,0.0000,1.35075,0.48211,-2.11168,0.05885,1.57080,-3.01912,-0.09677,-0.44240,0.38406,,
7.8743,1,DESCENDING,0.0000,1.35075,0.48210,-2.11191,0.05909,1.57080,-3.01912,-0.09677,-0.44240,0.38393,,
7.8750,1,DESCENDING,0.0000,1.35075,0.48210,-2.11192,0.05911,1.57080,-3.01912,-0.09677,-0.44240,0.38392,,
7.8754,1,DESCENDING,0.0000,1.35075,0.48210,-2.11192,0.05911,1.57080,-3.01912,-0.09677,-0.44240,0.38392,,
7.8758,1,DESCENDING,0.0000,1.35075,0.48210,-2.11192,0.05911,1.57080,-3.01912,-0.09677,-0.44240,0.38392,,
7.8761,1,DESCENDING,0.0000,1.35075,0.48210,-2.11192,0.05911,1.57080,-3.01912,-0.09677,-0.44240,0.38392,,
7.8765,1,DESCENDING,0.0000,1.35075,0.48210,-2.11192,0.05911,1.57080,-3.01912,-0.09677,-0.44240,0.38392,,
7.8769,1,DESCENDING,0.0000,1.35075,0.48210,-2.11192,0.05911,1.57080,-3.01912,-0.09677,-0.44240,0.38392,,
7.8773,1,DESCENDING,0.0000,1.35075,0.48210,-2.11192,0.05911,1.57080,-3.01912,-0.09677,-0.44240,0.38392,,
7.8776,1,DESCENDING,0.0000,1.35075,0.48210,-2.11192,0.05911,1.57080,-3.01912,-0.09677,-0.44240,0.38392,,
7.8781,1,DESCENDING,0.0000,1.35075,0.48210,-2.11192,0.05911,1.57080,-3.01912,-0.09677,-0.44240,0.38392,,
7.8786,1,DESCENDING,0.0000,1.35075,0.48210,-2.11192,0.05911,1.57080,-3.01912,-0.09677,-0.44240,0.38392,,
7.8789,1,DESCENDING,0.0000,1.35075,0.48210,-2.11192,0.05911,1.57080,-3.01912,-0.09677,-0.44240,0.38392,,
7.8793,1,DESCENDING,0.0000,1.35075,0.48210,-2.11192,0.05911,1.57080,-3.01912,-0.09677,-0.44240,0.38392,,
7.8797,1,DESCENDING,0.0000,1.35075,0.48210,-2.11192,0.05911,1.57080,-3.01912,-0.09677,-0.44240,0.38392,,
7.8800,1,DESCENDING,0.0000,1.35075,0.48210,-2.11192,0.05911,1.57080,-3.01912,-0.09677,-0.44240,0.38392,,
7.8803,1,DESCENDING,0.0000,1.35075,0.48210,-2.11192,0.05911,1.57080,-3.01912,-0.09677,-0.44240,0.38392,,
7.8807,1,DESCENDING,0.0000,1.35075,0.48210,-2.11192,0.05911,1.57080,-3.01912,-0.09677,-0.44240,0.38392,,
7.9768,1,DESCENDING,0.0000,1.35075,0.48208,-2.11214,0.05934,1.57080,-3.01912,-0.09677,-0.44240,0.38379,,
7.9773,1,DESCENDING,0.0000,1.35075,0.48208,-2.11214,0.05934,1.57080,-3.01912,-0.09677,-0.44240,0.38379,,
7.9776,1,DESCENDING,0.0000,1.35075,0.48208,-2.11214,0.05934,1.57080,-3.01912,-0.09677,-0.44240,0.38379,,
7.9780,1,DESCENDING,0.0000,1.35075,0.48208,-2.11214,0.05934,1.57080,-3.01912,-0.09677,-0.44240,0.38379,,
7.9787,1,DESCENDING,0.0000,1.35075,0.48208,-2.11214,0.05935,1.57080,-3.01912,-0.09677,-0.44240,0.38379,,
7.9791,1,DESCENDING,0.0000,1.35075,0.48208,-2.11214,0.05935,1.57080,-3.01912,-0.09677,-0.44240,0.38379,,
7.9794,1,DESCENDING,0.0000,1.35075,0.48208,-2.11214,0.05935,1.57080,-3.01912,-0.09677,-0.44240,0.38379,,
7.9796,1,DESCENDING,0.0000,1.35075,0.48208,-2.11214,0.05935,1.57080,-3.01912,-0.09677,-0.44240,0.38379,,
8.0004,1,DESCENDING,0.0000,1.35075,0.48208,-2.11218,0.05939,1.57080,-3.01912,-0.09677,-0.44240,0.38376,,
8.0030,1,DESCENDING,0.0000,1.35075,0.48208,-2.11219,0.05939,1.57080,-3.01912,-0.09677,-0.44240,0.38376,,
8.0044,1,DESCENDING,0.0000,1.35075,0.48208,-2.11219,0.05939,1.57080,-3.01912,-0.09677,-0.44240,0.38376,,
8.0060,1,DESCENDING,0.0000,1.35075,0.48208,-2.11219,0.05939,1.57080,-3.01912,-0.09677,-0.44240,0.38376,,
8.0203,1,DESCENDING,0.0000,1.35075,0.48207,-2.11224,0.05945,1.57080,-3.01912,-0.09677,-0.44240,0.38373,,
8.0238,1,DESCENDING,0.0000,1.35075,0.48207,-2.11225,0.05946,1.57080,-3.01912,-0.09677,-0.44240,0.38372,,
8.0399,1,DESCENDING,0.0000,1.35075,0.48207,-2.11227,0.05949,1.57080,-3.01912,-0.09677,-0.44240,0.38371,,
8.0444,1,DESCENDING,0.0000,1.35075,0.48207,-2.11228,0.05950,1.57080,-3.01912,-0.09677,-0.44240,0.38371,,
8.1808,1,DESCENDING,0.0000,1.35075,0.48205,-2.11258,0.05982,1.57080,-3.01912,-0.09677,-0.44240,0.38353,,
8.1812,1,DESCENDING,0.0000,1.35075,0.48205,-2.11258,0.05982,1.57080,-3.01912,-0.09677,-0.44240,0.38353,,
8.1817,1,DESCENDING,0.0000,1.35075,0.48205,-2.11258,0.05982,1.57080,-3.01912,-0.09677,-0.44240,0.38353,,
8.1823,1,DESCENDING,0.0000,1.35075,0.48205,-2.11259,0.05982,1.57080,-3.01912,-0.09677,-0.44240,0.38353,,
8.1826,1,DESCENDING,0.0000,1.35075,0.48205,-2.11259,0.05982,1.57080,-3.01912,-0.09677,-0.44240,0.38353,,
8.1830,1,DESCENDING,0.0000,1.35075,0.48205,-2.11259,0.05982,1.57080,-3.01912,-0.09677,-0.44240,0.38353,,
8.1834,1,DESCENDING,0.0000,1.35075,0.48205,-2.11259,0.05982,1.57080,-3.01912,-0.09677,-0.44240,0.38353,,
8.1864,1,DESCENDING,0.0000,1.35075,0.48205,-2.11259,0.05983,1.57080,-3.01912,-0.09677,-0.44240,0.38352,,
8.1868,1,DESCENDING,0.0000,1.35075,0.48205,-2.11259,0.05983,1.57080,-3.01912,-0.09677,-0.44240,0.38352,,
8.1872,1,DESCENDING,0.0000,1.35075,0.48205,-2.11259,0.05983,1.57080,-3.01912,-0.09677,-0.44240,0.38352,,
8.2831,1,DESCENDING,0.0000,1.35075,0.48203,-2.11283,0.06008,1.57080,-3.01912,-0.09677,-0.44240,0.38339,,
8.2835,1,DESCENDING,0.0000,1.35075,0.48203,-2.11283,0.06008,1.57080,-3.01912,-0.09677,-0.44240,0.38339,,
8.2839,1,DESCENDING,0.0000,1.35075,0.48203,-2.11283,0.06008,1.57080,-3.01912,-0.09677,-0.44240,0.38339,,
8.2841,1,DESCENDING,0.0000,1.35075,0.48203,-2.11283,0.06008,1.57080,-3.01912,-0.09677,-0.44240,0.38339,,
8.2845,1,DESCENDING,0.0000,1.35075,0.48203,-2.11283,0.06008,1.57080,-3.01912,-0.09677,-0.44240,0.38339,,
8.2849,1,DESCENDING,0.0000,1.35075,0.48203,-2.11283,0.06008,1.57080,-3.01912,-0.09677,-0.44240,0.38339,,
8.2853,1,DESCENDING,0.0000,1.35075,0.48203,-2.11283,0.06008,1.57080,-3.01912,-0.09677,-0.44240,0.38339,,
8.2856,1,DESCENDING,0.0000,1.35075,0.48203,-2.11283,0.06008,1.57080,-3.01912,-0.09677,-0.44240,0.38339,,
8.2859,1,DESCENDING,0.0000,1.35075,0.48203,-2.11283,0.06008,1.57080,-3.01912,-0.09677,-0.44240,0.38339,,
8.2864,1,DESCENDING,0.0000,1.35075,0.48203,-2.11284,0.06010,1.57080,-3.01912,-0.09677,-0.44240,0.38338,,
8.2868,1,DESCENDING,0.0000,1.35075,0.48203,-2.11284,0.06010,1.57080,-3.01912,-0.09677,-0.44240,0.38338,,
8.3856,1,DESCENDING,0.0000,1.35075,0.48202,-2.11308,0.06035,1.57080,-3.01912,-0.09677,-0.44240,0.38324,,
8.3860,1,DESCENDING,0.0000,1.35075,0.48202,-2.11308,0.06035,1.57080,-3.01912,-0.09677,-0.44240,0.38324,,
8.3864,1,DESCENDING,0.0000,1.35075,0.48202,-2.11308,0.06035,1.57080,-3.01912,-0.09677,-0.44240,0.38324,,
8.3867,1,DESCENDING,0.0000,1.35075,0.48202,-2.11310,0.06037,1.57080,-3.01912,-0.09677,-0.44240,0.38323,,
8.3871,1,DESCENDING,0.0000,1.35075,0.48202,-2.11310,0.06037,1.57080,-3.01912,-0.09677,-0.44240,0.38323,,
8.3877,1,DESCENDING,0.0000,1.35075,0.48202,-2.11310,0.06037,1.57080,-3.01912,-0.09677,-0.44240,0.38323,,
8.3880,1,DESCENDING,0.0000,1.35075,0.48202,-2.11310,0.06037,1.57080,-3.01912,-0.09677,-0.44240,0.38323,,
8.3885,1,DESCENDING,0.0000,1.35075,0.48202,-2.11310,0.06037,1.57080,-3.01912,-0.09677,-0.44240,0.38323,,
8.3892,1,DESCENDING,0.0000,1.35075,0.48202,-2.11310,0.06037,1.57080,-3.01912,-0.09677,-0.44240,0.38323,,
8.3896,1,DESCENDING,0.0000,1.35075,0.48202,-2.11310,0.06037,1.57080,-3.01912,-0.09677,-0.44240,0.38323,,
8.3899,1,DESCENDING,0.0000,1.35075,0.48202,-2.11310,0.06037,1.57080,-3.01912,-0.09677,-0.44240,0.38323,,
8.4883,1,DESCENDING,0.0000,1.35075,0.48200,-2.11331,0.06060,1.57080,-3.01912,-0.09677,-0.44240,0.38310,,
8.4889,1,DESCENDING,0.0000,1.35075,0.48200,-2.11331,0.06060,1.57080,-3.01912,-0.09677,-0.44240,0.38310,,
8.4893,1,DESCENDING,0.0000,1.35075,0.48200,-2.11331,0.06060,1.57080,-3.01912,-0.09677,-0.44240,0.38310,,
8.4898,1,DESCENDING,0.0000,1.35075,0.48200,-2.11331,0.06060,1.57080,-3.01912,-0.09677,-0.44240,0.38310,,
8.4901,1,DESCENDING,0.0000,1.35075,0.48200,-2.11331,0.06060,1.57080,-3.01912,-0.09677,-0.44240,0.38310,,
8.4908,1,DESCENDING,0.0000,1.35075,0.48200,-2.11332,0.06060,1.57080,-3.01912,-0.09677,-0.44240,0.38310,,
8.4911,1,DESCENDING,0.0000,1.35075,0.48200,-2.11332,0.06060,1.57080,-3.01912,-0.09677,-0.44240,0.38310,,
8.4914,1,DESCENDING,0.0000,1.35075,0.48200,-2.11332,0.06060,1.57080,-3.01912,-0.09677,-0.44240,0.38310,,
8.4916,1,DESCENDING,0.0000,1.35075,0.48200,-2.11332,0.06060,1.57080,-3.01912,-0.09677,-0.44240,0.38310,,
8.5908,1,DESCENDING,0.0000,1.35075,0.48199,-2.11355,0.06085,1.57080,-3.01912,-0.09677,-0.44240,0.38297,,
8.5914,1,DESCENDING,0.0000,1.35075,0.48199,-2.11355,0.06085,1.57080,-3.01912,-0.09677,-0.44240,0.38297,,
8.5919,1,DESCENDING,0.0000,1.35075,0.48199,-2.11355,0.06085,1.57080,-3.01912,-0.09677,-0.44240,0.38297,,
8.5922,1,DESCENDING,0.0000,1.35075,0.48199,-2.11355,0.06085,1.57080,-3.01912,-0.09677,-0.44240,0.38297,,
8.5925,1,DESCENDING,0.0000,1.35075,0.48199,-2.11355,0.06085,1.57080,-3.01912,-0.09677,-0.44240,0.38297,,
8.5928,1,DESCENDING,0.0000,1.35075,0.48199,-2.11355,0.06085,1.57080,-3.01912,-0.09677,-0.44240,0.38297,,
8.5931,1,DESCENDING,0.0000,1.35075,0.48199,-2.11355,0.06085,1.57080,-3.01912,-0.09677,-0.44240,0.38297,,
8.5934,1,DESCENDING,0.0000,1.35075,0.48199,-2.11355,0.06085,1.57080,-3.01912,-0.09677,-0.44240,0.38297,,
8.6951,1,DESCENDING,0.0000,1.35075,0.48197,-2.11376,0.06108,1.57080,-3.01912,-0.09677,-0.44240,0.38284,,
8.6955,1,DESCENDING,0.0000,1.35075,0.48197,-2.11376,0.06108,1.57080,-3.01912,-0.09677,-0.44240,0.38284,,
8.7017,1,DESCENDING,0.0000,1.35075,0.48197,-2.11377,0.06109,1.57080,-3.01912,-0.09677,-0.44240,0.38283,,
8.7024,1,DESCENDING,0.0000,1.35075,0.48197,-2.11377,0.06109,1.57080,-3.01912,-0.09677,-0.44240,0.38283,,
8.7030,1,DESCENDING,0.0000,1.35075,0.48197,-2.11378,0.06110,1.57080,-3.01912,-0.09677,-0.44240,0.38283,,
8.7034,1,DESCENDING,0.0000,1.35075,0.48197,-2.11378,0.06110,1.57080,-3.01912,-0.09677,-0.44240,0.38283,,
8.7038,1,DESCENDING,0.0000,1.35075,0.48197,-2.11378,0.06110,1.57080,-3.01912,-0.09677,-0.44240,0.38283,,
8.7958,1,DESCENDING,0.0000,1.35075,0.48195,-2.11400,0.06133,1.57080,-3.01912,-0.09677,-0.44240,0.38270,,
8.7961,1,DESCENDING,0.0000,1.35075,0.48195,-2.11400,0.06133,1.57080,-3.01912,-0.09677,-0.44240,0.38270,,
8.7964,1,DESCENDING,0.0000,1.35075,0.48195,-2.11400,0.06133,1.57080,-3.01912,-0.09677,-0.44240,0.38270,,
8.7969,1,DESCENDING,0.0000,1.35075,0.48195,-2.11400,0.06133,1.57080,-3.01912,-0.09677,-0.44240,0.38270,,
8.7974,1,DESCENDING,0.0000,1.35075,0.48195,-2.11400,0.06133,1.57080,-3.01912,-0.09677,-0.44240,0.38270,,
8.7977,1,DESCENDING,0.0000,1.35075,0.48195,-2.11400,0.06133,1.57080,-3.01912,-0.09677,-0.44240,0.38270,,
8.7983,1,DESCENDING,0.0000,1.35075,0.48195,-2.11401,0.06134,1.57080,-3.01912,-0.09677,-0.44240,0.38269,,
8.7987,1,DESCENDING,0.0000,1.35075,0.48195,-2.11401,0.06134,1.57080,-3.01912,-0.09677,-0.44240,0.38269,,
8.7992,1,DESCENDING,0.0000,1.35075,0.48195,-2.11401,0.06134,1.57080,-3.01912,-0.09677,-0.44240,0.38269,,
8.8976,1,DESCENDING,0.0000,1.35075,0.48194,-2.11425,0.06160,1.57080,-3.01912,-0.09677,-0.44240,0.38255,,
8.8979,1,DESCENDING,0.0000,1.35075,0.48194,-2.11425,0.06160,1.57080,-3.01912,-0.09677,-0.44240,0.38255,,
8.8982,1,DESCENDING,0.0000,1.35075,0.48194,-2.11425,0.06160,1.57080,-3.01912,-0.09677,-0.44240,0.38255,,
8.8986,1,DESCENDING,0.0000,1.35075,0.48194,-2.11426,0.06161,1.57080,-3.01912,-0.09677,-0.44240,0.38254,,
8.8989,1,DESCENDING,0.0000,1.35075,0.48194,-2.11426,0.06161,1.57080,-3.01912,-0.09677,-0.44240,0.38254,,
8.8991,1,DESCENDING,0.0000,1.35075,0.48194,-2.11426,0.06161,1.57080,-3.01912,-0.09677,-0.44240,0.38254,,
8.8995,1,DESCENDING,0.0000,1.35075,0.48194,-2.11426,0.06161,1.57080,-3.01912,-0.09677,-0.44240,0.38254,,
8.8999,1,DESCENDING,0.0000,1.35075,0.48194,-2.11426,0.06161,1.57080,-3.01912,-0.09677,-0.44240,0.38254,,
8.9002,1,DESCENDING,0.0000,1.35075,0.48194,-2.11426,0.06161,1.57080,-3.01912,-0.09677,-0.44240,0.38254,,
8.9005,1,DESCENDING,0.0000,1.35075,0.48194,-2.11426,0.06161,1.57080,-3.01912,-0.09677,-0.44240,0.38254,,
8.9008,1,DESCENDING,0.0000,1.35075,0.48194,-2.11426,0.06161,1.57080,-3.01912,-0.09677,-0.44240,0.38254,,
8.9999,1,DESCENDING,0.0000,1.35075,0.48192,-2.11448,0.06184,1.57080,-3.01912,-0.09677,-0.44240,0.38242,,
9.0002,1,DESCENDING,0.0000,1.35075,0.48192,-2.11448,0.06184,1.57080,-3.01912,-0.09677,-0.44240,0.38242,,
9.0005,1,DESCENDING,0.0000,1.35075,0.48192,-2.11448,0.06184,1.57080,-3.01912,-0.09677,-0.44240,0.38242,,
9.0008,1,DESCENDING,0.0000,1.35075,0.48192,-2.11448,0.06184,1.57080,-3.01912,-0.09677,-0.44240,0.38242,,
9.0011,1,DESCENDING,0.0000,1.35075,0.48192,-2.11448,0.06184,1.57080,-3.01912,-0.09677,-0.44240,0.38242,,
9.0015,1,DESCENDING,0.0000,1.35075,0.48192,-2.11448,0.06184,1.57080,-3.01912,-0.09677,-0.44240,0.38242,,
9.0020,1,DESCENDING,0.0000,1.35075,0.48192,-2.11448,0.06184,1.57080,-3.01912,-0.09677,-0.44240,0.38242,,
9.0025,1,DESCENDING,0.0000,1.35075,0.48192,-2.11448,0.06184,1.57080,-3.01912,-0.09677,-0.44240,0.38242,,
9.0029,1,DESCENDING,0.0000,1.35075,0.48192,-2.11448,0.06185,1.57080,-3.01912,-0.09677,-0.44240,0.38242,,
9.1025,1,DESCENDING,0.0000,1.35075,0.48191,-2.11470,0.06207,1.57080,-3.01912,-0.09677,-0.44240,0.38229,,
9.1032,1,DESCENDING,0.0000,1.35075,0.48191,-2.11470,0.06207,1.57080,-3.01912,-0.09677,-0.44240,0.38229,,
9.1038,1,DESCENDING,0.0000,1.35075,0.48190,-2.11471,0.06209,1.57080,-3.01912,-0.09677,-0.44240,0.38228,,
9.1042,1,DESCENDING,0.0000,1.35075,0.48190,-2.11471,0.06209,1.57080,-3.01912,-0.09677,-0.44240,0.38228,,
9.1047,1,DESCENDING,0.0000,1.35075,0.48190,-2.11471,0.06209,1.57080,-3.01912,-0.09677,-0.44240,0.38228,,
9.1052,1,DESCENDING,0.0000,1.35075,0.48190,-2.11471,0.06209,1.57080,-3.01912,-0.09677,-0.44240,0.38228,,
9.1056,1,DESCENDING,0.0000,1.35075,0.48190,-2.11471,0.06209,1.57080,-3.01912,-0.09677,-0.44240,0.38228,,
9.1060,1,DESCENDING,0.0000,1.35075,0.48190,-2.11471,0.06209,1.57080,-3.01912,-0.09677,-0.44240,0.38228,,
9.2047,1,DESCENDING,0.0000,1.35075,0.48189,-2.11493,0.06232,1.57080,-3.01912,-0.09677,-0.44240,0.38216,,
9.2051,1,DESCENDING,0.0000,1.35075,0.48189,-2.11493,0.06232,1.57080,-3.01912,-0.09677,-0.44240,0.38216,,
9.2054,1,DESCENDING,0.0000,1.35075,0.48189,-2.11493,0.06232,1.57080,-3.01912,-0.09677,-0.44240,0.38216,,
9.2068,1,DESCENDING,0.0000,1.35075,0.48189,-2.11493,0.06232,1.57080,-3.01912,-0.09677,-0.44240,0.38216,,
9.2076,1,DESCENDING,0.0000,1.35075,0.48189,-2.11493,0.06232,1.57080,-3.01912,-0.09677,-0.44240,0.38215,,
9.2139,1,DESCENDING,0.0000,1.35075,0.48189,-2.11494,0.06233,1.57080,-3.01912,-0.09677,-0.44240,0.38215,,
9.2148,1,DESCENDING,0.0000,1.35075,0.48189,-2.11494,0.06233,1.57080,-3.01912,-0.09677,-0.44240,0.38215,,
9.2155,1,DESCENDING,0.0000,1.35075,0.48189,-2.11495,0.06234,1.57080,-3.01912,-0.09677,-0.44240,0.38214,,
9.3087,1,DESCENDING,0.0000,1.35075,0.48187,-2.11516,0.06257,1.57080,-3.01912,-0.09677,-0.44240,0.38202,,
9.3094,1,DESCENDING,0.0000,1.35075,0.48187,-2.11516,0.06257,1.57080,-3.01912,-0.09677,-0.44240,0.38202,,
9.3098,1,DESCENDING,0.0000,1.35075,0.48187,-2.11516,0.06257,1.57080,-3.01912,-0.09677,-0.44240,0.38202,,
9.3102,1,DESCENDING,0.0000,1.35075,0.48187,-2.11516,0.06257,1.57080,-3.01912,-0.09677,-0.44240,0.38202,,
9.3106,1,DESCENDING,0.0000,1.35075,0.48187,-2.11516,0.06257,1.57080,-3.01912,-0.09677,-0.44240,0.38202,,
9.3109,1,DESCENDING,0.0000,1.35075,0.48187,-2.11516,0.06257,1.57080,-3.01912,-0.09677,-0.44240,0.38202,,
9.3115,1,DESCENDING,0.0000,1.35075,0.48187,-2.11517,0.06258,1.57080,-3.01912,-0.09677,-0.44240,0.38202,,
9.3118,1,DESCENDING,0.0000,1.35075,0.48187,-2.11517,0.06258,1.57080,-3.01912,-0.09677,-0.44240,0.38202,,
9.3124,1,DESCENDING,0.0000,1.35075,0.48187,-2.11517,0.06258,1.57080,-3.01912,-0.09677,-0.44240,0.38202,,
9.3127,1,DESCENDING,0.0000,1.35075,0.48187,-2.11517,0.06258,1.57080,-3.01912,-0.09677,-0.44240,0.38202,,
9.4097,1,DESCENDING,0.0000,1.35075,0.48186,-2.11539,0.06282,1.57080,-3.01912,-0.09677,-0.44240,0.38188,,
9.4102,1,DESCENDING,0.0000,1.35075,0.48186,-2.11539,0.06282,1.57080,-3.01912,-0.09677,-0.44240,0.38188,,
9.4105,1,DESCENDING,0.0000,1.35075,0.48186,-2.11539,0.06282,1.57080,-3.01912,-0.09677,-0.44240,0.38188,,
9.4109,1,DESCENDING,0.0000,1.35075,0.48186,-2.11539,0.06282,1.57080,-3.01912,-0.09677,-0.44240,0.38188,,
9.4116,1,DESCENDING,0.0000,1.35075,0.48186,-2.11541,0.06283,1.57080,-3.01912,-0.09677,-0.44240,0.38187,,
9.4121,1,DESCENDING,0.0000,1.35075,0.48186,-2.11541,0.06283,1.57080,-3.01912,-0.09677,-0.44240,0.38187,,
9.4125,1,DESCENDING,0.0000,1.35075,0.48186,-2.11541,0.06283,1.57080,-3.01912,-0.09677,-0.44240,0.38187,,
9.4129,1,DESCENDING,0.0000,1.35075,0.48186,-2.11541,0.06283,1.57080,-3.01912,-0.09677,-0.44240,0.38187,,
9.5230,1,DESCENDING,0.0000,1.35075,0.48184,-2.11562,0.06307,1.57080,-3.01912,-0.09677,-0.44240,0.38175,,
9.5237,1,DESCENDING,0.0000,1.35075,0.48184,-2.11562,0.06307,1.57080,-3.01912,-0.09677,-0.44240,0.38175,,
9.5243,1,DESCENDING,0.0000,1.35075,0.48184,-2.11564,0.06308,1.57080,-3.01912,-0.09677,-0.44240,0.38174,,
9.5247,1,DESCENDING,0.0000,1.35075,0.48184,-2.11564,0.06308,1.57080,-3.01912,-0.09677,-0.44240,0.38174,,
9.5252,1,DESCENDING,0.0000,1.35075,0.48184,-2.11564,0.06308,1.57080,-3.01912,-0.09677,-0.44240,0.38174,,
9.5258,1,DESCENDING,0.0000,1.35075,0.48184,-2.11564,0.06308,1.57080,-3.01912,-0.09677,-0.44240,0.38174,,
9.5261,1,DESCENDING,0.0000,1.35075,0.48184,-2.11564,0.06308,1.57080,-3.01912,-0.09677,-0.44240,0.38174,,
9.5265,1,DESCENDING,0.0000,1.35075,0.48184,-2.11564,0.06308,1.57080,-3.01912,-0.09677,-0.44240,0.38174,,
9.6167,1,DESCENDING,0.0000,1.35075,0.48182,-2.11586,0.06332,1.57080,-3.01912,-0.09677,-0.44240,0.38161,,
9.6174,1,DESCENDING,0.0000,1.35075,0.48182,-2.11586,0.06332,1.57080,-3.01912,-0.09677,-0.44240,0.38161,,
9.6178,1,DESCENDING,0.0000,1.35075,0.48182,-2.11586,0.06332,1.57080,-3.01912,-0.09677,-0.44240,0.38161,,
9.6183,1,DESCENDING,0.0000,1.35075,0.48182,-2.11586,0.06332,1.57080,-3.01912,-0.09677,-0.44240,0.38161,,
9.6478,1,DESCENDING,0.0000,1.35075,0.48182,-2.11594,0.06341,1.57080,-3.01912,-0.09677,-0.44240,0.38156,,
9.6481,1,DESCENDING,0.0000,1.35075,0.48182,-2.11594,0.06341,1.57080,-3.01912,-0.09677,-0.44240,0.38156,,
9.6624,1,DESCENDING,0.0000,1.35075,0.48182,-2.11596,0.06343,1.57080,-3.01912,-0.09677,-0.44240,0.38155,,
9.6629,1,DESCENDING,0.0000,1.35075,0.48182,-2.11596,0.06343,1.57080,-3.01912,-0.09677,-0.44240,0.38155,,
9.6632,1,DESCENDING,0.0000,1.35075,0.48182,-2.11596,0.06343,1.57080,-3.01912,-0.09677,-0.44240,0.38155,,
9.7222,1,DESCENDING,0.0000,1.35075,0.48181,-2.11609,0.06357,1.57080,-3.01912,-0.09677,-0.44240,0.38147,,
9.7227,1,DESCENDING,0.0000,1.35075,0.48181,-2.11609,0.06357,1.57080,-3.01912,-0.09677,-0.44240,0.38147,,
9.7230,1,DESCENDING,0.0000,1.35075,0.48181,-2.11609,0.06357,1.57080,-3.01912,-0.09677,-0.44240,0.38147,,
9.8195,1,DESCENDING,0.0000,1.35075,0.48179,-2.11632,0.06381,1.57080,-3.01912,-0.09677,-0.44240,0.38134,,
9.8201,1,DESCENDING,0.0000,1.35075,0.48179,-2.11632,0.06381,1.57080,-3.01912,-0.09677,-0.44240,0.38134,,
9.8205,1,DESCENDING,0.0000,1.35075,0.48179,-2.11632,0.06381,1.57080,-3.01912,-0.09677,-0.44240,0.38134,,
9.8209,1,DESCENDING,0.0000,1.35075,0.48179,-2.11632,0.06381,1.57080,-3.01912,-0.09677,-0.44240,0.38134,,
9.8213,1,DESCENDING,0.0000,1.35075,0.48179,-2.11632,0.06381,1.57080,-3.01912,-0.09677,-0.44240,0.38134,,
9.8217,1,DESCENDING,0.0000,1.35075,0.48179,-2.11632,0.06381,1.57080,-3.01912,-0.09677,-0.44240,0.38134,,
9.8221,1,DESCENDING,0.0000,1.35075,0.48179,-2.11632,0.06381,1.57080,-3.01912,-0.09677,-0.44240,0.38134,,
9.9216,1,DESCENDING,0.0000,1.35075,0.48177,-2.11655,0.06406,1.57080,-3.01912,-0.09677,-0.44240,0.38120,,
9.9220,1,DESCENDING,0.0000,1.35075,0.48177,-2.11655,0.06406,1.57080,-3.01912,-0.09677,-0.44240,0.38120,,
9.9224,1,DESCENDING,0.0000,1.35075,0.48177,-2.11655,0.06406,1.57080,-3.01912,-0.09677,-0.44240,0.38120,,
9.9227,1,DESCENDING,0.0000,1.35075,0.48177,-2.11655,0.06406,1.57080,-3.01912,-0.09677,-0.44240,0.38120,,
9.9232,1,DESCENDING,0.0000,1.35075,0.48177,-2.11655,0.06406,1.57080,-3.01912,-0.09677,-0.44240,0.38120,,
9.9241,1,DESCENDING,0.0000,1.35075,0.48177,-2.11657,0.06408,1.57080,-3.01912,-0.09677,-0.44240,0.38119,,
9.9244,1,DESCENDING,0.0000,1.35075,0.48177,-2.11657,0.06408,1.57080,-3.01912,-0.09677,-0.44240,0.38119,,
9.9249,1,DESCENDING,0.0000,1.35075,0.48177,-2.11657,0.06408,1.57080,-3.01912,-0.09677,-0.44240,0.38119,,
9.9253,1,DESCENDING,0.0000,1.35075,0.48177,-2.11657,0.06408,1.57080,-3.01912,-0.09677,-0.44240,0.38119,,
9.9256,1,DESCENDING,0.0000,1.35075,0.48177,-2.11657,0.06408,1.57080,-3.01912,-0.09677,-0.44240,0.38119,,
9.9260,1,DESCENDING,0.0000,1.35075,0.48177,-2.11657,0.06408,1.57080,-3.01912,-0.09677,-0.44240,0.38119,,
9.9265,1,DESCENDING,0.0000,1.35075,0.48177,-2.11657,0.06408,1.57080,-3.01912,-0.09677,-0.44240,0.38119,,
9.9268,1,DESCENDING,0.0000,1.35075,0.48177,-2.11657,0.06408,1.57080,-3.01912,-0.09677,-0.44240,0.38119,,
9.9275,1,DESCENDING,0.0000,1.35075,0.48177,-2.11657,0.06408,1.57080,-3.01912,-0.09677,-0.44240,0.38119,,
9.9279,1,DESCENDING,0.0000,1.35075,0.48177,-2.11657,0.06408,1.57080,-3.01912,-0.09677,-0.44240,0.38119,,
9.9400,1,DESCENDING,0.0000,1.35075,0.48177,-2.11658,0.06410,1.57080,-3.01912,-0.09677,-0.44240,0.38118,,
9.9422,1,DESCENDING,0.0000,1.35075,0.48177,-2.11658,0.06410,1.57080,-3.01912,-0.09677,-0.44240,0.38118,,
9.9535,1,DESCENDING,0.0000,1.35075,0.48177,-2.11662,0.06413,1.57080,-3.01912,-0.09677,-0.44240,0.38116,,
9.9572,1,DESCENDING,0.0000,1.35075,0.48177,-2.11662,0.06413,1.57080,-3.01912,-0.09677,-0.44240,0.38116,,
9.9669,1,DESCENDING,0.0000,1.35075,0.48177,-2.11663,0.06415,1.57080,-3.01912,-0.09677,-0.44240,0.38116,,
9.9740,1,DESCENDING,0.0000,1.35075,0.48177,-2.11665,0.06417,1.57080,-3.01912,-0.09677,-0.44240,0.38114,,
9.9846,1,DESCENDING,0.0000,1.35075,0.48176,-2.11670,0.06422,1.57080,-3.01912,-0.09677,-0.44240,0.38111,,
9.9919,1,DESCENDING,0.0000,1.35075,0.48176,-2.11670,0.06422,1.57080,-3.01912,-0.09677,-0.44240,0.38111,,
10.1269,1,DESCENDING,0.0000,1.35075,0.48174,-2.11701,0.06456,1.57080,-3.01912,-0.09677,-0.44240,0.38093,,
10.1276,1,DESCENDING,0.0000,1.35075,0.48174,-2.11701,0.06456,1.57080,-3.01912,-0.09677,-0.44240,0.38093,,
10.1281,1,DESCENDING,0.0000,1.35075,0.48174,-2.11703,0.06457,1.57080,-3.01912,-0.09677,-0.44240,0.38092,,
10.1285,1,DESCENDING,0.0000,1.35075,0.48174,-2.11703,0.06457,1.57080,-3.01912,-0.09677,-0.44240,0.38092,,
10.1289,1,DESCENDING,0.0000,1.35075,0.48174,-2.11703,0.06457,1.57080,-3.01912,-0.09677,-0.44240,0.38092,,
10.1291,1,DESCENDING,0.0000,1.35075,0.48174,-2.11703,0.06457,1.57080,-3.01912,-0.09677,-0.44240,0.38092,,
10.1294,1,DESCENDING,0.0000,1.35075,0.48174,-2.11703,0.06457,1.57080,-3.01912,-0.09677,-0.44240,0.38092,,
10.1299,1,DESCENDING,0.0000,1.35075,0.48174,-2.11703,0.06457,1.57080,-3.01912,-0.09677,-0.44240,0.38092,,
10.1304,1,DESCENDING,0.0000,1.35075,0.48174,-2.11703,0.06457,1.57080,-3.01912,-0.09677,-0.44240,0.38092,,
10.1313,1,DESCENDING,0.0000,1.35075,0.48174,-2.11704,0.06459,1.57080,-3.01912,-0.09677,-0.44240,0.38091,,
10.1315,1,DESCENDING,0.0000,1.35075,0.48174,-2.11704,0.06459,1.57080,-3.01912,-0.09677,-0.44240,0.38091,,
10.2287,1,DESCENDING,0.0000,1.35075,0.48172,-2.11725,0.06481,1.57080,-3.01912,-0.09677,-0.44240,0.38079,,
10.2291,1,DESCENDING,0.0000,1.35075,0.48172,-2.11725,0.06481,1.57080,-3.01912,-0.09677,-0.44240,0.38079,,
10.2294,1,DESCENDING,0.0000,1.35075,0.48172,-2.11725,0.06481,1.57080,-3.01912,-0.09677,-0.44240,0.38079,,
10.2297,1,DESCENDING,0.0000,1.35075,0.48172,-2.11725,0.06481,1.57080,-3.01912,-0.09677,-0.44240,0.38079,,
10.2325,1,DESCENDING,0.0000,1.35075,0.48172,-2.11726,0.06482,1.57080,-3.01912,-0.09677,-0.44240,0.38079,,
10.2329,1,DESCENDING,0.0000,1.35075,0.48172,-2.11726,0.06482,1.57080,-3.01912,-0.09677,-0.44240,0.38079,,
10.2333,1,DESCENDING,0.0000,1.35075,0.48172,-2.11726,0.06482,1.57080,-3.01912,-0.09677,-0.44240,0.38079,,
10.2337,1,DESCENDING,0.0000,1.35075,0.48172,-2.11726,0.06482,1.57080,-3.01912,-0.09677,-0.44240,0.38079,,
10.2340,1,DESCENDING,0.0000,1.35075,0.48172,-2.11726,0.06482,1.57080,-3.01912,-0.09677,-0.44240,0.38079,,
10.2343,1,DESCENDING,0.0000,1.35075,0.48172,-2.11726,0.06482,1.57080,-3.01912,-0.09677,-0.44240,0.38079,,
10.2347,1,DESCENDING,0.0000,1.35075,0.48172,-2.11726,0.06482,1.57080,-3.01912,-0.09677,-0.44240,0.38079,,
10.3313,1,DESCENDING,0.0000,1.35075,0.48171,-2.11748,0.06506,1.57080,-3.01912,-0.09677,-0.44240,0.38065,,
10.3317,1,DESCENDING,0.0000,1.35075,0.48171,-2.11748,0.06506,1.57080,-3.01912,-0.09677,-0.44240,0.38065,,
10.3323,1,DESCENDING,0.0000,1.35075,0.48170,-2.11750,0.06508,1.57080,-3.01912,-0.09677,-0.44240,0.38065,,
10.3326,1,DESCENDING,0.0000,1.35075,0.48170,-2.11750,0.06508,1.57080,-3.01912,-0.09677,-0.44240,0.38065,,
10.3330,1,DESCENDING,0.0000,1.35075,0.48170,-2.11750,0.06508,1.57080,-3.01912,-0.09677,-0.44240,0.38065,,
10.3334,1,DESCENDING,0.0000,1.35075,0.48170,-2.11750,0.06508,1.57080,-3.01912,-0.09677,-0.44240,0.38065,,
10.3338,1,DESCENDING,0.0000,1.35075,0.48170,-2.11750,0.06508,1.57080,-3.01912,-0.09677,-0.44240,0.38065,,
10.4335,1,DESCENDING,0.0000,1.35075,0.48169,-2.11774,0.06534,1.57080,-3.01912,-0.09677,-0.44240,0.38050,,
10.4339,1,DESCENDING,0.0000,1.35075,0.48169,-2.11774,0.06534,1.57080,-3.01912,-0.09677,-0.44240,0.38050,,
10.4343,1,DESCENDING,0.0000,1.35075,0.48169,-2.11774,0.06534,1.57080,-3.01912,-0.09677,-0.44240,0.38050,,
10.4347,1,DESCENDING,0.0000,1.35075,0.48169,-2.11774,0.06534,1.57080,-3.01912,-0.09677,-0.44240,0.38050,,
10.4351,1,DESCENDING,0.0000,1.35075,0.48169,-2.11774,0.06534,1.57080,-3.01912,-0.09677,-0.44240,0.38050,,
10.4355,1,DESCENDING,0.0000,1.35075,0.48169,-2.11774,0.06534,1.57080,-3.01912,-0.09677,-0.44240,0.38050,,
10.4359,1,DESCENDING,0.0000,1.35075,0.48169,-2.11774,0.06534,1.57080,-3.01912,-0.09677,-0.44240,0.38050,,
10.4364,1,DESCENDING,0.0000,1.35075,0.48169,-2.11776,0.06535,1.57080,-3.01912,-0.09677,-0.44240,0.38049,,
10.4369,1,DESCENDING,0.0000,1.35075,0.48169,-2.11776,0.06535,1.57080,-3.01912,-0.09677,-0.44240,0.38049,,
10.5360,1,DESCENDING,0.0000,1.35075,0.48167,-2.11794,0.06555,1.57080,-3.01912,-0.09677,-0.44240,0.38038,,
10.5363,1,DESCENDING,0.0000,1.35075,0.48167,-2.11794,0.06555,1.57080,-3.01912,-0.09677,-0.44240,0.38038,,
10.5367,1,DESCENDING,0.0000,1.35075,0.48167,-2.11795,0.06556,1.57080,-3.01912,-0.09677,-0.44240,0.38038,,
10.5370,1,DESCENDING,0.0000,1.35075,0.48167,-2.11795,0.06556,1.57080,-3.01912,-0.09677,-0.44240,0.38038,,
10.5374,1,DESCENDING,0.0000,1.35075,0.48167,-2.11795,0.06556,1.57080,-3.01912,-0.09677,-0.44240,0.38038,,
10.5376,1,DESCENDING,0.0000,1.35075,0.48167,-2.11795,0.06556,1.57080,-3.01912,-0.09677,-0.44240,0.38038,,
10.5380,1,DESCENDING,0.0000,1.35075,0.48167,-2.11795,0.06556,1.57080,-3.01912,-0.09677,-0.44240,0.38038,,
10.5384,1,DESCENDING,0.0000,1.35075,0.48167,-2.11795,0.06556,1.57080,-3.01912,-0.09677,-0.44240,0.38038,,
10.5389,1,DESCENDING,0.0000,1.35075,0.48167,-2.11795,0.06556,1.57080,-3.01912,-0.09677,-0.44240,0.38038,,
10.5394,1,DESCENDING,0.0000,1.35075,0.48167,-2.11795,0.06556,1.57080,-3.01912,-0.09677,-0.44240,0.38038,,
10.6385,1,DESCENDING,0.0000,1.35075,0.48165,-2.11818,0.06581,1.57080,-3.01912,-0.09677,-0.44240,0.38025,,
10.6392,1,DESCENDING,0.0000,1.35075,0.48165,-2.11818,0.06581,1.57080,-3.01912,-0.09677,-0.44240,0.38025,,
10.6395,1,DESCENDING,0.0000,1.35075,0.48165,-2.11818,0.06581,1.57080,-3.01912,-0.09677,-0.44240,0.38025,,
10.6399,1,DESCENDING,0.0000,1.35075,0.48165,-2.11818,0.06581,1.57080,-3.01912,-0.09677,-0.44240,0.38025,,
10.6403,1,DESCENDING,0.0000,1.35075,0.48165,-2.11818,0.06581,1.57080,-3.01912,-0.09677,-0.44240,0.38025,,
10.6408,1,DESCENDING,0.0000,1.35075,0.48165,-2.11819,0.06582,1.57080,-3.01912,-0.09677,-0.44240,0.38024,,
10.6417,1,DESCENDING,0.0000,1.35075,0.48165,-2.11819,0.06582,1.57080,-3.01912,-0.09677,-0.44240,0.38024,,
10.6478,1,DESCENDING,0.0000,1.35075,0.48165,-2.11820,0.06583,1.57080,-3.01912,-0.09677,-0.44240,0.38023,,
10.6482,1,DESCENDING,0.0000,1.35075,0.48165,-2.11820,0.06583,1.57080,-3.01912,-0.09677,-0.44240,0.38023,,
10.7412,1,DESCENDING,0.0000,1.35075,0.48164,-2.11842,0.06606,1.57080,-3.01912,-0.09677,-0.44240,0.38010,,
10.7416,1,DESCENDING,0.0000,1.35075,0.48164,-2.11842,0.06606,1.57080,-3.01912,-0.09677,-0.44240,0.38010,,
10.7418,1,DESCENDING,0.0000,1.35075,0.48164,-2.11842,0.06606,1.57080,-3.01912,-0.09677,-0.44240,0.38010,,
10.7420,1,DESCENDING,0.0000,1.35075,0.48164,-2.11842,0.06606,1.57080,-3.01912,-0.09677,-0.44240,0.38010,,
10.7425,1,DESCENDING,0.0000,1.35075,0.48164,-2.11842,0.06606,1.57080,-3.01912,-0.09677,-0.44240,0.38010,,
10.7430,1,DESCENDING,0.0000,1.35075,0.48164,-2.11842,0.06606,1.57080,-3.01912,-0.09677,-0.44240,0.38010,,
10.7433,1,DESCENDING,0.0000,1.35075,0.48164,-2.11842,0.06606,1.57080,-3.01912,-0.09677,-0.44240,0.38010,,
10.7436,1,DESCENDING,0.0000,1.35075,0.48164,-2.11842,0.06606,1.57080,-3.01912,-0.09677,-0.44240,0.38010,,
10.7439,1,DESCENDING,0.0000,1.35075,0.48164,-2.11842,0.06606,1.57080,-3.01912,-0.09677,-0.44240,0.38010,,
10.7444,1,DESCENDING,0.0000,1.35075,0.48164,-2.11842,0.06607,1.57080,-3.01912,-0.09677,-0.44240,0.38010,,
10.8440,1,DESCENDING,0.0000,1.35075,0.48162,-2.11862,0.06628,1.57080,-3.01912,-0.09677,-0.44240,0.37998,,
10.8445,1,DESCENDING,0.0000,1.35075,0.48162,-2.11862,0.06628,1.57080,-3.01912,-0.09677,-0.44240,0.37998,,
10.8450,1,DESCENDING,0.0000,1.35075,0.48162,-2.11864,0.06630,1.57080,-3.01912,-0.09677,-0.44240,0.37998,,
10.8456,1,DESCENDING,0.0000,1.35075,0.48162,-2.11864,0.06630,1.57080,-3.01912,-0.09677,-0.44240,0.37998,,
10.8461,1,DESCENDING,0.0000,1.35075,0.48162,-2.11864,0.06630,1.57080,-3.01912,-0.09677,-0.44240,0.37998,,
10.8470,1,DESCENDING,0.0000,1.35075,0.48162,-2.11864,0.06630,1.57080,-3.01912,-0.09677,-0.44240,0.37998,,
10.8474,1,DESCENDING,0.0000,1.35075,0.48162,-2.11864,0.06630,1.57080,-3.01912,-0.09677,-0.44240,0.37998,,
10.8478,1,DESCENDING,0.0000,1.35075,0.48162,-2.11864,0.06630,1.57080,-3.01912,-0.09677,-0.44240,0.37998,,
10.8482,1,DESCENDING,0.0000,1.35075,0.48162,-2.11864,0.06630,1.57080,-3.01912,-0.09677,-0.44240,0.37998,,
10.9457,1,DESCENDING,0.0000,1.35075,0.48160,-2.11886,0.06655,1.57080,-3.01912,-0.09677,-0.44240,0.37984,,
10.9461,1,DESCENDING,0.0000,1.35075,0.48160,-2.11886,0.06655,1.57080,-3.01912,-0.09677,-0.44240,0.37984,,
10.9466,1,DESCENDING,0.0000,1.35075,0.48160,-2.11886,0.06655,1.57080,-3.01912,-0.09677,-0.44240,0.37984,,
10.9474,1,DESCENDING,0.0000,1.35075,0.48160,-2.11886,0.06655,1.57080,-3.01912,-0.09677,-0.44240,0.37984,,
10.9483,1,DESCENDING,0.0000,1.35075,0.48160,-2.11886,0.06655,1.57080,-3.01912,-0.09677,-0.44240,0.37984,,
10.9486,1,DESCENDING,0.0000,1.35075,0.48160,-2.11886,0.06655,1.57080,-3.01912,-0.09677,-0.44240,0.37984,,
10.9490,1,DESCENDING,0.0000,1.35075,0.48160,-2.11886,0.06655,1.57080,-3.01912,-0.09677,-0.44240,0.37984,,
11.0480,1,DESCENDING,0.0000,1.35075,0.48159,-2.11909,0.06679,1.57080,-3.01912,-0.09677,-0.44240,0.37971,,
11.0487,1,DESCENDING,0.0000,1.35075,0.48158,-2.11910,0.06680,1.57080,-3.01912,-0.09677,-0.44240,0.37970,,
11.0491,1,DESCENDING,0.0000,1.35075,0.48158,-2.11910,0.06680,1.57080,-3.01912,-0.09677,-0.44240,0.37970,,
11.0493,1,DESCENDING,0.0000,1.35075,0.48158,-2.11910,0.06680,1.57080,-3.01912,-0.09677,-0.44240,0.37970,,
11.0497,1,DESCENDING,0.0000,1.35075,0.48158,-2.11910,0.06680,1.57080,-3.01912,-0.09677,-0.44240,0.37970,,
11.0500,1,DESCENDING,0.0000,1.35075,0.48158,-2.11910,0.06680,1.57080,-3.01912,-0.09677,-0.44240,0.37970,,
11.0503,1,DESCENDING,0.0000,1.35075,0.48158,-2.11910,0.06680,1.57080,-3.01912,-0.09677,-0.44240,0.37970,,
11.0506,1,DESCENDING,0.0000,1.35075,0.48158,-2.11910,0.06680,1.57080,-3.01912,-0.09677,-0.44240,0.37970,,
11.0508,1,DESCENDING,0.0000,1.35075,0.48158,-2.11910,0.06680,1.57080,-3.01912,-0.09677,-0.44240,0.37970,,
11.0513,1,DESCENDING,0.0000,1.35075,0.48158,-2.11910,0.06680,1.57080,-3.01912,-0.09677,-0.44240,0.37970,,
11.0516,1,DESCENDING,0.0000,1.35075,0.48158,-2.11910,0.06680,1.57080,-3.01912,-0.09677,-0.44240,0.37970,,
11.0632,1,DESCENDING,0.0000,1.35075,0.48158,-2.11914,0.06684,1.57080,-3.01912,-0.09677,-0.44240,0.37968,,
11.0665,1,DESCENDING,0.0000,1.35075,0.48158,-2.11915,0.06686,1.57080,-3.01912,-0.09677,-0.44240,0.37967,,
11.0748,1,DESCENDING,0.0000,1.35075,0.48158,-2.11916,0.06686,1.57080,-3.01912,-0.09677,-0.44240,0.37967,,
11.0848,1,DESCENDING,0.0000,1.35075,0.48158,-2.11919,0.06689,1.57080,-3.01912,-0.09677,-0.44240,0.37965,,
11.0959,1,DESCENDING,0.0000,1.35075,0.48158,-2.11922,0.06693,1.57080,-3.01912,-0.09677,-0.44240,0.37963,,
11.1163,1,DESCENDING,0.0000,1.35075,0.48157,-2.11926,0.06697,1.57080,-3.01912,-0.09677,-0.44240,0.37961,,
11.1171,1,DESCENDING,0.0000,1.35075,0.48157,-2.11927,0.06698,1.57080,-3.01912,-0.09677,-0.44240,0.37960,,
11.1295,1,DESCENDING,0.0000,1.35075,0.48157,-2.11931,0.06703,1.57080,-3.01912,-0.09677,-0.44240,0.37958,,
11.1364,1,DESCENDING,0.0000,1.35075,0.48157,-2.11932,0.06703,1.57080,-3.01912,-0.09677,-0.44240,0.37958,,
