Martins-Lucaas/RoboticArm/sensors/Data/20260621_173243__samples.csv
t_rel_s,cycle,phase,force_net_n,q1,q2,q3,q4,q5,q6,tcp_x,tcp_y,tcp_z,touch_value,touch_age_ms
0.0012,0,IDLE,-0.0000,1.35075,0.48284,-2.09928,0.04573,1.57080,-3.01912,-0.09677,-0.44240,0.39130,,
0.0113,1,HOME,-0.0000,1.35075,0.48284,-2.09928,0.04573,1.57080,-3.01912,-0.09677,-0.44240,0.39130,,
0.0413,1,HOME,-0.0000,1.35075,0.48284,-2.09928,0.04573,1.57080,-3.01912,-0.09677,-0.44240,0.39130,,
0.0418,1,HOME,-0.0000,1.35075,0.48284,-2.09928,0.04573,1.57080,-3.01912,-0.09677,-0.44240,0.39130,,
0.0550,1,HOME,-0.0000,1.35075,0.48284,-2.09928,0.04573,1.57080,-3.01912,-0.09677,-0.44240,0.39130,,
0.0635,1,HOME,-0.0000,1.35075,0.48284,-2.09928,0.04573,1.57080,-3.01912,-0.09677,-0.44240,0.39130,,
0.0756,1,HOME,-0.0000,1.35075,0.48284,-2.09928,0.04573,1.57080,-3.01912,-0.09677,-0.44240,0.39130,,
0.0817,1,HOME,-0.0000,1.35075,0.48284,-2.09928,0.04573,1.57080,-3.01912,-0.09677,-0.44240,0.39130,,
0.0939,1,HOME,-0.0000,1.35075,0.48284,-2.09928,0.04573,1.57080,-3.01912,-0.09677,-0.44240,0.39130,,
0.1035,1,HOME,-0.0000,1.35075,0.48284,-2.09928,0.04573,1.57080,-3.01912,-0.09677,-0.44240,0.39130,,
0.1114,1,HOME,-0.0000,1.35075,0.48284,-2.09928,0.04573,1.57080,-3.01912,-0.09677,-0.44240,0.39130,,
0.1299,1,HOME,-0.0000,1.35075,0.48284,-2.09928,0.04573,1.57080,-3.01912,-0.09677,-0.44240,0.39130,,
0.1340,1,HOME,-0.0000,1.35075,0.48284,-2.09928,0.04573,1.57080,-3.01912,-0.09677,-0.44240,0.39130,,
0.1443,1,HOME,-0.0000,1.35075,0.48284,-2.09928,0.04573,1.57080,-3.01912,-0.09677,-0.44240,0.39130,,
0.1553,1,HOME,-0.0000,1.35075,0.48284,-2.09928,0.04573,1.57080,-3.01912,-0.09677,-0.44240,0.39130,,
0.1642,1,HOME,-0.0000,1.35075,0.48284,-2.09928,0.04573,1.57080,-3.01912,-0.09677,-0.44240,0.39130,,
0.1770,1,HOME,-0.0000,1.35075,0.48284,-2.09928,0.04573,1.57080,-3.01912,-0.09677,-0.44240,0.39130,,
0.1816,1,HOME,-0.0000,1.35075,0.48284,-2.09928,0.04573,1.57080,-3.01912,-0.09677,-0.44240,0.39130,,
0.1915,1,HOME,-0.0000,1.35075,0.48284,-2.09928,0.04573,1.57080,-3.01912,-0.09677,-0.44240,0.39130,,
0.2010,1,HOME,-0.0000,1.35075,0.48284,-2.09928,0.04573,1.57080,-3.01912,-0.09677,-0.44240,0.39130,,
0.2162,1,HOME,-0.0000,1.35075,0.48284,-2.09928,0.04573,1.57080,-3.01912,-0.09677,-0.44240,0.39130,,
0.2213,1,HOME,-0.0000,1.35075,0.48284,-2.09928,0.04573,1.57080,-3.01912,-0.09677,-0.44240,0.39130,,
0.2308,1,HOME,-0.0000,1.35075,0.48284,-2.09928,0.04573,1.57080,-3.01912,-0.09677,-0.44240,0.39130,,
0.2851,1,HOME,-0.0000,1.35075,0.48284,-2.09928,0.04573,1.57080,-3.01912,-0.09677,-0.44240,0.39130,,
0.3107,1,HOME,-0.0000,1.35075,0.48284,-2.09928,0.04573,1.57080,-3.01912,-0.09677,-0.44240,0.39130,,
0.3227,1,HOME,-0.0000,1.35075,0.48284,-2.09928,0.04573,1.57080,-3.01912,-0.09677,-0.44240,0.39130,,
0.3394,1,HOME,-0.0000,1.35075,0.48284,-2.09928,0.04573,1.57080,-3.01912,-0.09677,-0.44240,0.39130,,
0.3495,1,HOME,-0.0000,1.35075,0.48284,-2.09928,0.04573,1.57080,-3.01912,-0.09677,-0.44240,0.39130,,
0.3670,1,HOME,-0.0000,1.35075,0.48284,-2.09928,0.04573,1.57080,-3.01912,-0.09677,-0.44240,0.39130,,
0.3770,1,HOME,-0.0000,1.35075,0.48284,-2.09928,0.04573,1.57080,-3.01912,-0.09677,-0.44240,0.39130,,
0.3779,1,HOME,-0.0000,1.35075,0.48284,-2.09928,0.04573,1.57080,-3.01912,-0.09677,-0.44240,0.39130,,
0.3858,1,HOME,-0.0000,1.35075,0.48284,-2.09928,0.04573,1.57080,-3.01912,-0.09677,-0.44240,0.39130,,
0.3871,1,HOME,-0.0000,1.35075,0.48284,-2.09928,0.04573,1.57080,-3.01912,-0.09677,-0.44240,0.39130,,
0.4021,1,HOME,-0.0000,1.35075,0.48284,-2.09928,0.04573,1.57080,-3.01912,-0.09677,-0.44240,0.39130,,
0.4060,1,HOME,-0.0000,1.35075,0.48284,-2.09928,0.04573,1.57080,-3.01912,-0.09677,-0.44240,0.39130,,
0.4064,1,HOME,-0.0000,1.35075,0.48284,-2.09928,0.04573,1.57080,-3.01912,-0.09677,-0.44240,0.39130,,
0.4122,1,HOME,-0.0000,1.35075,0.48284,-2.09928,0.04573,1.57080,-3.01912,-0.09677,-0.44240,0.39130,,
0.4215,1,HOME,-0.0000,1.35075,0.48284,-2.09928,0.04573,1.57080,-3.01912,-0.09677,-0.44240,0.39130,,
0.4360,1,HOME,-0.0000,1.35075,0.48284,-2.09928,0.04573,1.57080,-3.01912,-0.09677,-0.44240,0.39130,,
0.4427,1,HOME,-0.0000,1.35075,0.48284,-2.09928,0.04573,1.57080,-3.01912,-0.09677,-0.44240,0.39130,,
0.4525,1,HOME,-0.0000,1.35075,0.48284,-2.09928,0.04573,1.57080,-3.01912,-0.09677,-0.44240,0.39130,,
0.4657,1,HOME,-0.0000,1.35075,0.48284,-2.09928,0.04573,1.57080,-3.01912,-0.09677,-0.44240,0.39130,,
0.4717,1,HOME,-0.0000,1.35075,0.48284,-2.09928,0.04573,1.57080,-3.01912,-0.09677,-0.44240,0.39130,,
0.4826,1,HOME,-0.0000,1.35075,0.48284,-2.09928,0.04573,1.57080,-3.01912,-0.09677,-0.44240,0.39130,,
0.4937,1,HOME,-0.0000,1.35075,0.48284,-2.09928,0.04573,1.57080,-3.01912,-0.09677,-0.44240,0.39130,,
0.5049,1,HOME,-0.0000,1.35075,0.48284,-2.09928,0.04573,1.57080,-3.01912,-0.09677,-0.44240,0.39130,,
0.5124,1,HOME,-0.0000,1.35075,0.48284,-2.09928,0.04573,1.57080,-3.01912,-0.09677,-0.44240,0.39130,,
0.5254,1,HOME,-0.0000,1.35075,0.48284,-2.09928,0.04573,1.57080,-3.01912,-0.09677,-0.44240,0.39130,,
0.5466,1,HOME,-0.0000,1.35075,0.48284,-2.09928,0.04573,1.57080,-3.01912,-0.09677,-0.44240,0.39130,,
0.5472,1,HOME,-0.0000,1.35075,0.48284,-2.09928,0.04573,1.57080,-3.01912,-0.09677,-0.44240,0.39130,,
0.5578,1,HOME,-0.0000,1.35075,0.48284,-2.09928,0.04573,1.57080,-3.01912,-0.09677,-0.44240,0.39130,,
0.5662,1,HOME,-0.0000,1.35075,0.48284,-2.09928,0.04573,1.57080,-3.01912,-0.09677,-0.44240,0.39130,,
0.5740,1,HOME,-0.0000,1.35075,0.48284,-2.09928,0.04573,1.57080,-3.01912,-0.09677,-0.44240,0.39130,,
0.5823,1,HOME,-0.0000,1.35075,0.48284,-2.09928,0.04573,1.57080,-3.01912,-0.09677,-0.44240,0.39130,,
0.5929,1,HOME,-0.0000,1.35075,0.48284,-2.09928,0.04573,1.57080,-3.01912,-0.09677,-0.44240,0.39130,,
0.6026,1,HOME,-0.0000,1.35075,0.48284,-2.09928,0.04573,1.57080,-3.01912,-0.09677,-0.44240,0.39130,,
0.6121,1,HOME,-0.0000,1.35075,0.48284,-2.09928,0.04573,1.57080,-3.01912,-0.09677,-0.44240,0.39130,,
0.6262,1,HOME,-0.0000,1.35075,0.48284,-2.09928,0.04573,1.57080,-3.01912,-0.09677,-0.44240,0.39130,,
0.6309,1,HOME,-0.0000,1.35075,0.48284,-2.09928,0.04573,1.57080,-3.01912,-0.09677,-0.44240,0.39130,,
0.6420,1,HOME,-0.0000,1.35075,0.48284,-2.09928,0.04573,1.57080,-3.01912,-0.09677,-0.44240,0.39130,,
0.6531,1,HOME,-0.0000,1.35075,0.48284,-2.09928,0.04573,1.57080,-3.01912,-0.09677,-0.44240,0.39130,,
0.6667,1,HOME,-0.0000,1.35075,0.48284,-2.09928,0.04573,1.57080,-3.01912,-0.09677,-0.44240,0.39130,,
0.6709,1,HOME,-0.0000,1.35075,0.48284,-2.09928,0.04573,1.57080,-3.01912,-0.09677,-0.44240,0.39130,,
0.6838,1,HOME,-0.0000,1.35075,0.48284,-2.09928,0.04573,1.57080,-3.01912,-0.09677,-0.44240,0.39130,,
0.7619,1,DESCENDING,-0.0000,1.35075,0.48284,-2.09928,0.04573,1.57080,-3.01912,-0.09677,-0.44240,0.39130,,
0.7901,1,DESCENDING,-0.0000,1.35075,0.48284,-2.09928,0.04573,1.57080,-3.01912,-0.09677,-0.44240,0.39130,,
0.7909,1,DESCENDING,-0.0000,1.35075,0.48284,-2.09928,0.04573,1.57080,-3.01912,-0.09677,-0.44240,0.39130,,
0.8011,1,DESCENDING,-0.0000,1.35075,0.48284,-2.09928,0.04573,1.57080,-3.01912,-0.09677,-0.44240,0.39130,,
0.8016,1,DESCENDING,-0.0000,1.35075,0.48284,-2.09928,0.04573,1.57080,-3.01912,-0.09677,-0.44240,0.39130,,
0.8027,1,DESCENDING,-0.0000,1.35075,0.48284,-2.09928,0.04573,1.57080,-3.01912,-0.09677,-0.44240,0.39130,,
0.8044,1,DESCENDING,-0.0000,1.35075,0.48284,-2.09928,0.04573,1.57080,-3.01912,-0.09677,-0.44240,0.39130,,
0.8048,1,DESCENDING,-0.0000,1.35075,0.48284,-2.09928,0.04573,1.57080,-3.01912,-0.09677,-0.44240,0.39130,,
0.8053,1,DESCENDING,-0.0000,1.35075,0.48284,-2.09928,0.04573,1.57080,-3.01912,-0.09677,-0.44240,0.39130,,
0.8059,1,DESCENDING,-0.0000,1.35075,0.48284,-2.09928,0.04573,1.57080,-3.01912,-0.09677,-0.44240,0.39130,,
0.8140,1,DESCENDING,-0.0000,1.35075,0.48284,-2.09928,0.04573,1.57080,-3.01912,-0.09677,-0.44240,0.39130,,
0.8209,1,DESCENDING,-0.0000,1.35075,0.48284,-2.09928,0.04573,1.57080,-3.01912,-0.09677,-0.44240,0.39130,,
0.8325,1,DESCENDING,-0.0000,1.35075,0.48284,-2.09928,0.04573,1.57080,-3.01912,-0.09677,-0.44240,0.39130,,
0.8466,1,DESCENDING,-0.0000,1.35075,0.48284,-2.09928,0.04573,1.57080,-3.01912,-0.09677,-0.44240,0.39130,,
0.8514,1,DESCENDING,-0.0000,1.35075,0.48284,-2.09928,0.04573,1.57080,-3.01912,-0.09677,-0.44240,0.39130,,
0.8650,1,DESCENDING,-0.0000,1.35075,0.48284,-2.09928,0.04573,1.57080,-3.01912,-0.09677,-0.44240,0.39130,,
0.8729,1,DESCENDING,-0.0000,1.35075,0.48284,-2.09928,0.04573,1.57080,-3.01912,-0.09677,-0.44240,0.39130,,
0.8818,1,DESCENDING,-0.0000,1.35075,0.48284,-2.09928,0.04573,1.57080,-3.01912,-0.09677,-0.44240,0.39130,,
0.8939,1,DESCENDING,-0.0000,1.35075,0.48284,-2.09928,0.04573,1.57080,-3.01912,-0.09677,-0.44240,0.39130,,
0.9030,1,DESCENDING,-0.0000,1.35075,0.48284,-2.09928,0.04573,1.57080,-3.01912,-0.09677,-0.44240,0.39130,,
0.9140,1,DESCENDING,-0.0000,1.35075,0.48284,-2.09928,0.04573,1.57080,-3.01912,-0.09677,-0.44240,0.39130,,
0.9226,1,DESCENDING,-0.0000,1.35075,0.48284,-2.09928,0.04573,1.57080,-3.01912,-0.09677,-0.44240,0.39130,,
0.9361,1,DESCENDING,-0.0000,1.35075,0.48283,-2.09933,0.04578,1.57080,-3.01912,-0.09677,-0.44240,0.39127,,
0.9541,1,DESCENDING,-0.0000,1.35075,0.48283,-2.09947,0.04593,1.57080,-3.01912,-0.09677,-0.44240,0.39119,,
0.9548,1,DESCENDING,-0.0000,1.35075,0.48283,-2.09947,0.04593,1.57080,-3.01912,-0.09677,-0.44240,0.39119,,
0.9612,1,DESCENDING,-0.0000,1.35075,0.48283,-2.09947,0.04593,1.57080,-3.01912,-0.09677,-0.44240,0.39119,,
0.9742,1,DESCENDING,-0.0000,1.35075,0.48282,-2.09957,0.04603,1.57080,-3.01912,-0.09677,-0.44240,0.39113,,
0.9822,1,DESCENDING,-0.0000,1.35075,0.48282,-2.09960,0.04606,1.57080,-3.01912,-0.09677,-0.44240,0.39112,,
0.9948,1,DESCENDING,-0.0000,1.35075,0.48282,-2.09964,0.04611,1.57080,-3.01912,-0.09677,-0.44240,0.39109,,
1.0018,1,DESCENDING,-0.0000,1.35075,0.48281,-2.09970,0.04617,1.57080,-3.01912,-0.09677,-0.44240,0.39106,,
1.0123,1,DESCENDING,-0.0000,1.35075,0.48281,-2.09976,0.04623,1.57080,-3.01912,-0.09677,-0.44240,0.39102,,
1.0219,1,DESCENDING,-0.0000,1.35075,0.48281,-2.09978,0.04625,1.57080,-3.01912,-0.09677,-0.44240,0.39101,,
1.0309,1,DESCENDING,-0.0000,1.35075,0.48281,-2.09983,0.04631,1.57080,-3.01912,-0.09677,-0.44240,0.39098,,
1.0415,1,DESCENDING,-0.0000,1.35075,0.48280,-2.09989,0.04637,1.57080,-3.01912,-0.09677,-0.44240,0.39095,,
1.0515,1,DESCENDING,-0.0000,1.35075,0.48280,-2.09991,0.04639,1.57080,-3.01912,-0.09677,-0.44240,0.39093,,
1.0613,1,DESCENDING,-0.0000,1.35075,0.48280,-2.09996,0.04644,1.57080,-3.01912,-0.09677,-0.44240,0.39091,,
1.0771,1,DESCENDING,-0.0000,1.35075,0.48280,-2.10005,0.04654,1.57080,-3.01912,-0.09677,-0.44240,0.39085,,
1.0859,1,DESCENDING,-0.0000,1.35075,0.48279,-2.10009,0.04658,1.57080,-3.01912,-0.09677,-0.44240,0.39083,,
1.0932,1,DESCENDING,-0.0000,1.35075,0.48279,-2.10012,0.04661,1.57080,-3.01912,-0.09677,-0.44240,0.39081,,
1.1030,1,DESCENDING,-0.0000,1.35075,0.48279,-2.10021,0.04671,1.57080,-3.01912,-0.09677,-0.44240,0.39076,,
1.1191,1,DESCENDING,-0.0000,1.35075,0.48279,-2.10024,0.04674,1.57080,-3.01912,-0.09677,-0.44240,0.39074,,
1.1229,1,DESCENDING,-0.0000,1.35075,0.48279,-2.10026,0.04676,1.57080,-3.01912,-0.09677,-0.44240,0.39073,,
1.1307,1,DESCENDING,-0.0000,1.35075,0.48278,-2.10031,0.04682,1.57080,-3.01912,-0.09677,-0.44240,0.39070,,
1.1415,1,DESCENDING,-0.0000,1.35075,0.48278,-2.10033,0.04684,1.57080,-3.01912,-0.09677,-0.44240,0.39069,,
1.1577,1,DESCENDING,-0.0000,1.35075,0.48278,-2.10045,0.04696,1.57080,-3.01912,-0.09677,-0.44240,0.39062,,
1.1635,1,DESCENDING,-0.0000,1.35075,0.48277,-2.10048,0.04699,1.57080,-3.01912,-0.09677,-0.44240,0.39060,,
1.1720,1,DESCENDING,-0.0000,1.35075,0.48277,-2.10048,0.04699,1.57080,-3.01912,-0.09677,-0.44240,0.39060,,
1.1813,1,DESCENDING,-0.0000,1.35075,0.48277,-2.10051,0.04702,1.57080,-3.01912,-0.09677,-0.44240,0.39058,,
1.1915,1,DESCENDING,-0.0000,1.35075,0.48277,-2.10058,0.04710,1.57080,-3.01912,-0.09677,-0.44240,0.39054,,
1.2053,1,DESCENDING,-0.0000,1.35075,0.48277,-2.10060,0.04712,1.57080,-3.01912,-0.09677,-0.44240,0.39053,,
1.2164,1,DESCENDING,-0.0000,1.35075,0.48276,-2.10068,0.04721,1.57080,-3.01912,-0.09677,-0.44240,0.39048,,
1.2223,1,DESCENDING,-0.0000,1.35075,0.48276,-2.10075,0.04727,1.57080,-3.01912,-0.09677,-0.44240,0.39045,,
1.2318,1,DESCENDING,-0.0000,1.35075,0.48276,-2.10075,0.04728,1.57080,-3.01912,-0.09677,-0.44240,0.39044,,
1.2409,1,DESCENDING,-0.0000,1.35075,0.48276,-2.10078,0.04730,1.57080,-3.01912,-0.09677,-0.44240,0.39043,,
1.2623,1,DESCENDING,-0.0000,1.35075,0.48275,-2.10087,0.04740,1.57080,-3.01912,-0.09677,-0.44240,0.39038,,
1.2643,1,DESCENDING,-0.0000,1.35075,0.48275,-2.10087,0.04740,1.57080,-3.01912,-0.09677,-0.44240,0.39038,,
1.2767,1,DESCENDING,-0.0000,1.35075,0.48275,-2.10095,0.04749,1.57080,-3.01912,-0.09677,-0.44240,0.39033,,
1.2819,1,DESCENDING,-0.0000,1.35075,0.48275,-2.10101,0.04755,1.57080,-3.01912,-0.09677,-0.44240,0.39029,,
1.2911,1,DESCENDING,-0.0000,1.35075,0.48275,-2.10102,0.04756,1.57080,-3.01912,-0.09677,-0.44240,0.39029,,
1.3246,1,DESCENDING,-0.0000,1.35075,0.48274,-2.10114,0.04768,1.57080,-3.01912,-0.09677,-0.44240,0.39022,,
1.3285,1,DESCENDING,-0.0000,1.35075,0.48274,-2.10116,0.04771,1.57080,-3.01912,-0.09677,-0.44240,0.39021,,
1.3289,1,DESCENDING,-0.0000,1.35075,0.48274,-2.10116,0.04771,1.57080,-3.01912,-0.09677,-0.44240,0.39021,,
1.3310,1,DESCENDING,-0.0000,1.35075,0.48274,-2.10119,0.04774,1.57080,-3.01912,-0.09677,-0.44240,0.39019,,
1.3414,1,DESCENDING,-0.0000,1.35075,0.48273,-2.10125,0.04780,1.57080,-3.01912,-0.09677,-0.44240,0.39015,,
1.3641,1,DESCENDING,-0.0000,1.35075,0.48273,-2.10133,0.04789,1.57080,-3.01912,-0.09677,-0.44240,0.39011,,
1.3656,1,DESCENDING,-0.0000,1.35075,0.48273,-2.10136,0.04791,1.57080,-3.01912,-0.09677,-0.44240,0.39009,,
1.3706,1,DESCENDING,-0.0000,1.35075,0.48273,-2.10138,0.04794,1.57080,-3.01912,-0.09677,-0.44240,0.39008,,
1.3853,1,DESCENDING,-0.0000,1.35075,0.48273,-2.10140,0.04796,1.57080,-3.01912,-0.09677,-0.44240,0.39006,,
1.3926,1,DESCENDING,-0.0000,1.35075,0.48272,-2.10145,0.04802,1.57080,-3.01912,-0.09677,-0.44240,0.39003,,
1.4012,1,DESCENDING,-0.0000,1.35075,0.48272,-2.10152,0.04808,1.57080,-3.01912,-0.09677,-0.44240,0.39000,,
1.4115,1,DESCENDING,-0.0000,1.35075,0.48272,-2.10155,0.04812,1.57080,-3.01912,-0.09677,-0.44240,0.38998,,
1.4260,1,DESCENDING,-0.0000,1.35075,0.48271,-2.10162,0.04820,1.57080,-3.01912,-0.09677,-0.44240,0.38994,,
1.4309,1,DESCENDING,-0.0000,1.35075,0.48271,-2.10165,0.04822,1.57080,-3.01912,-0.09677,-0.44240,0.38992,,
1.4420,1,DESCENDING,-0.0000,1.35075,0.48271,-2.10167,0.04824,1.57080,-3.01912,-0.09677,-0.44240,0.38991,,
1.4885,1,DESCENDING,-0.0000,1.35075,0.48270,-2.10191,0.04850,1.57080,-3.01912,-0.09677,-0.44240,0.38977,,
1.4951,1,DESCENDING,-0.0000,1.35075,0.48270,-2.10194,0.04853,1.57080,-3.01912,-0.09677,-0.44240,0.38975,,
1.4964,1,DESCENDING,-0.0000,1.35075,0.48270,-2.10194,0.04853,1.57080,-3.01912,-0.09677,-0.44240,0.38975,,
1.4970,1,DESCENDING,-0.0000,1.35075,0.48270,-2.10194,0.04853,1.57080,-3.01912,-0.09677,-0.44240,0.38975,,
1.4973,1,DESCENDING,-0.0000,1.35075,0.48270,-2.10194,0.04853,1.57080,-3.01912,-0.09677,-0.44240,0.38975,,
1.5126,1,DESCENDING,-0.0000,1.35075,0.48269,-2.10201,0.04861,1.57080,-3.01912,-0.09677,-0.44240,0.38971,,
1.5147,1,DESCENDING,-0.0000,1.35075,0.48269,-2.10204,0.04864,1.57080,-3.01912,-0.09677,-0.44240,0.38969,,
1.5231,1,DESCENDING,-0.0000,1.35075,0.48269,-2.10211,0.04870,1.57080,-3.01912,-0.09677,-0.44240,0.38966,,
1.5331,1,DESCENDING,-0.0000,1.35075,0.48269,-2.10211,0.04871,1.57080,-3.01912,-0.09677,-0.44240,0.38965,,
1.5425,1,DESCENDING,-0.0000,1.35075,0.48268,-2.10217,0.04878,1.57080,-3.01912,-0.09677,-0.44240,0.38961,,
1.5520,1,DESCENDING,-0.0000,1.35075,0.48268,-2.10224,0.04884,1.57080,-3.01912,-0.09677,-0.44240,0.38958,,
1.5625,1,DESCENDING,-0.0000,1.35075,0.48268,-2.10227,0.04888,1.57080,-3.01912,-0.09677,-0.44240,0.38956,,
1.5876,1,DESCENDING,-0.0000,1.35075,0.48267,-2.10237,0.04898,1.57080,-3.01912,-0.09677,-0.44240,0.38950,,
1.5923,1,DESCENDING,-0.0000,1.35075,0.48267,-2.10237,0.04899,1.57080,-3.01912,-0.09677,-0.44240,0.38950,,
1.5933,1,DESCENDING,-0.0000,1.35075,0.48267,-2.10237,0.04899,1.57080,-3.01912,-0.09677,-0.44240,0.38950,,
1.6018,1,DESCENDING,-0.0000,1.35075,0.48267,-2.10244,0.04906,1.57080,-3.01912,-0.09677,-0.44240,0.38946,,
1.6162,1,DESCENDING,-0.0000,1.35075,0.48267,-2.10250,0.04912,1.57080,-3.01912,-0.09677,-0.44240,0.38942,,
1.6223,1,DESCENDING,-0.0000,1.35075,0.48267,-2.10252,0.04914,1.57080,-3.01912,-0.09677,-0.44240,0.38941,,
1.6317,1,DESCENDING,-0.0000,1.35075,0.48266,-2.10257,0.04920,1.57080,-3.01912,-0.09677,-0.44240,0.38938,,
1.6421,1,DESCENDING,-0.0000,1.35075,0.48266,-2.10266,0.04929,1.57080,-3.01912,-0.09677,-0.44240,0.38933,,
1.6555,1,DESCENDING,-0.0000,1.35075,0.48266,-2.10268,0.04931,1.57080,-3.01912,-0.09677,-0.44240,0.38932,,
1.6780,1,DESCENDING,-0.0000,1.35075,0.48265,-2.10282,0.04946,1.57080,-3.01912,-0.09677,-0.44240,0.38924,,
1.6838,1,DESCENDING,-0.0000,1.35075,0.48265,-2.10283,0.04947,1.57080,-3.01912,-0.09677,-0.44240,0.38923,,
1.6848,1,DESCENDING,-0.0000,1.35075,0.48265,-2.10283,0.04947,1.57080,-3.01912,-0.09677,-0.44240,0.38923,,
1.6920,1,DESCENDING,-0.0000,1.35075,0.48265,-2.10286,0.04949,1.57080,-3.01912,-0.09677,-0.44240,0.38922,,
1.7014,1,DESCENDING,-0.0000,1.35075,0.48264,-2.10290,0.04954,1.57080,-3.01912,-0.09677,-0.44240,0.38919,,
1.7115,1,DESCENDING,-0.0000,1.35075,0.48264,-2.10293,0.04958,1.57080,-3.01912,-0.09677,-0.44240,0.38917,,
1.7729,1,DESCENDING,-0.0000,1.35075,0.48263,-2.10320,0.04986,1.57080,-3.01912,-0.09677,-0.44240,0.38902,,
1.7765,1,DESCENDING,-0.0000,1.35075,0.48263,-2.10321,0.04987,1.57080,-3.01912,-0.09677,-0.44240,0.38901,,
1.7769,1,DESCENDING,-0.0000,1.35075,0.48263,-2.10321,0.04987,1.57080,-3.01912,-0.09677,-0.44240,0.38901,,
1.7778,1,DESCENDING,-0.0000,1.35075,0.48263,-2.10324,0.04990,1.57080,-3.01912,-0.09677,-0.44240,0.38900,,
1.7820,1,DESCENDING,-0.0000,1.35075,0.48262,-2.10326,0.04993,1.57080,-3.01912,-0.09677,-0.44240,0.38898,,
1.7846,1,DESCENDING,-0.0000,1.35075,0.48262,-2.10326,0.04993,1.57080,-3.01912,-0.09677,-0.44240,0.38898,,
1.7945,1,DESCENDING,-0.0000,1.35075,0.48262,-2.10336,0.05003,1.57080,-3.01912,-0.09677,-0.44240,0.38892,,
1.7964,1,DESCENDING,-0.0000,1.35075,0.48262,-2.10336,0.05003,1.57080,-3.01912,-0.09677,-0.44240,0.38892,,
1.8022,1,DESCENDING,-0.0000,1.35075,0.48262,-2.10336,0.05003,1.57080,-3.01912,-0.09677,-0.44240,0.38892,,
1.8138,1,DESCENDING,-0.0000,1.35075,0.48262,-2.10341,0.05008,1.57080,-3.01912,-0.09677,-0.44240,0.38889,,
1.8218,1,DESCENDING,-0.0000,1.35075,0.48261,-2.10346,0.05013,1.57080,-3.01912,-0.09677,-0.44240,0.38886,,
1.8315,1,DESCENDING,-0.0000,1.35075,0.48261,-2.10347,0.05014,1.57080,-3.01912,-0.09677,-0.44240,0.38886,,
1.8410,1,DESCENDING,-0.0000,1.35075,0.48261,-2.10350,0.05018,1.57080,-3.01912,-0.09677,-0.44240,0.38884,,
1.8534,1,DESCENDING,-0.0000,1.35075,0.48261,-2.10359,0.05027,1.57080,-3.01912,-0.09677,-0.44240,0.38879,,
1.8622,1,DESCENDING,-0.0000,1.35075,0.48260,-2.10363,0.05031,1.57080,-3.01912,-0.09677,-0.44240,0.38877,,
1.8743,1,DESCENDING,-0.0000,1.35075,0.48260,-2.10368,0.05036,1.57080,-3.01912,-0.09677,-0.44240,0.38874,,
1.8847,1,DESCENDING,-0.0000,1.35075,0.48260,-2.10373,0.05041,1.57080,-3.01912,-0.09677,-0.44240,0.38871,,
1.8972,1,DESCENDING,-0.0000,1.35075,0.48260,-2.10375,0.05044,1.57080,-3.01912,-0.09677,-0.44240,0.38870,,
1.9035,1,DESCENDING,-0.0000,1.35075,0.48259,-2.10380,0.05049,1.57080,-3.01912,-0.09677,-0.44240,0.38867,,
1.9130,1,DESCENDING,-0.0000,1.35075,0.48259,-2.10386,0.05056,1.57080,-3.01912,-0.09677,-0.44240,0.38863,,
1.9221,1,DESCENDING,-0.0000,1.35075,0.48259,-2.10390,0.05059,1.57080,-3.01912,-0.09677,-0.44240,0.38861,,
1.9343,1,DESCENDING,-0.0000,1.35075,0.48259,-2.10394,0.05064,1.57080,-3.01912,-0.09677,-0.44240,0.38858,,
1.9447,1,DESCENDING,-0.0000,1.35075,0.48258,-2.10399,0.05070,1.57080,-3.01912,-0.09677,-0.44240,0.38855,,
1.9511,1,DESCENDING,-0.0000,1.35075,0.48258,-2.10400,0.05070,1.57080,-3.01912,-0.09677,-0.44240,0.38855,,
1.9615,1,DESCENDING,-0.0000,1.35075,0.48258,-2.10404,0.05074,1.57080,-3.01912,-0.09677,-0.44240,0.38853,,
1.9720,1,DESCENDING,-0.0000,1.35075,0.48258,-2.10413,0.05084,1.57080,-3.01912,-0.09677,-0.44240,0.38848,,
1.9816,1,DESCENDING,-0.0000,1.35075,0.48257,-2.10416,0.05087,1.57080,-3.01912,-0.09677,-0.44240,0.38846,,
1.9986,1,DESCENDING,-0.0000,1.35075,0.48257,-2.10423,0.05095,1.57080,-3.01912,-0.09677,-0.44240,0.38841,,
2.0009,1,DESCENDING,-0.0000,1.35075,0.48257,-2.10423,0.05095,1.57080,-3.01912,-0.09677,-0.44240,0.38841,,
2.0110,1,DESCENDING,-0.0000,1.35075,0.48257,-2.10427,0.05098,1.57080,-3.01912,-0.09677,-0.44240,0.38839,,
2.0246,1,DESCENDING,-0.0000,1.35075,0.48256,-2.10433,0.05105,1.57080,-3.01912,-0.09677,-0.44240,0.38836,,
2.0326,1,DESCENDING,-0.0000,1.35075,0.48256,-2.10439,0.05112,1.57080,-3.01912,-0.09677,-0.44240,0.38832,,
2.0430,1,DESCENDING,-0.0000,1.35075,0.48256,-2.10443,0.05116,1.57080,-3.01912,-0.09677,-0.44240,0.38830,,
2.0509,1,DESCENDING,-0.0000,1.35075,0.48256,-2.10447,0.05120,1.57080,-3.01912,-0.09677,-0.44240,0.38828,,
2.0616,1,DESCENDING,-0.0000,1.35075,0.48255,-2.10452,0.05126,1.57080,-3.01912,-0.09677,-0.44240,0.38824,,
2.0815,1,DESCENDING,-0.0000,1.35075,0.48255,-2.10460,0.05134,1.57080,-3.01912,-0.09677,-0.44240,0.38820,,
2.0824,1,DESCENDING,-0.0000,1.35075,0.48255,-2.10462,0.05135,1.57080,-3.01912,-0.09677,-0.44240,0.38819,,
2.0941,1,DESCENDING,-0.0000,1.35075,0.48254,-2.10469,0.05143,1.57080,-3.01912,-0.09677,-0.44240,0.38815,,
2.1029,1,DESCENDING,-0.0000,1.35075,0.48254,-2.10469,0.05144,1.57080,-3.01912,-0.09677,-0.44240,0.38815,,
2.1179,1,DESCENDING,-0.0000,1.35075,0.48254,-2.10479,0.05154,1.57080,-3.01912,-0.09677,-0.44240,0.38809,,
2.1210,1,DESCENDING,-0.0000,1.35075,0.48254,-2.10479,0.05154,1.57080,-3.01912,-0.09677,-0.44240,0.38809,,
2.1348,1,DESCENDING,-0.0000,1.35075,0.48253,-2.10486,0.05161,1.57080,-3.01912,-0.09677,-0.44240,0.38805,,
2.1432,1,DESCENDING,-0.0000,1.35075,0.48253,-2.10488,0.05164,1.57080,-3.01912,-0.09677,-0.44240,0.38803,,
2.1517,1,DESCENDING,-0.0000,1.35075,0.48253,-2.10493,0.05168,1.57080,-3.01912,-0.09677,-0.44240,0.38801,,
2.1622,1,DESCENDING,-0.0000,1.35075,0.48253,-2.10496,0.05172,1.57080,-3.01912,-0.09677,-0.44240,0.38799,,
2.1840,1,DESCENDING,-0.0000,1.35075,0.48252,-2.10509,0.05185,1.57080,-3.01912,-0.09677,-0.44240,0.38791,,
2.1843,1,DESCENDING,-0.0000,1.35075,0.48252,-2.10509,0.05185,1.57080,-3.01912,-0.09677,-0.44240,0.38791,,
2.1911,1,DESCENDING,-0.0000,1.35075,0.48252,-2.10512,0.05189,1.57080,-3.01912,-0.09677,-0.44240,0.38790,,
2.2025,1,DESCENDING,-0.0000,1.35075,0.48252,-2.10515,0.05192,1.57080,-3.01912,-0.09677,-0.44240,0.38788,,
2.2112,1,DESCENDING,-0.0000,1.35075,0.48251,-2.10520,0.05197,1.57080,-3.01912,-0.09677,-0.44240,0.38785,,
2.2233,1,DESCENDING,-0.0000,1.35075,0.48251,-2.10523,0.05200,1.57080,-3.01912,-0.09677,-0.44240,0.38783,,
2.2345,1,DESCENDING,-0.0000,1.35075,0.48251,-2.10529,0.05207,1.57080,-3.01912,-0.09677,-0.44240,0.38780,,
2.2465,1,DESCENDING,-0.0000,1.35075,0.48250,-2.10539,0.05217,1.57080,-3.01912,-0.09677,-0.44240,0.38774,,
2.2694,1,DESCENDING,-0.0000,1.35075,0.48250,-2.10544,0.05222,1.57080,-3.01912,-0.09677,-0.44240,0.38771,,
2.3563,1,DESCENDING,-0.0000,1.35075,0.48248,-2.10583,0.05263,1.57080,-3.01912,-0.09677,-0.44240,0.38748,,
2.3567,1,DESCENDING,-0.0000,1.35075,0.48248,-2.10583,0.05263,1.57080,-3.01912,-0.09677,-0.44240,0.38748,,
2.3614,1,DESCENDING,-0.0000,1.35075,0.48248,-2.10586,0.05267,1.57080,-3.01912,-0.09677,-0.44240,0.38747,,
2.3709,1,DESCENDING,-0.0000,1.35075,0.48247,-2.10592,0.05273,1.57080,-3.01912,-0.09677,-0.44240,0.38743,,
2.3870,1,DESCENDING,-0.0000,1.35075,0.48247,-2.10597,0.05279,1.57080,-3.01912,-0.09677,-0.44240,0.38740,,
2.3905,1,DESCENDING,-0.0000,1.35075,0.48247,-2.10599,0.05281,1.57080,-3.01912,-0.09677,-0.44240,0.38739,,
2.4006,1,DESCENDING,-0.0000,1.35075,0.48247,-2.10602,0.05284,1.57080,-3.01912,-0.09677,-0.44240,0.38737,,
2.4109,1,DESCENDING,-0.0000,1.35075,0.48246,-2.10606,0.05289,1.57080,-3.01912,-0.09677,-0.44240,0.38735,,
2.4246,1,DESCENDING,-0.0000,1.35075,0.48246,-2.10616,0.05298,1.57080,-3.01912,-0.09677,-0.44240,0.38729,,
2.4345,1,DESCENDING,-0.0000,1.35075,0.48246,-2.10619,0.05302,1.57080,-3.01912,-0.09677,-0.44240,0.38727,,
2.4415,1,DESCENDING,-0.0000,1.35075,0.48246,-2.10620,0.05303,1.57080,-3.01912,-0.09677,-0.44240,0.38727,,
2.4512,1,DESCENDING,-0.0000,1.35075,0.48245,-2.10626,0.05309,1.57080,-3.01912,-0.09677,-0.44240,0.38723,,
2.4611,1,DESCENDING,-0.0000,1.35075,0.48245,-2.10629,0.05312,1.57080,-3.01912,-0.09677,-0.44240,0.38721,,
2.4729,1,DESCENDING,-0.0000,1.35075,0.48245,-2.10633,0.05317,1.57080,-3.01912,-0.09677,-0.44240,0.38719,,
2.4827,1,DESCENDING,-0.0000,1.35075,0.48244,-2.10642,0.05326,1.57080,-3.01912,-0.09677,-0.44240,0.38714,,
2.4906,1,DESCENDING,-0.0000,1.35075,0.48244,-2.10645,0.05330,1.57080,-3.01912,-0.09677,-0.44240,0.38712,,
2.5041,1,DESCENDING,-0.0000,1.35075,0.48244,-2.10648,0.05333,1.57080,-3.01912,-0.09677,-0.44240,0.38710,,
2.5125,1,DESCENDING,-0.0000,1.35075,0.48244,-2.10653,0.05338,1.57080,-3.01912,-0.09677,-0.44240,0.38707,,
2.5208,1,DESCENDING,-0.0000,1.35075,0.48243,-2.10655,0.05340,1.57080,-3.01912,-0.09677,-0.44240,0.38706,,
2.5309,1,DESCENDING,-0.0000,1.35075,0.48243,-2.10660,0.05345,1.57080,-3.01912,-0.09677,-0.44240,0.38703,,
2.5449,1,DESCENDING,-0.0000,1.35075,0.48243,-2.10669,0.05355,1.57080,-3.01912,-0.09677,-0.44240,0.38698,,
2.5529,1,DESCENDING,-0.0000,1.35075,0.48242,-2.10672,0.05358,1.57080,-3.01912,-0.09677,-0.44240,0.38696,,
2.5604,1,DESCENDING,-0.0000,1.35075,0.48242,-2.10673,0.05359,1.57080,-3.01912,-0.09677,-0.44240,0.38695,,
2.5748,1,DESCENDING,-0.0000,1.35075,0.48242,-2.10682,0.05369,1.57080,-3.01912,-0.09677,-0.44240,0.38690,,
2.5867,1,DESCENDING,-0.0000,1.35075,0.48242,-2.10684,0.05371,1.57080,-3.01912,-0.09677,-0.44240,0.38689,,
2.5916,1,DESCENDING,-0.0000,1.35075,0.48242,-2.10686,0.05373,1.57080,-3.01912,-0.09677,-0.44240,0.38688,,
2.6054,1,DESCENDING,-0.0000,1.35075,0.48241,-2.10695,0.05383,1.57080,-3.01912,-0.09677,-0.44240,0.38683,,
2.6118,1,DESCENDING,-0.0000,1.35075,0.48241,-2.10698,0.05386,1.57080,-3.01912,-0.09677,-0.44240,0.38681,,
2.6208,1,DESCENDING,-0.0000,1.35075,0.48241,-2.10700,0.05388,1.57080,-3.01912,-0.09677,-0.44240,0.38680,,
2.6474,1,DESCENDING,-0.0000,1.35075,0.48240,-2.10711,0.05399,1.57080,-3.01912,-0.09677,-0.44240,0.38674,,
2.6478,1,DESCENDING,-0.0000,1.35075,0.48240,-2.10711,0.05399,1.57080,-3.01912,-0.09677,-0.44240,0.38674,,
2.6552,1,DESCENDING,-0.0000,1.35075,0.48240,-2.10716,0.05404,1.57080,-3.01912,-0.09677,-0.44240,0.38671,,
2.6635,1,DESCENDING,-0.0000,1.35075,0.48239,-2.10722,0.05411,1.57080,-3.01912,-0.09677,-0.44240,0.38667,,
2.6719,1,DESCENDING,-0.0000,1.35075,0.48239,-2.10725,0.05414,1.57080,-3.01912,-0.09677,-0.44240,0.38665,,
2.6940,1,DESCENDING,-0.0000,1.35075,0.48239,-2.10733,0.05422,1.57080,-3.01912,-0.09677,-0.44240,0.38661,,
2.7020,1,DESCENDING,-0.0000,1.35075,0.48239,-2.10735,0.05425,1.57080,-3.01912,-0.09677,-0.44240,0.38659,,
2.7025,1,DESCENDING,-0.0000,1.35075,0.48239,-2.10735,0.05425,1.57080,-3.01912,-0.09677,-0.44240,0.38659,,
2.7167,1,DESCENDING,-0.0000,1.35075,0.48238,-2.10742,0.05433,1.57080,-3.01912,-0.09677,-0.44240,0.38655,,
2.7228,1,DESCENDING,-0.0000,1.35075,0.48238,-2.10749,0.05439,1.57080,-3.01912,-0.09677,-0.44240,0.38651,,
2.7324,1,DESCENDING,-0.0000,1.35075,0.48238,-2.10752,0.05443,1.57080,-3.01912,-0.09677,-0.44240,0.38650,,
2.7409,1,DESCENDING,-0.0000,1.35075,0.48238,-2.10753,0.05444,1.57080,-3.01912,-0.09677,-0.44240,0.38649,,
2.7558,1,DESCENDING,-0.0000,1.35075,0.48237,-2.10762,0.05453,1.57080,-3.01912,-0.09677,-0.44240,0.38644,,
2.7623,1,DESCENDING,-0.0000,1.35075,0.48237,-2.10762,0.05453,1.57080,-3.01912,-0.09677,-0.44240,0.38644,,
2.8112,1,DESCENDING,-0.0000,1.35075,0.48236,-2.10786,0.05479,1.57080,-3.01912,-0.09677,-0.44240,0.38630,,
2.8270,1,DESCENDING,-0.0000,1.35075,0.48235,-2.10791,0.05484,1.57080,-3.01912,-0.09677,-0.44240,0.38627,,
2.8276,1,DESCENDING,-0.0000,1.35075,0.48235,-2.10791,0.05484,1.57080,-3.01912,-0.09677,-0.44240,0.38627,,
2.8309,1,DESCENDING,-0.0000,1.35075,0.48235,-2.10793,0.05486,1.57080,-3.01912,-0.09677,-0.44240,0.38626,,
2.8626,1,DESCENDING,-0.0000,1.35075,0.48234,-2.10806,0.05501,1.57080,-3.01912,-0.09677,-0.44240,0.38618,,
2.8635,1,DESCENDING,-0.0000,1.35075,0.48234,-2.10808,0.05502,1.57080,-3.01912,-0.09677,-0.44240,0.38617,,
2.8638,1,DESCENDING,-0.0000,1.35075,0.48234,-2.10808,0.05502,1.57080,-3.01912,-0.09677,-0.44240,0.38617,,
2.8748,1,DESCENDING,-0.0000,1.35075,0.48234,-2.10815,0.05510,1.57080,-3.01912,-0.09677,-0.44240,0.38613,,
2.8810,1,DESCENDING,-0.0000,1.35075,0.48234,-2.10815,0.05510,1.57080,-3.01912,-0.09677,-0.44240,0.38613,,
2.8930,1,DESCENDING,-0.0000,1.35075,0.48234,-2.10819,0.05514,1.57080,-3.01912,-0.09677,-0.44240,0.38610,,
2.9027,1,DESCENDING,-0.0000,1.35075,0.48233,-2.10828,0.05524,1.57080,-3.01912,-0.09677,-0.44240,0.38605,,
2.9127,1,DESCENDING,-0.0000,1.35075,0.48233,-2.10832,0.05527,1.57080,-3.01912,-0.09677,-0.44240,0.38603,,
2.9206,1,DESCENDING,-0.0000,1.35075,0.48233,-2.10833,0.05529,1.57080,-3.01912,-0.09677,-0.44240,0.38602,,
2.9309,1,DESCENDING,-0.0000,1.35075,0.48232,-2.10839,0.05535,1.57080,-3.01912,-0.09677,-0.44240,0.38599,,
2.9406,1,DESCENDING,-0.0000,1.35075,0.48232,-2.10842,0.05538,1.57080,-3.01912,-0.09677,-0.44240,0.38597,,
2.9549,1,DESCENDING,-0.0000,1.35075,0.48232,-2.10849,0.05546,1.57080,-3.01912,-0.09677,-0.44240,0.38593,,
2.9664,1,DESCENDING,-0.0000,1.35075,0.48231,-2.10855,0.05552,1.57080,-3.01912,-0.09677,-0.44240,0.38589,,
2.9708,1,DESCENDING,-0.0000,1.35075,0.48231,-2.10858,0.05556,1.57080,-3.01912,-0.09677,-0.44240,0.38587,,
2.9805,1,DESCENDING,-0.0000,1.35075,0.48231,-2.10860,0.05558,1.57080,-3.01912,-0.09677,-0.44240,0.38586,,
2.9953,1,DESCENDING,-0.0000,1.35075,0.48230,-2.10871,0.05569,1.57080,-3.01912,-0.09677,-0.44240,0.38580,,
3.0044,1,DESCENDING,-0.0000,1.35075,0.48230,-2.10872,0.05570,1.57080,-3.01912,-0.09677,-0.44240,0.38579,,
3.0136,1,DESCENDING,-0.0000,1.35075,0.48230,-2.10875,0.05574,1.57080,-3.01912,-0.09677,-0.44240,0.38577,,
3.0399,1,DESCENDING,-0.0000,1.35075,0.48229,-2.10889,0.05588,1.57080,-3.01912,-0.09677,-0.44240,0.38569,,
3.0584,1,DESCENDING,-0.0000,1.35075,0.48228,-2.10900,0.05600,1.57080,-3.01912,-0.09677,-0.44240,0.38563,,
3.0592,1,DESCENDING,-0.0000,1.35075,0.48228,-2.10900,0.05600,1.57080,-3.01912,-0.09677,-0.44240,0.38563,,
3.0612,1,DESCENDING,-0.0000,1.35075,0.48228,-2.10900,0.05600,1.57080,-3.01912,-0.09677,-0.44240,0.38563,,
3.0733,1,DESCENDING,-0.0000,1.35075,0.48228,-2.10904,0.05605,1.57080,-3.01912,-0.09677,-0.44240,0.38560,,
3.0830,1,DESCENDING,-0.0000,1.35075,0.48228,-2.10913,0.05614,1.57080,-3.01912,-0.09677,-0.44240,0.38555,,
3.1054,1,DESCENDING,-0.0000,1.35075,0.48227,-2.10920,0.05622,1.57080,-3.01912,-0.09677,-0.44240,0.38551,,
3.1059,1,DESCENDING,-0.0000,1.35075,0.48227,-2.10920,0.05622,1.57080,-3.01912,-0.09677,-0.44240,0.38551,,
3.1109,1,DESCENDING,-0.0000,1.35075,0.48227,-2.10926,0.05628,1.57080,-3.01912,-0.09677,-0.44240,0.38548,,
3.1241,1,DESCENDING,-0.0000,1.35075,0.48226,-2.10932,0.05634,1.57080,-3.01912,-0.09677,-0.44240,0.38544,,
3.1328,1,DESCENDING,-0.0000,1.35075,0.48226,-2.10934,0.05636,1.57080,-3.01912,-0.09677,-0.44240,0.38543,,
3.1420,1,DESCENDING,-0.0000,1.35075,0.48226,-2.10937,0.05640,1.57080,-3.01912,-0.09677,-0.44240,0.38541,,
3.1510,1,DESCENDING,-0.0000,1.35075,0.48226,-2.10942,0.05645,1.57080,-3.01912,-0.09677,-0.44240,0.38538,,
3.1620,1,DESCENDING,-0.0000,1.35075,0.48226,-2.10944,0.05647,1.57080,-3.01912,-0.09677,-0.44240,0.38537,,
3.1711,1,DESCENDING,-0.0000,1.35075,0.48225,-2.10953,0.05656,1.57080,-3.01912,-0.09677,-0.44240,0.38532,,
3.1844,1,DESCENDING,-0.0000,1.35075,0.48225,-2.10959,0.05663,1.57080,-3.01912,-0.09677,-0.44240,0.38528,,
3.1909,1,DESCENDING,-0.0000,1.35075,0.48225,-2.10960,0.05664,1.57080,-3.01912,-0.09677,-0.44240,0.38528,,
3.2020,1,DESCENDING,-0.0000,1.35075,0.48224,-2.10964,0.05668,1.57080,-3.01912,-0.09677,-0.44240,0.38525,,
3.2137,1,DESCENDING,-0.0000,1.35075,0.48224,-2.10969,0.05673,1.57080,-3.01912,-0.09677,-0.44240,0.38523,,
3.2378,1,DESCENDING,-0.0000,1.35075,0.48223,-2.10982,0.05688,1.57080,-3.01912,-0.09677,-0.44240,0.38515,,
3.2745,1,DESCENDING,-0.0000,1.35075,0.48222,-2.10996,0.05702,1.57080,-3.01912,-0.09677,-0.44240,0.38507,,
3.3037,1,DESCENDING,-0.0000,1.35075,0.48221,-2.11012,0.05719,1.57080,-3.01912,-0.09677,-0.44240,0.38497,,
3.3041,1,DESCENDING,-0.0000,1.35075,0.48221,-2.11012,0.05719,1.57080,-3.01912,-0.09677,-0.44240,0.38497,,
3.3082,1,DESCENDING,-0.0000,1.35075,0.48221,-2.11012,0.05720,1.57080,-3.01912,-0.09677,-0.44240,0.38497,,
3.3817,1,DESCENDING,-0.0000,1.35075,0.48219,-2.11044,0.05753,1.57080,-3.01912,-0.09677,-0.44240,0.38479,,
3.3821,1,DESCENDING,-0.0000,1.35075,0.48219,-2.11044,0.05753,1.57080,-3.01912,-0.09677,-0.44240,0.38479,,
3.4112,1,DESCENDING,-0.0000,1.35075,0.48218,-2.11059,0.05769,1.57080,-3.01912,-0.09677,-0.44240,0.38470,,
3.4959,1,DESCENDING,-0.0000,1.35075,0.48216,-2.11096,0.05808,1.57080,-3.01912,-0.09677,-0.44240,0.38448,,
3.4963,1,DESCENDING,-0.0000,1.35075,0.48216,-2.11096,0.05808,1.57080,-3.01912,-0.09677,-0.44240,0.38448,,
3.6117,1,DESCENDING,-0.0000,1.35075,0.48212,-2.11152,0.05868,1.57080,-3.01912,-0.09677,-0.44240,0.38416,,
3.6171,1,DESCENDING,-0.0000,1.35075,0.48212,-2.11154,0.05870,1.57080,-3.01912,-0.09677,-0.44240,0.38414,,
3.6795,1,DESCENDING,-0.0000,1.35075,0.48210,-2.11183,0.05901,1.57080,-3.01912,-0.09677,-0.44240,0.38397,,
3.7442,1,DESCENDING,-0.0000,1.35075,0.48208,-2.11213,0.05933,1.57080,-3.01912,-0.09677,-0.44240,0.38380,,
3.7454,1,DESCENDING,-0.0000,1.35075,0.48208,-2.11213,0.05933,1.57080,-3.01912,-0.09677,-0.44240,0.38380,,
3.8791,1,DESCENDING,-0.0000,1.35075,0.48204,-2.11272,0.05997,1.57080,-3.01912,-0.09677,-0.44240,0.38345,,
3.8796,1,DESCENDING,-0.0000,1.35075,0.48204,-2.11272,0.05997,1.57080,-3.01912,-0.09677,-0.44240,0.38345,,
3.8863,1,DESCENDING,-0.0000,1.35075,0.48204,-2.11273,0.05998,1.57080,-3.01912,-0.09677,-0.44240,0.38344,,
3.9012,1,DESCENDING,-0.0000,1.35075,0.48204,-2.11282,0.06007,1.57080,-3.01912,-0.09677,-0.44240,0.38339,,
3.9340,1,DESCENDING,-0.0000,1.35075,0.48202,-2.11298,0.06024,1.57080,-3.01912,-0.09677,-0.44240,0.38330,,
3.9754,1,DESCENDING,-0.0000,1.35075,0.48201,-2.11313,0.06040,1.57080,-3.01912,-0.09677,-0.44240,0.38321,,
3.9758,1,DESCENDING,-0.0000,1.35075,0.48201,-2.11313,0.06040,1.57080,-3.01912,-0.09677,-0.44240,0.38321,,
3.9926,1,DESCENDING,-0.0000,1.35075,0.48201,-2.11325,0.06053,1.57080,-3.01912,-0.09677,-0.44240,0.38314,,
3.9964,1,DESCENDING,-0.0000,1.35075,0.48201,-2.11325,0.06053,1.57080,-3.01912,-0.09677,-0.44240,0.38314,,
4.0392,1,DESCENDING,-0.0000,1.35075,0.48199,-2.11342,0.06071,1.57080,-3.01912,-0.09677,-0.44240,0.38304,,
4.0456,1,DESCENDING,-0.0000,1.35075,0.48199,-2.11345,0.06074,1.57080,-3.01912,-0.09677,-0.44240,0.38302,,
4.0461,1,DESCENDING,-0.0000,1.35075,0.48199,-2.11345,0.06074,1.57080,-3.01912,-0.09677,-0.44240,0.38302,,
4.0560,1,DESCENDING,-0.0000,1.35075,0.48199,-2.11352,0.06081,1.57080,-3.01912,-0.09677,-0.44240,0.38298,,
4.1017,1,DESCENDING,-0.0000,1.35075,0.48198,-2.11369,0.06100,1.57080,-3.01912,-0.09677,-0.44240,0.38288,,
4.1480,1,DESCENDING,-0.0000,1.35075,0.48196,-2.11389,0.06121,1.57080,-3.01912,-0.09677,-0.44240,0.38277,,
4.1825,1,DESCENDING,-0.0000,1.35075,0.48195,-2.11405,0.06138,1.57080,-3.01912,-0.09677,-0.44240,0.38267,,
4.1865,1,DESCENDING,-0.0000,1.35075,0.48195,-2.11406,0.06139,1.57080,-3.01912,-0.09677,-0.44240,0.38266,,
4.2393,1,DESCENDING,-0.0000,1.35075,0.48193,-2.11431,0.06166,1.57080,-3.01912,-0.09677,-0.44240,0.38252,,
4.2483,1,DESCENDING,-0.0000,1.35075,0.48193,-2.11434,0.06169,1.57080,-3.01912,-0.09677,-0.44240,0.38250,,
4.2488,1,DESCENDING,-0.0000,1.35075,0.48193,-2.11434,0.06169,1.57080,-3.01912,-0.09677,-0.44240,0.38250,,
4.2586,1,DESCENDING,-0.0000,1.35075,0.48193,-2.11439,0.06174,1.57080,-3.01912,-0.09677,-0.44240,0.38247,,
4.2969,1,DESCENDING,-0.0000,1.35075,0.48192,-2.11458,0.06195,1.57080,-3.01912,-0.09677,-0.44240,0.38236,,
4.3005,1,DESCENDING,-0.0000,1.35075,0.48191,-2.11458,0.06195,1.57080,-3.01912,-0.09677,-0.44240,0.38236,,
4.3042,1,DESCENDING,-0.0000,1.35075,0.48191,-2.11459,0.06196,1.57080,-3.01912,-0.09677,-0.44240,0.38235,,
4.3809,1,DESCENDING,-0.0000,1.35075,0.48189,-2.11494,0.06234,1.57080,-3.01912,-0.09677,-0.44240,0.38215,,
4.3962,1,DESCENDING,-0.0000,1.35075,0.48189,-2.11499,0.06238,1.57080,-3.01912,-0.09677,-0.44240,0.38212,,
4.4027,1,DESCENDING,-0.0000,1.35075,0.48188,-2.11501,0.06241,1.57080,-3.01912,-0.09677,-0.44240,0.38210,,
4.4463,1,DESCENDING,-0.0000,1.35075,0.48187,-2.11524,0.06265,1.57080,-3.01912,-0.09677,-0.44240,0.38197,,
4.5025,1,DESCENDING,-0.0000,1.35075,0.48185,-2.11552,0.06296,1.57080,-3.01912,-0.09677,-0.44240,0.38180,,
4.5065,1,DESCENDING,-0.0000,1.35075,0.48185,-2.11552,0.06296,1.57080,-3.01912,-0.09677,-0.44240,0.38180,,
4.5607,1,DESCENDING,-0.0000,1.35075,0.48183,-2.11581,0.06327,1.57080,-3.01912,-0.09677,-0.44240,0.38163,,
4.5680,1,DESCENDING,-0.0000,1.35075,0.48183,-2.11582,0.06328,1.57080,-3.01912,-0.09677,-0.44240,0.38163,,
4.5683,1,DESCENDING,-0.0000,1.35075,0.48183,-2.11582,0.06328,1.57080,-3.01912,-0.09677,-0.44240,0.38163,,
4.5931,1,DESCENDING,-0.0000,1.35075,0.48182,-2.11597,0.06344,1.57080,-3.01912,-0.09677,-0.44240,0.38154,,
4.6226,1,DESCENDING,-0.0000,1.35075,0.48181,-2.11610,0.06358,1.57080,-3.01912,-0.09677,-0.44240,0.38147,,
4.6263,1,DESCENDING,-0.0000,1.35075,0.48180,-2.11613,0.06361,1.57080,-3.01912,-0.09677,-0.44240,0.38145,,
4.6400,1,DESCENDING,-0.0000,1.35075,0.48180,-2.11616,0.06365,1.57080,-3.01912,-0.09677,-0.44240,0.38143,,
4.6470,1,DESCENDING,-0.0000,1.35075,0.48180,-2.11618,0.06367,1.57080,-3.01912,-0.09677,-0.44240,0.38142,,
4.6960,1,DESCENDING,-0.0000,1.35075,0.48178,-2.11641,0.06391,1.57080,-3.01912,-0.09677,-0.44240,0.38129,,
4.6966,1,DESCENDING,-0.0000,1.35075,0.48178,-2.11641,0.06391,1.57080,-3.01912,-0.09677,-0.44240,0.38129,,
4.7041,1,DESCENDING,-0.0000,1.35075,0.48178,-2.11647,0.06397,1.57080,-3.01912,-0.09677,-0.44240,0.38125,,
4.7121,1,DESCENDING,-0.0000,1.35075,0.48178,-2.11653,0.06403,1.57080,-3.01912,-0.09677,-0.44240,0.38122,,
4.7208,1,DESCENDING,-0.0000,1.35075,0.48178,-2.11653,0.06404,1.57080,-3.01912,-0.09677,-0.44240,0.38121,,
4.7367,1,DESCENDING,-0.0000,1.35075,0.48177,-2.11662,0.06414,1.57080,-3.01912,-0.09677,-0.44240,0.38116,,
4.7426,1,DESCENDING,-0.0000,1.35075,0.48177,-2.11666,0.06417,1.57080,-3.01912,-0.09677,-0.44240,0.38114,,
4.7524,1,DESCENDING,-0.0000,1.35075,0.48176,-2.11669,0.06421,1.57080,-3.01912,-0.09677,-0.44240,0.38112,,
4.7643,1,DESCENDING,-0.0000,1.35075,0.48176,-2.11674,0.06426,1.57080,-3.01912,-0.09677,-0.44240,0.38109,,
4.7711,1,DESCENDING,-0.0000,1.35075,0.48176,-2.11676,0.06429,1.57080,-3.01912,-0.09677,-0.44240,0.38108,,
4.7866,1,DESCENDING,-0.0000,1.35075,0.48176,-2.11681,0.06434,1.57080,-3.01912,-0.09677,-0.44240,0.38105,,
4.7908,1,DESCENDING,-0.0000,1.35075,0.48175,-2.11683,0.06436,1.57080,-3.01912,-0.09677,-0.44240,0.38104,,
5.0263,1,DESCENDING,-0.0000,1.35075,0.48168,-2.11787,0.06547,1.57080,-3.01912,-0.09677,-0.44240,0.38043,,
5.0268,1,DESCENDING,-0.0000,1.35075,0.48168,-2.11787,0.06547,1.57080,-3.01912,-0.09677,-0.44240,0.38043,,
5.0500,1,DESCENDING,-0.0000,1.35075,0.48167,-2.11801,0.06563,1.57080,-3.01912,-0.09677,-0.44240,0.38034,,
5.0504,1,DESCENDING,-0.0000,1.35075,0.48167,-2.11801,0.06563,1.57080,-3.01912,-0.09677,-0.44240,0.38034,,
5.0507,1,DESCENDING,-0.0000,1.35075,0.48167,-2.11801,0.06563,1.57080,-3.01912,-0.09677,-0.44240,0.38034,,
5.0511,1,DESCENDING,-0.0000,1.35075,0.48167,-2.11801,0.06563,1.57080,-3.01912,-0.09677,-0.44240,0.38034,,
5.0627,1,DESCENDING,-0.0000,1.35075,0.48167,-2.11804,0.06566,1.57080,-3.01912,-0.09677,-0.44240,0.38033,,
5.0725,1,DESCENDING,-0.0000,1.35075,0.48166,-2.11811,0.06574,1.57080,-3.01912,-0.09677,-0.44240,0.38028,,
5.0805,1,DESCENDING,-0.0000,1.35075,0.48166,-2.11812,0.06574,1.57080,-3.01912,-0.09677,-0.44240,0.38028,,
5.0978,1,DESCENDING,-0.0000,1.35075,0.48165,-2.11821,0.06584,1.57080,-3.01912,-0.09677,-0.44240,0.38022,,
5.1044,1,DESCENDING,-0.0000,1.35075,0.48165,-2.11827,0.06591,1.57080,-3.01912,-0.09677,-0.44240,0.38019,,
5.1137,1,DESCENDING,-0.0000,1.35075,0.48165,-2.11828,0.06592,1.57080,-3.01912,-0.09677,-0.44240,0.38019,,
5.1225,1,DESCENDING,-0.0000,1.35075,0.48164,-2.11832,0.06596,1.57080,-3.01912,-0.09677,-0.44240,0.38016,,
5.1320,1,DESCENDING,-0.0000,1.35075,0.48164,-2.11840,0.06605,1.57080,-3.01912,-0.09677,-0.44240,0.38011,,
5.1474,1,DESCENDING,-0.0000,1.35075,0.48164,-2.11842,0.06607,1.57080,-3.01912,-0.09677,-0.44240,0.38010,,
5.1520,1,DESCENDING,-0.0000,1.35075,0.48163,-2.11847,0.06612,1.57080,-3.01912,-0.09677,-0.44240,0.38007,,
5.1620,1,DESCENDING,-0.0000,1.35075,0.48163,-2.11853,0.06619,1.57080,-3.01912,-0.09677,-0.44240,0.38004,,
5.1733,1,DESCENDING,-0.0000,1.35075,0.48163,-2.11857,0.06623,1.57080,-3.01912,-0.09677,-0.44240,0.38002,,
5.1806,1,DESCENDING,-0.0000,1.35075,0.48162,-2.11860,0.06627,1.57080,-3.01912,-0.09677,-0.44240,0.37999,,
5.2268,1,DESCENDING,-0.0000,1.35075,0.48160,-2.11885,0.06653,1.57080,-3.01912,-0.09677,-0.44240,0.37985,,
5.2308,1,DESCENDING,-0.0000,1.35075,0.48160,-2.11885,0.06653,1.57080,-3.01912,-0.09677,-0.44240,0.37985,,
5.2357,1,DESCENDING,-0.0000,1.35075,0.48160,-2.11887,0.06655,1.57080,-3.01912,-0.09677,-0.44240,0.37984,,
5.2486,1,DESCENDING,-0.0000,1.35075,0.48160,-2.11895,0.06664,1.57080,-3.01912,-0.09677,-0.44240,0.37979,,
5.2541,1,DESCENDING,-0.0000,1.35075,0.48159,-2.11898,0.06667,1.57080,-3.01912,-0.09677,-0.44240,0.37977,,
5.2605,1,DESCENDING,-0.0000,1.35075,0.48159,-2.11899,0.06668,1.57080,-3.01912,-0.09677,-0.44240,0.37977,,
5.2747,1,DESCENDING,-0.0000,1.35075,0.48159,-2.11905,0.06674,1.57080,-3.01912,-0.09677,-0.44240,0.37973,,
5.2854,1,DESCENDING,-0.0000,1.35075,0.48158,-2.11914,0.06684,1.57080,-3.01912,-0.09677,-0.44240,0.37968,,
5.2921,1,DESCENDING,-0.0000,1.35075,0.48158,-2.11915,0.06685,1.57080,-3.01912,-0.09677,-0.44240,0.37968,,
5.3029,1,DESCENDING,-0.0000,1.35075,0.48158,-2.11918,0.06689,1.57080,-3.01912,-0.09677,-0.44240,0.37966,,
5.3127,1,DESCENDING,-0.0000,1.35075,0.48157,-2.11927,0.06698,1.57080,-3.01912,-0.09677,-0.44240,0.37960,,
5.3204,1,DESCENDING,-0.0000,1.35075,0.48157,-2.11927,0.06699,1.57080,-3.01912,-0.09677,-0.44240,0.37960,,
5.3306,1,DESCENDING,-0.0000,1.35075,0.48157,-2.11931,0.06702,1.57080,-3.01912,-0.09677,-0.44240,0.37958,,
5.3430,1,DESCENDING,-0.0000,1.35075,0.48156,-2.11940,0.06712,1.57080,-3.01912,-0.09677,-0.44240,0.37953,,
5.3512,1,DESCENDING,-0.0000,1.35075,0.48156,-2.11943,0.06715,1.57080,-3.01912,-0.09677,-0.44240,0.37951,,
5.3624,1,DESCENDING,-0.0000,1.35075,0.48156,-2.11947,0.06720,1.57080,-3.01912,-0.09677,-0.44240,0.37949,,
5.3725,1,DESCENDING,-0.0000,1.35075,0.48155,-2.11956,0.06729,1.57080,-3.01912,-0.09677,-0.44240,0.37943,,
5.3847,1,DESCENDING,-0.0000,1.35075,0.48155,-2.11958,0.06731,1.57080,-3.01912,-0.09677,-0.44240,0.37942,,
5.3908,1,DESCENDING,-0.0000,1.35075,0.48155,-2.11960,0.06734,1.57080,-3.01912,-0.09677,-0.44240,0.37941,,
5.4055,1,DESCENDING,-0.0000,1.35075,0.48154,-2.11972,0.06746,1.57080,-3.01912,-0.09677,-0.44240,0.37934,,
5.4129,1,DESCENDING,-0.0000,1.35075,0.48154,-2.11972,0.06747,1.57080,-3.01912,-0.09677,-0.44240,0.37934,,
5.4252,1,DESCENDING,-0.0000,1.35075,0.48153,-2.11978,0.06754,1.57080,-3.01912,-0.09677,-0.44240,0.37930,,
5.4309,1,DESCENDING,-0.0000,1.35075,0.48153,-2.11981,0.06757,1.57080,-3.01912,-0.09677,-0.44240,0.37928,,
5.4415,1,DESCENDING,-0.0000,1.35075,0.48153,-2.11988,0.06763,1.57080,-3.01912,-0.09677,-0.44240,0.37925,,
5.4536,1,DESCENDING,-0.0000,1.35075,0.48152,-2.11991,0.06767,1.57080,-3.01912,-0.09677,-0.44240,0.37923,,
5.4607,1,DESCENDING,-0.0000,1.35075,0.48152,-2.11995,0.06771,1.57080,-3.01912,-0.09677,-0.44240,0.37920,,
5.4733,1,DESCENDING,-0.0000,1.35075,0.48152,-2.11998,0.06775,1.57080,-3.01912,-0.09677,-0.44240,0.37918,,
5.4809,1,DESCENDING,-0.0000,1.35075,0.48152,-2.12002,0.06779,1.57080,-3.01912,-0.09677,-0.44240,0.37916,,
5.4913,1,DESCENDING,-0.0000,1.35075,0.48151,-2.12008,0.06785,1.57080,-3.01912,-0.09677,-0.44240,0.37913,,
5.5052,1,DESCENDING,-0.0000,1.35075,0.48151,-2.12014,0.06792,1.57080,-3.01912,-0.09677,-0.44240,0.37909,,
5.5141,1,DESCENDING,-0.0000,1.35075,0.48150,-2.12017,0.06795,1.57080,-3.01912,-0.09677,-0.44240,0.37907,,
5.5332,1,DESCENDING,-0.0000,1.35075,0.48150,-2.12025,0.06803,1.57080,-3.01912,-0.09677,-0.44240,0.37903,,
5.5366,1,DESCENDING,-0.0000,1.35075,0.48150,-2.12026,0.06805,1.57080,-3.01912,-0.09677,-0.44240,0.37902,,
5.5449,1,DESCENDING,-0.0000,1.35075,0.48149,-2.12031,0.06810,1.57080,-3.01912,-0.09677,-0.44240,0.37899,,
5.5554,1,DESCENDING,-0.0000,1.35075,0.48149,-2.12037,0.06817,1.57080,-3.01912,-0.09677,-0.44240,0.37895,,
5.5940,1,DESCENDING,-0.0000,1.35075,0.48148,-2.12051,0.06832,1.57080,-3.01912,-0.09677,-0.44240,0.37887,,
5.6077,1,DESCENDING,-0.0000,1.35075,0.48147,-2.12058,0.06839,1.57080,-3.01912,-0.09677,-0.44240,0.37883,,
5.6082,1,DESCENDING,-0.0000,1.35075,0.48147,-2.12058,0.06839,1.57080,-3.01912,-0.09677,-0.44240,0.37883,,
5.6144,1,DESCENDING,-0.0000,1.35075,0.48147,-2.12064,0.06846,1.57080,-3.01912,-0.09677,-0.44240,0.37880,,
5.6266,1,DESCENDING,-0.0000,1.35075,0.48146,-2.12067,0.06849,1.57080,-3.01912,-0.09677,-0.44240,0.37878,,
5.6349,1,DESCENDING,-0.0000,1.35075,0.48146,-2.12070,0.06852,1.57080,-3.01912,-0.09677,-0.44240,0.37876,,
5.6406,1,DESCENDING,-0.0000,1.35075,0.48146,-2.12074,0.06857,1.57080,-3.01912,-0.09677,-0.44240,0.37874,,
5.6596,1,DESCENDING,-0.0000,1.35075,0.48146,-2.12079,0.06862,1.57080,-3.01912,-0.09677,-0.44240,0.37871,,
5.6637,1,DESCENDING,-0.0000,1.35075,0.48145,-2.12081,0.06864,1.57080,-3.01912,-0.09677,-0.44240,0.37869,,
5.6718,1,DESCENDING,-0.0000,1.35075,0.48145,-2.12087,0.06871,1.57080,-3.01912,-0.09677,-0.44240,0.37866,,
5.6874,1,DESCENDING,-0.0000,1.35075,0.48144,-2.12094,0.06878,1.57080,-3.01912,-0.09677,-0.44240,0.37862,,
5.6931,1,DESCENDING,-0.0000,1.35075,0.48144,-2.12096,0.06881,1.57080,-3.01912,-0.09677,-0.44240,0.37861,,
5.7021,1,DESCENDING,-0.0000,1.35075,0.48144,-2.12101,0.06885,1.57080,-3.01912,-0.09677,-0.44240,0.37858,,
5.7122,1,DESCENDING,-0.0000,1.35075,0.48144,-2.12103,0.06888,1.57080,-3.01912,-0.09677,-0.44240,0.37856,,
5.7218,1,DESCENDING,-0.0000,1.35075,0.48143,-2.12108,0.06893,1.57080,-3.01912,-0.09677,-0.44240,0.37854,,
5.7326,1,DESCENDING,-0.0000,1.35075,0.48143,-2.12117,0.06902,1.57080,-3.01912,-0.09677,-0.44240,0.37849,,
5.7416,1,DESCENDING,-0.0000,1.35075,0.48142,-2.12120,0.06906,1.57080,-3.01912,-0.09677,-0.44240,0.37847,,
5.7520,1,DESCENDING,-0.0000,1.35075,0.48142,-2.12121,0.06907,1.57080,-3.01912,-0.09677,-0.44240,0.37846,,
5.7657,1,DESCENDING,-0.0000,1.35075,0.48142,-2.12130,0.06917,1.57080,-3.01912,-0.09677,-0.44240,0.37841,,
5.7740,1,DESCENDING,-0.0000,1.35075,0.48142,-2.12130,0.06917,1.57080,-3.01912,-0.09677,-0.44240,0.37841,,
5.7816,1,DESCENDING,-0.0000,1.35075,0.48141,-2.12134,0.06921,1.57080,-3.01912,-0.09677,-0.44240,0.37838,,
5.7906,1,DESCENDING,-0.0000,1.35075,0.48141,-2.12140,0.06928,1.57080,-3.01912,-0.09677,-0.44240,0.37835,,
5.8049,1,DESCENDING,-0.0000,1.35075,0.48140,-2.12147,0.06935,1.57080,-3.01912,-0.09677,-0.44240,0.37831,,
5.8131,1,DESCENDING,-0.0000,1.35075,0.48140,-2.12149,0.06938,1.57080,-3.01912,-0.09677,-0.44240,0.37829,,
5.8244,1,DESCENDING,-0.0000,1.35075,0.48140,-2.12156,0.06945,1.57080,-3.01912,-0.09677,-0.44240,0.37825,,
5.8318,1,DESCENDING,-0.0000,1.35075,0.48140,-2.12156,0.06945,1.57080,-3.01912,-0.09677,-0.44240,0.37825,,
5.8410,1,DESCENDING,-0.0000,1.35075,0.48139,-2.12161,0.06950,1.57080,-3.01912,-0.09677,-0.44240,0.37823,,
5.8507,1,DESCENDING,-0.0000,1.35075,0.48139,-2.12166,0.06956,1.57080,-3.01912,-0.09677,-0.44240,0.37819,,
5.8629,1,DESCENDING,-0.0000,1.35075,0.48138,-2.12173,0.06963,1.57080,-3.01912,-0.09677,-0.44240,0.37816,,
5.8704,1,DESCENDING,-0.0000,1.35075,0.48138,-2.12174,0.06964,1.57080,-3.01912,-0.09677,-0.44240,0.37815,,
5.8832,1,DESCENDING,-0.0000,1.35075,0.48138,-2.12180,0.06971,1.57080,-3.01912,-0.09677,-0.44240,0.37811,,
5.8954,1,DESCENDING,-0.0000,1.35075,0.48137,-2.12183,0.06974,1.57080,-3.01912,-0.09677,-0.44240,0.37809,,
5.9015,1,DESCENDING,-0.0000,1.35075,0.48137,-2.12187,0.06978,1.57080,-3.01912,-0.09677,-0.44240,0.37807,,
5.9108,1,DESCENDING,-0.0000,1.35075,0.48137,-2.12193,0.06985,1.57080,-3.01912,-0.09677,-0.44240,0.37804,,
5.9251,1,DESCENDING,-0.0000,1.35075,0.48136,-2.12199,0.06992,1.57080,-3.01912,-0.09677,-0.44240,0.37800,,
5.9331,1,DESCENDING,-0.0000,1.35075,0.48136,-2.12202,0.06995,1.57080,-3.01912,-0.09677,-0.44240,0.37798,,
5.9409,1,DESCENDING,-0.0000,1.35075,0.48136,-2.12206,0.06999,1.57080,-3.01912,-0.09677,-0.44240,0.37796,,
5.9569,1,DESCENDING,-0.0000,1.35075,0.48135,-2.12211,0.07004,1.57080,-3.01912,-0.09677,-0.44240,0.37793,,
5.9669,1,DESCENDING,-0.0000,1.35075,0.48135,-2.12216,0.07010,1.57080,-3.01912,-0.09677,-0.44240,0.37790,,
5.9739,1,DESCENDING,-0.0000,1.35075,0.48134,-2.12222,0.07016,1.57080,-3.01912,-0.09677,-0.44240,0.37786,,
5.9923,1,DESCENDING,-0.0000,1.35075,0.48134,-2.12227,0.07021,1.57080,-3.01912,-0.09677,-0.44240,0.37784,,
6.0122,1,DESCENDING,-0.0000,1.35075,0.48133,-2.12235,0.07031,1.57080,-3.01912,-0.09677,-0.44240,0.37779,,
6.0129,1,DESCENDING,-0.0000,1.35075,0.48133,-2.12235,0.07031,1.57080,-3.01912,-0.09677,-0.44240,0.37779,,
6.0230,1,DESCENDING,-0.0000,1.35075,0.48133,-2.12240,0.07035,1.57080,-3.01912,-0.09677,-0.44240,0.37776,,
6.0329,1,DESCENDING,-0.0000,1.35075,0.48132,-2.12249,0.07045,1.57080,-3.01912,-0.09677,-0.44240,0.37771,,
6.0411,1,DESCENDING,-0.0000,1.35075,0.48132,-2.12252,0.07048,1.57080,-3.01912,-0.09677,-0.44240,0.37769,,
6.0517,1,DESCENDING,-0.0000,1.35075,0.48132,-2.12253,0.07050,1.57080,-3.01912,-0.09677,-0.44240,0.37768,,
6.0738,1,DESCENDING,-0.0000,1.35075,0.48131,-2.12262,0.07060,1.57080,-3.01912,-0.09677,-0.44240,0.37763,,
6.0743,1,DESCENDING,-0.0000,1.35075,0.48131,-2.12262,0.07060,1.57080,-3.01912,-0.09677,-0.44240,0.37763,,
6.0807,1,DESCENDING,-0.0000,1.35075,0.48131,-2.12266,0.07064,1.57080,-3.01912,-0.09677,-0.44240,0.37761,,
6.0940,1,DESCENDING,-0.0000,1.35075,0.48130,-2.12275,0.07073,1.57080,-3.01912,-0.09677,-0.44240,0.37755,,
6.1018,1,DESCENDING,-0.0000,1.35075,0.48130,-2.12278,0.07077,1.57080,-3.01912,-0.09677,-0.44240,0.37753,,
6.1114,1,DESCENDING,-0.0000,1.35075,0.48130,-2.12280,0.07079,1.57080,-3.01912,-0.09677,-0.44240,0.37752,,
6.1216,1,DESCENDING,-0.0000,1.35075,0.48129,-2.12288,0.07087,1.57080,-3.01912,-0.09677,-0.44240,0.37748,,
6.1348,1,DESCENDING,-0.0000,1.35075,0.48129,-2.12292,0.07091,1.57080,-3.01912,-0.09677,-0.44240,0.37746,,
6.1560,1,DESCENDING,-0.0000,1.35075,0.48128,-2.12304,0.07105,1.57080,-3.01912,-0.09677,-0.44240,0.37738,,
6.1607,1,DESCENDING,-0.0000,1.35075,0.48127,-2.12307,0.07108,1.57080,-3.01912,-0.09677,-0.44240,0.37736,,
6.1705,1,DESCENDING,-0.0000,1.35075,0.48127,-2.12309,0.07110,1.57080,-3.01912,-0.09677,-0.44240,0.37735,,
6.1810,1,DESCENDING,-0.0000,1.35075,0.48127,-2.12317,0.07118,1.57080,-3.01912,-0.09677,-0.44240,0.37731,,
6.2044,1,DESCENDING,-0.0000,1.35075,0.48126,-2.12324,0.07126,1.57080,-3.01912,-0.09677,-0.44240,0.37726,,
6.2068,1,DESCENDING,-0.0000,1.35075,0.48126,-2.12327,0.07129,1.57080,-3.01912,-0.09677,-0.44240,0.37725,,
6.2138,1,DESCENDING,-0.0000,1.35075,0.48125,-2.12333,0.07136,1.57080,-3.01912,-0.09677,-0.44240,0.37721,,
6.2241,1,DESCENDING,-0.0000,1.35075,0.48125,-2.12336,0.07139,1.57080,-3.01912,-0.09677,-0.44240,0.37720,,
6.2345,1,DESCENDING,-0.0000,1.35075,0.48125,-2.12340,0.07143,1.57080,-3.01912,-0.09677,-0.44240,0.37717,,
6.2418,1,DESCENDING,-0.0000,1.35075,0.48124,-2.12346,0.07150,1.57080,-3.01912,-0.09677,-0.44240,0.37714,,
6.2547,1,DESCENDING,-0.0000,1.35075,0.48124,-2.12352,0.07156,1.57080,-3.01912,-0.09677,-0.44240,0.37710,,
6.2615,1,DESCENDING,-0.0000,1.35075,0.48124,-2.12353,0.07158,1.57080,-3.01912,-0.09677,-0.44240,0.37709,,
6.2849,1,DESCENDING,-0.0000,1.35075,0.48123,-2.12362,0.07168,1.57080,-3.01912,-0.09677,-0.44240,0.37704,,
6.2941,1,DESCENDING,-0.0000,1.35075,0.48123,-2.12366,0.07172,1.57080,-3.01912,-0.09677,-0.44240,0.37702,,
6.3015,1,DESCENDING,-0.0000,1.35075,0.48122,-2.12372,0.07178,1.57080,-3.01912,-0.09677,-0.44240,0.37698,,
6.3104,1,DESCENDING,-0.0000,1.35075,0.48122,-2.12378,0.07185,1.57080,-3.01912,-0.09677,-0.44240,0.37695,,
6.3736,1,DESCENDING,-0.0000,1.35075,0.48119,-2.12404,0.07213,1.57080,-3.01912,-0.09677,-0.44240,0.37679,,
6.3740,1,DESCENDING,-0.0000,1.35075,0.48119,-2.12404,0.07213,1.57080,-3.01912,-0.09677,-0.44240,0.37679,,
6.4060,1,DESCENDING,-0.0000,1.35075,0.48119,-2.12415,0.07225,1.57080,-3.01912,-0.09677,-0.44240,0.37673,,
6.4063,1,DESCENDING,-0.0000,1.35075,0.48119,-2.12415,0.07225,1.57080,-3.01912,-0.09677,-0.44240,0.37673,,
6.4152,1,DESCENDING,-0.0000,1.35075,0.48118,-2.12419,0.07229,1.57080,-3.01912,-0.09677,-0.44240,0.37670,,
6.4214,1,DESCENDING,-0.0000,1.35075,0.48118,-2.12425,0.07235,1.57080,-3.01912,-0.09677,-0.44240,0.37667,,
6.4332,1,DESCENDING,-0.0000,1.35075,0.48117,-2.12431,0.07242,1.57080,-3.01912,-0.09677,-0.44240,0.37663,,
6.4467,1,DESCENDING,-0.0000,1.35075,0.48117,-2.12434,0.07245,1.57080,-3.01912,-0.09677,-0.44240,0.37662,,
6.4596,1,DESCENDING,-0.0000,1.35075,0.48116,-2.12441,0.07253,1.57080,-3.01912,-0.09677,-0.44240,0.37657,,
6.4639,1,DESCENDING,-0.0000,1.35075,0.48116,-2.12441,0.07253,1.57080,-3.01912,-0.09677,-0.44240,0.37657,,
6.4943,1,DESCENDING,-0.0000,1.35075,0.48115,-2.12457,0.07270,1.57080,-3.01912,-0.09677,-0.44240,0.37648,,
6.5110,1,DESCENDING,-0.0000,1.35075,0.48115,-2.12462,0.07276,1.57080,-3.01912,-0.09677,-0.44240,0.37645,,
6.5381,1,DESCENDING,-0.0000,1.35075,0.48114,-2.12474,0.07289,1.57080,-3.01912,-0.09677,-0.44240,0.37638,,
6.5544,1,DESCENDING,-0.0000,1.35075,0.48113,-2.12484,0.07299,1.57080,-3.01912,-0.09677,-0.44240,0.37632,,
6.5576,1,DESCENDING,-0.0000,1.35075,0.48113,-2.12484,0.07299,1.57080,-3.01912,-0.09677,-0.44240,0.37632,,
6.5771,1,DESCENDING,-0.0000,1.35075,0.48112,-2.12494,0.07310,1.57080,-3.01912,-0.09677,-0.44240,0.37626,,
6.6169,1,DESCENDING,-0.0000,1.35075,0.48111,-2.12510,0.07328,1.57080,-3.01912,-0.09677,-0.44240,0.37616,,
6.6561,1,DESCENDING,-0.0000,1.35075,0.48109,-2.12527,0.07346,1.57080,-3.01912,-0.09677,-0.44240,0.37607,,
6.6568,1,DESCENDING,-0.0000,1.35075,0.48109,-2.12527,0.07346,1.57080,-3.01912,-0.09677,-0.44240,0.37607,,
6.6892,1,DESCENDING,-0.0000,1.35075,0.48108,-2.12545,0.07366,1.57080,-3.01912,-0.09677,-0.44240,0.37596,,
6.6932,1,DESCENDING,-0.0000,1.35075,0.48108,-2.12548,0.07369,1.57080,-3.01912,-0.09677,-0.44240,0.37594,,
6.7353,1,DESCENDING,-0.0000,1.35075,0.48106,-2.12567,0.07390,1.57080,-3.01912,-0.09677,-0.44240,0.37583,,
6.7618,1,DESCENDING,-0.0000,1.35075,0.48105,-2.12580,0.07404,1.57080,-3.01912,-0.09677,-0.44240,0.37575,,
6.7852,1,DESCENDING,-0.0000,1.35075,0.48104,-2.12593,0.07418,1.57080,-3.01912,-0.09677,-0.44240,0.37568,,
6.8201,1,DESCENDING,-0.0000,1.35075,0.48102,-2.12609,0.07435,1.57080,-3.01912,-0.09677,-0.44240,0.37558,,
6.8522,1,DESCENDING,-0.0000,1.35075,0.48101,-2.12625,0.07452,1.57080,-3.01912,-0.09677,-0.44240,0.37549,,
6.8527,1,DESCENDING,-0.0000,1.35075,0.48101,-2.12625,0.07452,1.57080,-3.01912,-0.09677,-0.44240,0.37549,,
6.8938,1,DESCENDING,-0.0000,1.35075,0.48100,-2.12642,0.07471,1.57080,-3.01912,-0.09677,-0.44240,0.37539,,
6.8981,1,DESCENDING,-0.0000,1.35075,0.48099,-2.12644,0.07473,1.57080,-3.01912,-0.09677,-0.44240,0.37538,,
6.9136,1,DESCENDING,-0.0000,1.35075,0.48099,-2.12651,0.07480,1.57080,-3.01912,-0.09677,-0.44240,0.37533,,
6.9140,1,DESCENDING,-0.0000,1.35075,0.48099,-2.12651,0.07480,1.57080,-3.01912,-0.09677,-0.44240,0.37533,,
6.9212,1,DESCENDING,-0.0000,1.35075,0.48099,-2.12653,0.07482,1.57080,-3.01912,-0.09677,-0.44240,0.37532,,
6.9390,1,DESCENDING,-0.0000,1.35075,0.48098,-2.12664,0.07495,1.57080,-3.01912,-0.09677,-0.44240,0.37526,,
6.9452,1,DESCENDING,-0.0000,1.35075,0.48097,-2.12667,0.07498,1.57080,-3.01912,-0.09677,-0.44240,0.37524,,
6.9545,1,DESCENDING,-0.0000,1.35075,0.48097,-2.12669,0.07499,1.57080,-3.01912,-0.09677,-0.44240,0.37523,,
6.9615,1,DESCENDING,-0.0000,1.35075,0.48097,-2.12672,0.07503,1.57080,-3.01912,-0.09677,-0.44240,0.37521,,
6.9742,1,DESCENDING,-0.0000,1.35075,0.48097,-2.12677,0.07509,1.57080,-3.01912,-0.09677,-0.44240,0.37518,,
6.9924,1,DESCENDING,-0.0000,1.35075,0.48096,-2.12684,0.07516,1.57080,-3.01912,-0.09677,-0.44240,0.37514,,
6.9969,1,DESCENDING,-0.0000,1.35075,0.48096,-2.12687,0.07520,1.57080,-3.01912,-0.09677,-0.44240,0.37512,,
7.0039,1,DESCENDING,-0.0000,1.35075,0.48095,-2.12693,0.07527,1.57080,-3.01912,-0.09677,-0.44240,0.37508,,
7.0104,1,DESCENDING,-0.0000,1.35075,0.48095,-2.12694,0.07527,1.57080,-3.01912,-0.09677,-0.44240,0.37508,,
7.0234,1,DESCENDING,-0.0000,1.35075,0.48095,-2.12698,0.07532,1.57080,-3.01912,-0.09677,-0.44240,0.37505,,
7.0362,1,DESCENDING,-0.0000,1.35075,0.48094,-2.12703,0.07537,1.57080,-3.01912,-0.09677,-0.44240,0.37502,,
7.0424,1,DESCENDING,-0.0000,1.35075,0.48094,-2.12706,0.07540,1.57080,-3.01912,-0.09677,-0.44240,0.37501,,
7.0566,1,DESCENDING,-0.0000,1.35075,0.48093,-2.12714,0.07548,1.57080,-3.01912,-0.09677,-0.44240,0.37496,,
7.0619,1,DESCENDING,-0.0000,1.35075,0.48093,-2.12720,0.07555,1.57080,-3.01912,-0.09677,-0.44240,0.37493,,
7.0753,1,DESCENDING,-0.0000,1.35075,0.48093,-2.12721,0.07557,1.57080,-3.01912,-0.09677,-0.44240,0.37492,,
7.0820,1,DESCENDING,-0.0000,1.35075,0.48092,-2.12725,0.07561,1.57080,-3.01912,-0.09677,-0.44240,0.37490,,
7.0900,1,DESCENDING,-0.0000,1.35075,0.48092,-2.12730,0.07566,1.57080,-3.01912,-0.09677,-0.44240,0.37487,,
7.1020,1,DESCENDING,-0.0000,1.35075,0.48092,-2.12731,0.07568,1.57080,-3.01912,-0.09677,-0.44240,0.37486,,
7.1105,1,DESCENDING,-0.0000,1.35075,0.48092,-2.12736,0.07572,1.57080,-3.01912,-0.09677,-0.44240,0.37483,,
7.1294,1,DESCENDING,-0.0000,1.35075,0.48091,-2.12744,0.07582,1.57080,-3.01912,-0.09677,-0.44240,0.37478,,
7.1306,1,DESCENDING,-0.0000,1.35075,0.48091,-2.12744,0.07582,1.57080,-3.01912,-0.09677,-0.44240,0.37478,,
7.1446,1,DESCENDING,-0.0000,1.35075,0.48090,-2.12749,0.07587,1.57080,-3.01912,-0.09677,-0.44240,0.37475,,
7.1552,1,DESCENDING,-0.0000,1.35075,0.48090,-2.12754,0.07593,1.57080,-3.01912,-0.09677,-0.44240,0.37472,,
7.1619,1,DESCENDING,-0.0000,1.35075,0.48090,-2.12756,0.07595,1.57080,-3.01912,-0.09677,-0.44240,0.37471,,
7.1723,1,DESCENDING,-0.0000,1.35075,0.48089,-2.12761,0.07600,1.57080,-3.01912,-0.09677,-0.44240,0.37468,,
7.1818,1,DESCENDING,-0.0000,1.35075,0.48088,-2.12770,0.07610,1.57080,-3.01912,-0.09677,-0.44240,0.37463,,
7.1944,1,DESCENDING,-0.0000,1.35075,0.48088,-2.12772,0.07612,1.57080,-3.01912,-0.09677,-0.44240,0.37462,,
7.2010,1,DESCENDING,-0.0000,1.35075,0.48088,-2.12774,0.07614,1.57080,-3.01912,-0.09677,-0.44240,0.37461,,
7.2107,1,DESCENDING,-0.0000,1.35075,0.48088,-2.12781,0.07621,1.57080,-3.01912,-0.09677,-0.44240,0.37457,,
7.2234,1,DESCENDING,-0.0000,1.35075,0.48087,-2.12783,0.07623,1.57080,-3.01912,-0.09677,-0.44240,0.37456,,
7.2325,1,DESCENDING,-0.0000,1.35075,0.48087,-2.12788,0.07629,1.57080,-3.01912,-0.09677,-0.44240,0.37453,,
7.2407,1,DESCENDING,-0.0000,1.35075,0.48086,-2.12794,0.07636,1.57080,-3.01912,-0.09677,-0.44240,0.37449,,
7.3577,1,DESCENDING,-0.0000,1.35075,0.48082,-2.12846,0.07693,1.57080,-3.01912,-0.09677,-0.44240,0.37418,,
7.3780,1,DESCENDING,-0.0000,1.35075,0.48081,-2.12852,0.07699,1.57080,-3.01912,-0.09677,-0.44240,0.37414,,
7.3805,1,DESCENDING,-0.0000,1.35075,0.48081,-2.12852,0.07699,1.57080,-3.01912,-0.09677,-0.44240,0.37414,,
7.3813,1,DESCENDING,-0.0000,1.35075,0.48081,-2.12854,0.07702,1.57080,-3.01912,-0.09677,-0.44240,0.37413,,
7.3817,1,DESCENDING,-0.0000,1.35075,0.48081,-2.12854,0.07702,1.57080,-3.01912,-0.09677,-0.44240,0.37413,,
7.4122,1,DESCENDING,-0.0000,1.35075,0.48080,-2.12866,0.07715,1.57080,-3.01912,-0.09677,-0.44240,0.37406,,
7.4127,1,DESCENDING,-0.0000,1.35075,0.48080,-2.12866,0.07715,1.57080,-3.01912,-0.09677,-0.44240,0.37406,,
7.4336,1,DESCENDING,-0.0000,1.35075,0.48079,-2.12877,0.07726,1.57080,-3.01912,-0.09677,-0.44240,0.37400,,
7.4344,1,DESCENDING,-0.0000,1.35075,0.48079,-2.12877,0.07726,1.57080,-3.01912,-0.09677,-0.44240,0.37400,,
7.4487,1,DESCENDING,-0.0000,1.35075,0.48079,-2.12883,0.07733,1.57080,-3.01912,-0.09677,-0.44240,0.37396,,
7.4711,1,DESCENDING,-0.0000,1.35075,0.48078,-2.12893,0.07743,1.57080,-3.01912,-0.09677,-0.44240,0.37390,,
7.4716,1,DESCENDING,-0.0000,1.35075,0.48078,-2.12893,0.07743,1.57080,-3.01912,-0.09677,-0.44240,0.37390,,
7.4721,1,DESCENDING,-0.0000,1.35075,0.48078,-2.12893,0.07743,1.57080,-3.01912,-0.09677,-0.44240,0.37390,,
7.4810,1,DESCENDING,-0.0000,1.35075,0.48077,-2.12899,0.07750,1.57080,-3.01912,-0.09677,-0.44240,0.37387,,
7.4905,1,DESCENDING,-0.0000,1.35075,0.48077,-2.12902,0.07754,1.57080,-3.01912,-0.09677,-0.44240,0.37385,,
7.5021,1,DESCENDING,-0.0000,1.35075,0.48076,-2.12907,0.07759,1.57080,-3.01912,-0.09677,-0.44240,0.37382,,
7.5107,1,DESCENDING,-0.0000,1.35075,0.48076,-2.12912,0.07764,1.57080,-3.01912,-0.09677,-0.44240,0.37379,,
7.5267,1,DESCENDING,-0.0000,1.35075,0.48076,-2.12916,0.07769,1.57080,-3.01912,-0.09677,-0.44240,0.37376,,
7.5317,1,DESCENDING,-0.0000,1.35075,0.48075,-2.12919,0.07772,1.57080,-3.01912,-0.09677,-0.44240,0.37375,,
7.5402,1,DESCENDING,-0.0000,1.35075,0.48075,-2.12925,0.07779,1.57080,-3.01912,-0.09677,-0.44240,0.37371,,
7.5565,1,DESCENDING,-0.0000,1.35075,0.48074,-2.12930,0.07784,1.57080,-3.01912,-0.09677,-0.44240,0.37369,,
7.5704,1,DESCENDING,-0.0000,1.35075,0.48074,-2.12938,0.07793,1.57080,-3.01912,-0.09677,-0.44240,0.37363,,
7.5725,1,DESCENDING,-0.0000,1.35075,0.48074,-2.12938,0.07793,1.57080,-3.01912,-0.09677,-0.44240,0.37363,,
7.5823,1,DESCENDING,-0.0000,1.35075,0.48073,-2.12940,0.07795,1.57080,-3.01912,-0.09677,-0.44240,0.37362,,
7.5938,1,DESCENDING,-0.0000,1.35075,0.48073,-2.12948,0.07804,1.57080,-3.01912,-0.09677,-0.44240,0.37357,,
7.6042,1,DESCENDING,-0.0000,1.35075,0.48072,-2.12955,0.07811,1.57080,-3.01912,-0.09677,-0.44240,0.37354,,
7.6129,1,DESCENDING,-0.0000,1.35075,0.48072,-2.12955,0.07811,1.57080,-3.01912,-0.09677,-0.44240,0.37354,,
7.6227,1,DESCENDING,-0.0000,1.35075,0.48072,-2.12961,0.07818,1.57080,-3.01912,-0.09677,-0.44240,0.37350,,
7.6307,1,DESCENDING,-0.0000,1.35075,0.48071,-2.12967,0.07825,1.57080,-3.01912,-0.09677,-0.44240,0.37346,,
7.6473,1,DESCENDING,-0.0000,1.35075,0.48071,-2.12972,0.07829,1.57080,-3.01912,-0.09677,-0.44240,0.37344,,
7.6581,1,DESCENDING,-0.0000,1.35075,0.48070,-2.12978,0.07836,1.57080,-3.01912,-0.09677,-0.44240,0.37340,,
7.6651,1,DESCENDING,-0.0000,1.35075,0.48070,-2.12981,0.07839,1.57080,-3.01912,-0.09677,-0.44240,0.37338,,
7.6718,1,DESCENDING,-0.0000,1.35075,0.48070,-2.12981,0.07840,1.57080,-3.01912,-0.09677,-0.44240,0.37338,,
7.6819,1,DESCENDING,-0.0000,1.35075,0.48069,-2.12988,0.07847,1.57080,-3.01912,-0.09677,-0.44240,0.37334,,
7.6920,1,DESCENDING,-0.0000,1.35075,0.48069,-2.12994,0.07853,1.57080,-3.01912,-0.09677,-0.44240,0.37331,,
7.7136,1,DESCENDING,-0.0000,1.35075,0.48068,-2.13000,0.07860,1.57080,-3.01912,-0.09677,-0.44240,0.37327,,
7.7142,1,DESCENDING,-0.0000,1.35075,0.48068,-2.13002,0.07862,1.57080,-3.01912,-0.09677,-0.44240,0.37326,,
7.7229,1,DESCENDING,-0.0000,1.35075,0.48068,-2.13007,0.07868,1.57080,-3.01912,-0.09677,-0.44240,0.37323,,
7.7330,1,DESCENDING,-0.0000,1.35075,0.48067,-2.13007,0.07868,1.57080,-3.01912,-0.09677,-0.44240,0.37323,,
7.7412,1,DESCENDING,-0.0000,1.35075,0.48067,-2.13011,0.07872,1.57080,-3.01912,-0.09677,-0.44240,0.37320,,
7.7529,1,DESCENDING,-0.0000,1.35075,0.48066,-2.13020,0.07882,1.57080,-3.01912,-0.09677,-0.44240,0.37315,,
7.7658,1,DESCENDING,-0.0000,1.35075,0.48066,-2.13025,0.07887,1.57080,-3.01912,-0.09677,-0.44240,0.37312,,
7.7711,1,DESCENDING,-0.0000,1.35075,0.48066,-2.13026,0.07889,1.57080,-3.01912,-0.09677,-0.44240,0.37312,,
7.7833,1,DESCENDING,-0.0000,1.35075,0.48065,-2.13033,0.07896,1.57080,-3.01912,-0.09677,-0.44240,0.37307,,
7.7948,1,DESCENDING,-0.0000,1.35075,0.48065,-2.13035,0.07898,1.57080,-3.01912,-0.09677,-0.44240,0.37306,,
7.8059,1,DESCENDING,-0.0000,1.35075,0.48064,-2.13043,0.07907,1.57080,-3.01912,-0.09677,-0.44240,0.37301,,
7.8145,1,DESCENDING,-0.0000,1.35075,0.48064,-2.13049,0.07914,1.57080,-3.01912,-0.09677,-0.44240,0.37298,,
7.8217,1,DESCENDING,-0.0000,1.35075,0.48064,-2.13050,0.07914,1.57080,-3.01912,-0.09677,-0.44240,0.37298,,
7.8376,1,DESCENDING,-0.0000,1.35075,0.48063,-2.13054,0.07919,1.57080,-3.01912,-0.09677,-0.44240,0.37295,,
7.8432,1,DESCENDING,-0.0000,1.35075,0.48063,-2.13059,0.07925,1.57080,-3.01912,-0.09677,-0.44240,0.37292,,
7.8522,1,DESCENDING,-0.0000,1.35075,0.48063,-2.13060,0.07925,1.57080,-3.01912,-0.09677,-0.44240,0.37291,,
7.8624,1,DESCENDING,-0.0000,1.35075,0.48062,-2.13066,0.07933,1.57080,-3.01912,-0.09677,-0.44240,0.37288,,
7.8841,1,DESCENDING,-0.0000,1.35075,0.48061,-2.13076,0.07943,1.57080,-3.01912,-0.09677,-0.44240,0.37282,,
7.9250,1,DESCENDING,-0.0000,1.35075,0.48060,-2.13093,0.07961,1.57080,-3.01912,-0.09677,-0.44240,0.37272,,
7.9293,1,DESCENDING,-0.0000,1.35075,0.48059,-2.13096,0.07965,1.57080,-3.01912,-0.09677,-0.44240,0.37270,,
7.9380,1,DESCENDING,-0.0000,1.35075,0.48059,-2.13102,0.07971,1.57080,-3.01912,-0.09677,-0.44240,0.37267,,
7.9401,1,DESCENDING,-0.0000,1.35075,0.48059,-2.13102,0.07971,1.57080,-3.01912,-0.09677,-0.44240,0.37267,,
7.9453,1,DESCENDING,-0.0000,1.35075,0.48059,-2.13102,0.07972,1.57080,-3.01912,-0.09677,-0.44240,0.37266,,
7.9545,1,DESCENDING,-0.0000,1.35075,0.48058,-2.13107,0.07977,1.57080,-3.01911,-0.09677,-0.44240,0.37264,,
7.9639,1,DESCENDING,-0.0000,1.35075,0.48058,-2.13112,0.07982,1.57080,-3.01911,-0.09677,-0.44240,0.37261,,
7.9772,1,DESCENDING,-0.0000,1.35075,0.48058,-2.13114,0.07984,1.57080,-3.01911,-0.09677,-0.44240,0.37259,,
7.9815,1,DESCENDING,-0.0000,1.35075,0.48058,-2.13116,0.07987,1.57080,-3.01911,-0.09677,-0.44240,0.37258,,
7.9928,1,DESCENDING,-0.0000,1.35075,0.48057,-2.13125,0.07997,1.57080,-3.01911,-0.09677,-0.44240,0.37253,,
8.0009,1,DESCENDING,-0.0000,1.35075,0.48056,-2.13128,0.08000,1.57080,-3.01911,-0.09677,-0.44240,0.37251,,
8.0143,1,DESCENDING,-0.0000,1.35075,0.48056,-2.13135,0.08007,1.57080,-3.01911,-0.09677,-0.44240,0.37247,,
8.0225,1,DESCENDING,-0.0000,1.35075,0.48055,-2.13141,0.08014,1.57080,-3.01911,-0.09677,-0.44240,0.37243,,
8.0320,1,DESCENDING,-0.0000,1.35075,0.48055,-2.13142,0.08015,1.57080,-3.01911,-0.09677,-0.44240,0.37243,,
8.0409,1,DESCENDING,-0.0000,1.35075,0.48055,-2.13145,0.08018,1.57080,-3.01911,-0.09677,-0.44240,0.37241,,
8.0763,1,DESCENDING,-0.0000,1.35075,0.48053,-2.13164,0.08039,1.57080,-3.01911,-0.09677,-0.44240,0.37230,,
8.1292,1,DESCENDING,-0.0000,1.35075,0.48051,-2.13187,0.08065,1.57080,-3.01911,-0.09677,-0.44240,0.37216,,
8.1322,1,DESCENDING,-0.0000,1.35075,0.48051,-2.13190,0.08067,1.57080,-3.01911,-0.09677,-0.44240,0.37215,,
8.1326,1,DESCENDING,-0.0000,1.35075,0.48051,-2.13190,0.08067,1.57080,-3.01911,-0.09677,-0.44240,0.37215,,
8.1329,1,DESCENDING,-0.0000,1.35075,0.48051,-2.13190,0.08067,1.57080,-3.01911,-0.09677,-0.44240,0.37215,,
8.1658,1,DESCENDING,-0.0000,1.35075,0.48049,-2.13206,0.08085,1.57080,-3.01911,-0.09677,-0.44240,0.37205,,
8.1764,1,DESCENDING,-0.0000,1.35075,0.48049,-2.13211,0.08091,1.57080,-3.01911,-0.09677,-0.44240,0.37202,,
8.1768,1,DESCENDING,-0.0000,1.35075,0.48049,-2.13211,0.08091,1.57080,-3.01911,-0.09677,-0.44240,0.37202,,
8.1859,1,DESCENDING,-0.0000,1.35075,0.48049,-2.13213,0.08093,1.57080,-3.01911,-0.09677,-0.44240,0.37201,,
8.1908,1,DESCENDING,-0.0000,1.35075,0.48048,-2.13216,0.08095,1.57080,-3.01911,-0.09677,-0.44240,0.37199,,
8.2025,1,DESCENDING,-0.0000,1.35075,0.48048,-2.13225,0.08105,1.57080,-3.01911,-0.09677,-0.44240,0.37194,,
8.2241,1,DESCENDING,-0.0000,1.35075,0.48047,-2.13231,0.08112,1.57080,-3.01911,-0.09677,-0.44240,0.37190,,
8.2310,1,DESCENDING,-0.0000,1.35075,0.48047,-2.13235,0.08117,1.57080,-3.01911,-0.09677,-0.44240,0.37188,,
8.2317,1,DESCENDING,-0.0000,1.35075,0.48047,-2.13235,0.08117,1.57080,-3.01911,-0.09677,-0.44240,0.37188,,
8.2460,1,DESCENDING,-0.0000,1.35075,0.48046,-2.13240,0.08122,1.57080,-3.01911,-0.09677,-0.44240,0.37185,,
8.2523,1,DESCENDING,-0.0000,1.35075,0.48046,-2.13242,0.08124,1.57080,-3.01911,-0.09677,-0.44240,0.37184,,
8.2651,1,DESCENDING,-0.0000,1.35075,0.48045,-2.13251,0.08134,1.57080,-3.01911,-0.09677,-0.44240,0.37178,,
8.2718,1,DESCENDING,-0.0000,1.35075,0.48045,-2.13254,0.08137,1.57080,-3.01911,-0.09677,-0.44240,0.37177,,
8.2873,1,DESCENDING,-0.0000,1.35075,0.48044,-2.13259,0.08143,1.57080,-3.01911,-0.09677,-0.44240,0.37174,,
8.2914,1,DESCENDING,-0.0000,1.35075,0.48044,-2.13261,0.08145,1.57080,-3.01911,-0.09677,-0.44240,0.37172,,
8.3349,1,DESCENDING,-0.0000,1.35075,0.48042,-2.13280,0.08166,1.57080,-3.01911,-0.09677,-0.44240,0.37161,,
8.4019,1,DESCENDING,-0.0000,1.35075,0.48040,-2.13309,0.08198,1.57080,-3.01911,-0.09677,-0.44240,0.37144,,
8.5346,1,DESCENDING,-0.0000,1.35075,0.48034,-2.13369,0.08263,1.57080,-3.01911,-0.09677,-0.44240,0.37108,,
8.5436,1,DESCENDING,-0.0000,1.35075,0.48034,-2.13369,0.08264,1.57080,-3.01911,-0.09677,-0.44240,0.37108,,
8.5446,1,DESCENDING,-0.0000,1.35075,0.48034,-2.13369,0.08264,1.57080,-3.01911,-0.09677,-0.44240,0.37108,,
8.5450,1,DESCENDING,-0.0000,1.35075,0.48034,-2.13369,0.08264,1.57080,-3.01911,-0.09677,-0.44240,0.37108,,
8.5454,1,DESCENDING,-0.0000,1.35075,0.48034,-2.13369,0.08264,1.57080,-3.01911,-0.09677,-0.44240,0.37108,,
8.5514,1,DESCENDING,-0.0000,1.35075,0.48033,-2.13373,0.08268,1.57080,-3.01911,-0.09677,-0.44240,0.37106,,
8.5607,1,DESCENDING,-0.0000,1.35075,0.48033,-2.13379,0.08274,1.57080,-3.01911,-0.09677,-0.44240,0.37102,,
8.5736,1,DESCENDING,-0.0000,1.35075,0.48032,-2.13385,0.08281,1.57080,-3.01911,-0.09677,-0.44240,0.37099,,
8.5844,1,DESCENDING,-0.0000,1.35075,0.48032,-2.13388,0.08284,1.57080,-3.01911,-0.09677,-0.44240,0.37097,,
8.6026,1,DESCENDING,-0.0000,1.35075,0.48031,-2.13396,0.08292,1.57080,-3.01911,-0.09677,-0.44240,0.37093,,
8.6030,1,DESCENDING,-0.0000,1.35075,0.48031,-2.13396,0.08292,1.57080,-3.01911,-0.09677,-0.44240,0.37093,,
8.6126,1,DESCENDING,-0.0000,1.35075,0.48031,-2.13399,0.08296,1.57080,-3.01911,-0.09677,-0.44240,0.37090,,
8.6346,1,DESCENDING,-0.0000,1.35075,0.48030,-2.13412,0.08310,1.57080,-3.01911,-0.09677,-0.44240,0.37083,,
8.6350,1,DESCENDING,-0.0000,1.35075,0.48030,-2.13412,0.08310,1.57080,-3.01911,-0.09677,-0.44240,0.37083,,
8.6448,1,DESCENDING,-0.0000,1.35075,0.48029,-2.13415,0.08314,1.57080,-3.01911,-0.09677,-0.44240,0.37081,,
8.6533,1,DESCENDING,-0.0000,1.35075,0.48029,-2.13421,0.08320,1.57080,-3.01911,-0.09677,-0.44240,0.37077,,
8.6649,1,DESCENDING,-0.0000,1.35075,0.48029,-2.13425,0.08324,1.57080,-3.01911,-0.09677,-0.44240,0.37075,,
8.6749,1,DESCENDING,-0.0000,1.35075,0.48028,-2.13431,0.08331,1.57080,-3.01911,-0.09677,-0.44240,0.37072,,
8.6988,1,DESCENDING,-0.0000,1.35075,0.48027,-2.13442,0.08343,1.57080,-3.01911,-0.09677,-0.44240,0.37065,,
8.6992,1,DESCENDING,-0.0000,1.35075,0.48027,-2.13442,0.08343,1.57080,-3.01911,-0.09677,-0.44240,0.37065,,
8.7010,1,DESCENDING,-0.0000,1.35075,0.48027,-2.13442,0.08343,1.57080,-3.01911,-0.09677,-0.44240,0.37065,,
8.7127,1,DESCENDING,-0.0000,1.35075,0.48026,-2.13450,0.08352,1.57080,-3.01911,-0.09677,-0.44240,0.37060,,
8.7220,1,DESCENDING,-0.0000,1.35075,0.48026,-2.13453,0.08355,1.57080,-3.01911,-0.09677,-0.44240,0.37058,,
8.7307,1,DESCENDING,-0.0000,1.35075,0.48025,-2.13457,0.08359,1.57080,-3.01911,-0.09677,-0.44240,0.37056,,
8.7398,1,DESCENDING,-0.0000,1.35075,0.48025,-2.13462,0.08366,1.57080,-3.01911,-0.09677,-0.44240,0.37053,,
8.7560,1,DESCENDING,-0.0000,1.35075,0.48024,-2.13469,0.08373,1.57080,-3.01911,-0.09677,-0.44240,0.37049,,
8.7610,1,DESCENDING,-0.0000,1.35075,0.48024,-2.13470,0.08374,1.57080,-3.01911,-0.09677,-0.44240,0.37048,,
8.7828,1,DESCENDING,-0.0000,1.35075,0.48023,-2.13482,0.08387,1.57080,-3.01911,-0.09677,-0.44240,0.37041,,
8.7839,1,DESCENDING,-0.0000,1.35075,0.48023,-2.13482,0.08387,1.57080,-3.01911,-0.09677,-0.44240,0.37041,,
8.7996,1,DESCENDING,-0.0000,1.35075,0.48022,-2.13491,0.08397,1.57080,-3.01911,-0.09677,-0.44240,0.37036,,
8.8005,1,DESCENDING,-0.0000,1.35075,0.48022,-2.13491,0.08397,1.57080,-3.01911,-0.09677,-0.44240,0.37036,,
8.8115,1,DESCENDING,-0.0000,1.35075,0.48022,-2.13497,0.08403,1.57080,-3.01911,-0.09677,-0.44240,0.37032,,
8.8319,1,DESCENDING,-0.0000,1.35075,0.48021,-2.13507,0.08414,1.57080,-3.01911,-0.09677,-0.44240,0.37027,,
8.8463,1,DESCENDING,-0.0000,1.35075,0.48020,-2.13512,0.08420,1.57080,-3.01911,-0.09677,-0.44240,0.37024,,
8.8538,1,DESCENDING,-0.0000,1.35075,0.48020,-2.13516,0.08425,1.57080,-3.01911,-0.09677,-0.44240,0.37021,,
8.8629,1,DESCENDING,-0.0000,1.35075,0.48019,-2.13523,0.08432,1.57080,-3.01911,-0.09677,-0.44240,0.37017,,
8.8705,1,DESCENDING,-0.0000,1.35075,0.48019,-2.13525,0.08435,1.57080,-3.01911,-0.09677,-0.44240,0.37015,,
8.8807,1,DESCENDING,-0.0000,1.35075,0.48019,-2.13527,0.08437,1.57080,-3.01911,-0.09677,-0.44240,0.37014,,
8.8944,1,DESCENDING,-0.0000,1.35075,0.48018,-2.13538,0.08449,1.57080,-3.01911,-0.09677,-0.44240,0.37008,,
8.9044,1,DESCENDING,-0.0000,1.35075,0.48017,-2.13541,0.08452,1.57080,-3.01911,-0.09677,-0.44240,0.37006,,
8.9106,1,DESCENDING,-0.0000,1.35075,0.48017,-2.13543,0.08454,1.57080,-3.01911,-0.09677,-0.44240,0.37005,,
8.9249,1,DESCENDING,-0.0000,1.35075,0.48017,-2.13549,0.08460,1.57080,-3.01911,-0.09677,-0.44240,0.37002,,
8.9354,1,DESCENDING,-0.0000,1.35075,0.48016,-2.13552,0.08464,1.57080,-3.01911,-0.09677,-0.44240,0.37000,,
8.9417,1,DESCENDING,-0.0000,1.35075,0.48016,-2.13556,0.08468,1.57080,-3.01911,-0.09677,-0.44240,0.36997,,
8.9967,1,DESCENDING,-0.0000,1.35075,0.48014,-2.13578,0.08493,1.57080,-3.01911,-0.09677,-0.44240,0.36984,,
9.0177,1,DESCENDING,-0.0000,1.35075,0.48012,-2.13594,0.08510,1.57080,-3.01911,-0.09677,-0.44240,0.36975,,
9.0584,1,DESCENDING,-0.0000,1.35075,0.48011,-2.13606,0.08523,1.57080,-3.01911,-0.09677,-0.44240,0.36968,,
9.0588,1,DESCENDING,-0.0000,1.35075,0.48011,-2.13606,0.08523,1.57080,-3.01911,-0.09677,-0.44240,0.36968,,
9.0661,1,DESCENDING,-0.0000,1.35075,0.48010,-2.13611,0.08528,1.57080,-3.01911,-0.09677,-0.44240,0.36965,,
9.0713,1,DESCENDING,-0.0000,1.35075,0.48010,-2.13614,0.08532,1.57080,-3.01911,-0.09677,-0.44240,0.36963,,
9.0839,1,DESCENDING,-0.0000,1.35075,0.48010,-2.13620,0.08539,1.57080,-3.01911,-0.09677,-0.44240,0.36959,,
9.0906,1,DESCENDING,-0.0000,1.35075,0.48009,-2.13621,0.08540,1.57080,-3.01911,-0.09677,-0.44240,0.36958,,
9.1010,1,DESCENDING,-0.0000,1.35075,0.48009,-2.13625,0.08544,1.57080,-3.01911,-0.09677,-0.44240,0.36956,,
9.1125,1,DESCENDING,-0.0000,1.35075,0.48009,-2.13630,0.08550,1.57080,-3.01911,-0.09677,-0.44240,0.36953,,
9.1220,1,DESCENDING,-0.0000,1.35075,0.48008,-2.13634,0.08554,1.57080,-3.01911,-0.09677,-0.44240,0.36951,,
9.1310,1,DESCENDING,-0.0000,1.35075,0.48008,-2.13640,0.08561,1.57080,-3.01911,-0.09677,-0.44240,0.36947,,
9.1406,1,DESCENDING,-0.0000,1.35075,0.48007,-2.13646,0.08567,1.57080,-3.01911,-0.09677,-0.44240,0.36944,,
9.1561,1,DESCENDING,-0.0000,1.35075,0.48007,-2.13649,0.08571,1.57080,-3.01911,-0.09677,-0.44240,0.36942,,
9.1606,1,DESCENDING,-0.0000,1.35075,0.48006,-2.13651,0.08573,1.57080,-3.01911,-0.09677,-0.44240,0.36941,,
9.1715,1,DESCENDING,-0.0000,1.35075,0.48006,-2.13656,0.08578,1.57080,-3.01911,-0.09677,-0.44240,0.36938,,
9.1866,1,DESCENDING,-0.0000,1.35075,0.48005,-2.13663,0.08586,1.57080,-3.01911,-0.09677,-0.44240,0.36934,,
9.1982,1,DESCENDING,-0.0000,1.35075,0.48004,-2.13672,0.08596,1.57080,-3.01911,-0.09677,-0.44240,0.36928,,
9.2018,1,DESCENDING,-0.0000,1.35075,0.48004,-2.13672,0.08596,1.57080,-3.01911,-0.09677,-0.44240,0.36928,,
9.2107,1,DESCENDING,-0.0000,1.35075,0.48004,-2.13674,0.08598,1.57080,-3.01911,-0.09677,-0.44240,0.36927,,
9.2221,1,DESCENDING,-0.0000,1.35075,0.48004,-2.13680,0.08604,1.57080,-3.01911,-0.09677,-0.44240,0.36924,,
9.2471,1,DESCENDING,-0.0000,1.35075,0.48003,-2.13689,0.08615,1.57080,-3.01911,-0.09677,-0.44240,0.36918,,
9.2548,1,DESCENDING,-0.0000,1.35075,0.48002,-2.13695,0.08622,1.57080,-3.01911,-0.09677,-0.44240,0.36914,,
9.2670,1,DESCENDING,-0.0000,1.35075,0.48002,-2.13699,0.08625,1.57080,-3.01911,-0.09677,-0.44240,0.36912,,
9.2768,1,DESCENDING,-0.0000,1.35075,0.48001,-2.13703,0.08629,1.57080,-3.01911,-0.09677,-0.44240,0.36910,,
9.2865,1,DESCENDING,-0.0000,1.35075,0.48000,-2.13711,0.08639,1.57080,-3.01911,-0.09677,-0.44240,0.36905,,
9.2974,1,DESCENDING,-0.0000,1.35075,0.48000,-2.13712,0.08640,1.57080,-3.01911,-0.09677,-0.44240,0.36905,,
9.3023,1,DESCENDING,-0.0000,1.35075,0.48000,-2.13715,0.08643,1.57080,-3.01911,-0.09677,-0.44240,0.36903,,
9.3130,1,DESCENDING,-0.0000,1.35075,0.47999,-2.13721,0.08650,1.57080,-3.01911,-0.09677,-0.44240,0.36899,,
9.3226,1,DESCENDING,-0.0000,1.35075,0.47999,-2.13727,0.08656,1.57080,-3.01911,-0.09677,-0.44240,0.36896,,
9.3318,1,DESCENDING,-0.0000,1.35075,0.47999,-2.13729,0.08658,1.57080,-3.01911,-0.09677,-0.44240,0.36894,,
9.3458,1,DESCENDING,-0.0000,1.35075,0.47998,-2.13737,0.08667,1.57080,-3.01911,-0.09677,-0.44240,0.36890,,
9.3542,1,DESCENDING,-0.0000,1.35075,0.47998,-2.13740,0.08671,1.57080,-3.01911,-0.09677,-0.44240,0.36888,,
9.3647,1,DESCENDING,-0.0000,1.35075,0.47997,-2.13744,0.08675,1.57080,-3.01911,-0.09677,-0.44240,0.36886,,
9.3709,1,DESCENDING,-0.0000,1.35075,0.47997,-2.13750,0.08681,1.57080,-3.01911,-0.09677,-0.44240,0.36882,,
9.3821,1,DESCENDING,-0.0000,1.35075,0.47996,-2.13756,0.08688,1.57080,-3.01911,-0.09677,-0.44240,0.36879,,
9.3919,1,DESCENDING,-0.0000,1.35075,0.47996,-2.13758,0.08690,1.57080,-3.01911,-0.09677,-0.44240,0.36878,,
9.4044,1,DESCENDING,-0.0000,1.35075,0.47995,-2.13765,0.08698,1.57080,-3.01911,-0.09677,-0.44240,0.36873,,
9.4126,1,DESCENDING,-0.0000,1.35075,0.47995,-2.13768,0.08702,1.57080,-3.01911,-0.09677,-0.44240,0.36871,,
9.4206,1,DESCENDING,-0.0000,1.35075,0.47995,-2.13770,0.08704,1.57080,-3.01911,-0.09677,-0.44240,0.36870,,
9.4305,1,DESCENDING,-0.0000,1.35075,0.47994,-2.13778,0.08712,1.57080,-3.01911,-0.09677,-0.44240,0.36865,,
9.4469,1,DESCENDING,-0.0000,1.35075,0.47993,-2.13785,0.08720,1.57080,-3.01911,-0.09677,-0.44240,0.36861,,
9.4565,1,DESCENDING,-0.0000,1.35075,0.47993,-2.13788,0.08724,1.57080,-3.01911,-0.09677,-0.44240,0.36859,,
9.4636,1,DESCENDING,-0.0000,1.35075,0.47992,-2.13794,0.08730,1.57080,-3.01911,-0.09677,-0.44240,0.36856,,
9.4852,1,DESCENDING,-0.0000,1.35075,0.47991,-2.13801,0.08738,1.57080,-3.01911,-0.09677,-0.44240,0.36852,,
9.4858,1,DESCENDING,-0.0000,1.35075,0.47991,-2.13801,0.08738,1.57080,-3.01911,-0.09677,-0.44240,0.36852,,
9.4905,1,DESCENDING,-0.0000,1.35075,0.47991,-2.13807,0.08744,1.57080,-3.01911,-0.09677,-0.44240,0.36848,,
9.5046,1,DESCENDING,-0.0000,1.35075,0.47990,-2.13813,0.08750,1.57080,-3.01911,-0.09677,-0.44240,0.36845,,
9.5145,1,DESCENDING,-0.0000,1.35075,0.47990,-2.13817,0.08755,1.57080,-3.01911,-0.09677,-0.44240,0.36842,,
9.5224,1,DESCENDING,-0.0000,1.35075,0.47989,-2.13822,0.08761,1.57080,-3.01911,-0.09677,-0.44240,0.36839,,
9.5306,1,DESCENDING,-0.0000,1.35075,0.47989,-2.13828,0.08768,1.57080,-3.01911,-0.09677,-0.44240,0.36835,,
9.5469,1,DESCENDING,-0.0000,1.35075,0.47988,-2.13831,0.08771,1.57080,-3.01911,-0.09677,-0.44240,0.36834,,
9.5547,1,DESCENDING,-0.0000,1.35075,0.47988,-2.13836,0.08776,1.57080,-3.01911,-0.09677,-0.44240,0.36831,,
9.5630,1,DESCENDING,-0.0000,1.35075,0.47988,-2.13838,0.08779,1.57080,-3.01911,-0.09677,-0.44240,0.36829,,
9.5781,1,DESCENDING,-0.0000,1.35075,0.47987,-2.13843,0.08784,1.57080,-3.01911,-0.09677,-0.44240,0.36827,,
9.5804,1,DESCENDING,-0.0000,1.35075,0.47987,-2.13845,0.08787,1.57080,-3.01911,-0.09677,-0.44240,0.36825,,
9.5963,1,DESCENDING,-0.0000,1.35075,0.47986,-2.13855,0.08797,1.57080,-3.01911,-0.09677,-0.44240,0.36820,,
9.6020,1,DESCENDING,-0.0000,1.35075,0.47986,-2.13855,0.08797,1.57080,-3.01911,-0.09677,-0.44240,0.36820,,
9.6153,1,DESCENDING,-0.0000,1.35075,0.47985,-2.13862,0.08805,1.57080,-3.01911,-0.09677,-0.44240,0.36815,,
9.6229,1,DESCENDING,-0.0000,1.35075,0.47985,-2.13865,0.08808,1.57080,-3.01911,-0.09677,-0.44240,0.36814,,
9.6315,1,DESCENDING,-0.0000,1.35075,0.47985,-2.13867,0.08810,1.57080,-3.01911,-0.09677,-0.44240,0.36813,,
9.6437,1,DESCENDING,-0.0000,1.35075,0.47984,-2.13875,0.08819,1.57080,-3.01911,-0.09677,-0.44240,0.36808,,
9.6583,1,DESCENDING,-0.0000,1.35075,0.47983,-2.13881,0.08826,1.57080,-3.01911,-0.09677,-0.44240,0.36804,,
9.6608,1,DESCENDING,-0.0000,1.35075,0.47983,-2.13881,0.08826,1.57080,-3.01911,-0.09677,-0.44240,0.36804,,
9.6709,1,DESCENDING,-0.0000,1.35075,0.47983,-2.13888,0.08833,1.57080,-3.01911,-0.09677,-0.44240,0.36800,,
9.6858,1,DESCENDING,-0.0000,1.35075,0.47982,-2.13894,0.08840,1.57080,-3.01911,-0.09677,-0.44240,0.36797,,
9.6957,1,DESCENDING,-0.0000,1.35075,0.47982,-2.13898,0.08844,1.57080,-3.01911,-0.09677,-0.44240,0.36794,,
9.7050,1,DESCENDING,-0.0000,1.35075,0.47981,-2.13903,0.08850,1.57080,-3.01911,-0.09677,-0.44240,0.36791,,
9.7121,1,DESCENDING,-0.0000,1.35075,0.47980,-2.13909,0.08857,1.57080,-3.01911,-0.09677,-0.44240,0.36787,,
9.7213,1,DESCENDING,-0.0000,1.35075,0.47980,-2.13910,0.08858,1.57080,-3.01911,-0.09677,-0.44240,0.36787,,
9.7317,1,DESCENDING,-0.0000,1.35075,0.47980,-2.13916,0.08864,1.57080,-3.01911,-0.09677,-0.44240,0.36783,,
9.7407,1,DESCENDING,-0.0000,1.35075,0.47979,-2.13922,0.08871,1.57080,-3.01911,-0.09677,-0.44240,0.36780,,
9.7545,1,DESCENDING,-0.0000,1.35075,0.47979,-2.13926,0.08876,1.57080,-3.01911,-0.09677,-0.44240,0.36777,,
9.7607,1,DESCENDING,-0.0000,1.35075,0.47978,-2.13929,0.08879,1.57080,-3.01911,-0.09677,-0.44240,0.36776,,
9.7749,1,DESCENDING,-0.0000,1.35075,0.47977,-2.13938,0.08888,1.57080,-3.01911,-0.09677,-0.44240,0.36770,,
9.7809,1,DESCENDING,-0.0000,1.35075,0.47977,-2.13938,0.08889,1.57080,-3.01911,-0.09677,-0.44240,0.36770,,
9.7922,1,DESCENDING,-0.0000,1.35075,0.47977,-2.13945,0.08896,1.57080,-3.01911,-0.09677,-0.44240,0.36766,,
9.8013,1,DESCENDING,-0.0000,1.35075,0.47976,-2.13951,0.08903,1.57080,-3.01911,-0.09677,-0.44240,0.36763,,
9.8153,1,DESCENDING,-0.0000,1.35075,0.47976,-2.13955,0.08907,1.57080,-3.01911,-0.09677,-0.44240,0.36760,,
9.8243,1,DESCENDING,-0.0000,1.35075,0.47975,-2.13960,0.08913,1.57080,-3.01911,-0.09677,-0.44240,0.36757,,
9.8318,1,DESCENDING,-0.0000,1.35075,0.47974,-2.13966,0.08920,1.57080,-3.01911,-0.09677,-0.44240,0.36753,,
9.8425,1,DESCENDING,-0.0000,1.35075,0.47974,-2.13968,0.08922,1.57080,-3.01911,-0.09677,-0.44240,0.36752,,
9.8560,1,DESCENDING,-0.0000,1.35075,0.47973,-2.13976,0.08931,1.57080,-3.01911,-0.09677,-0.44240,0.36748,,
9.8628,1,DESCENDING,-0.0000,1.35075,0.47973,-2.13979,0.08934,1.57080,-3.01911,-0.09677,-0.44240,0.36746,,
9.8724,1,DESCENDING,-0.0000,1.35075,0.47973,-2.13981,0.08936,1.57080,-3.01911,-0.09677,-0.44240,0.36745,,
9.8822,1,DESCENDING,-0.0000,1.35075,0.47972,-2.13986,0.08941,1.57080,-3.01911,-0.09677,-0.44240,0.36742,,
9.8909,1,DESCENDING,-0.0000,1.35075,0.47972,-2.13995,0.08951,1.57080,-3.01911,-0.09677,-0.44240,0.36736,,
9.9033,1,DESCENDING,-0.0000,1.35075,0.47971,-2.13997,0.08953,1.57080,-3.01911,-0.09677,-0.44240,0.36735,,
9.9109,1,DESCENDING,-0.0000,1.35075,0.47971,-2.14002,0.08959,1.57080,-3.01911,-0.09677,-0.44240,0.36732,,
9.9214,1,DESCENDING,-0.0000,1.35075,0.47970,-2.14008,0.08965,1.57080,-3.01911,-0.09677,-0.44240,0.36729,,
9.9311,1,DESCENDING,-0.0000,1.35075,0.47970,-2.14009,0.08968,1.57080,-3.01911,-0.09677,-0.44240,0.36728,,
9.9462,1,DESCENDING,-0.0000,1.35075,0.47969,-2.14017,0.08976,1.57080,-3.01911,-0.09677,-0.44240,0.36723,,
9.9668,1,DESCENDING,-0.0000,1.35075,0.47968,-2.14027,0.08987,1.57080,-3.01911,-0.09677,-0.44240,0.36717,,
9.9677,1,DESCENDING,-0.0000,1.35075,0.47968,-2.14027,0.08987,1.57080,-3.01911,-0.09677,-0.44240,0.36717,,
9.9751,1,DESCENDING,-0.0000,1.35075,0.47968,-2.14033,0.08993,1.57080,-3.01911,-0.09677,-0.44240,0.36714,,
9.9811,1,DESCENDING,-0.0000,1.35075,0.47967,-2.14036,0.08997,1.57080,-3.01911,-0.09677,-0.44240,0.36712,,
9.9943,1,DESCENDING,-0.0000,1.35075,0.47967,-2.14039,0.09001,1.57080,-3.01911,-0.09677,-0.44240,0.36710,,
10.0031,1,DESCENDING,-0.0000,1.35075,0.47966,-2.14044,0.09006,1.57080,-3.01911,-0.09677,-0.44240,0.36707,,
10.0129,1,DESCENDING,-0.0000,1.35075,0.47966,-2.14049,0.09011,1.57080,-3.01911,-0.09677,-0.44240,0.36704,,
10.0217,1,DESCENDING,-0.0000,1.35075,0.47966,-2.14050,0.09012,1.57080,-3.01911,-0.09677,-0.44240,0.36704,,
10.0315,1,DESCENDING,-0.0000,1.35075,0.47965,-2.14056,0.09019,1.57080,-3.01911,-0.09677,-0.44240,0.36700,,
10.0428,1,DESCENDING,-0.0000,1.35075,0.47964,-2.14065,0.09029,1.57080,-3.01911,-0.09677,-0.44240,0.36694,,
10.0726,1,DESCENDING,-0.0000,1.35075,0.47963,-2.14075,0.09040,1.57080,-3.01911,-0.09677,-0.44240,0.36688,,
10.0733,1,DESCENDING,-0.0000,1.35075,0.47963,-2.14075,0.09040,1.57080,-3.01911,-0.09677,-0.44240,0.36688,,
10.0809,1,DESCENDING,-0.0000,1.35075,0.47963,-2.14076,0.09041,1.57080,-3.01911,-0.09677,-0.44240,0.36688,,
10.0920,1,DESCENDING,-0.0000,1.35075,0.47962,-2.14082,0.09048,1.57080,-3.01911,-0.09677,-0.44240,0.36684,,
10.1006,1,DESCENDING,-0.0000,1.35075,0.47962,-2.14088,0.09055,1.57080,-3.01911,-0.09677,-0.44240,0.36681,,
10.1152,1,DESCENDING,-0.0000,1.35075,0.47961,-2.14093,0.09060,1.57080,-3.01911,-0.09677,-0.44240,0.36678,,
10.1254,1,DESCENDING,-0.0000,1.35075,0.47961,-2.14096,0.09064,1.57080,-3.01911,-0.09677,-0.44240,0.36676,,
10.1328,1,DESCENDING,-0.0000,1.35075,0.47960,-2.14101,0.09069,1.57080,-3.01911,-0.09677,-0.44240,0.36673,,
10.1416,1,DESCENDING,-0.0000,1.35075,0.47960,-2.14102,0.09070,1.57080,-3.01911,-0.09677,-0.44240,0.36673,,
10.1536,1,DESCENDING,-0.0000,1.35075,0.47960,-2.14108,0.09077,1.57080,-3.01911,-0.09677,-0.44240,0.36669,,
10.1638,1,DESCENDING,-0.0000,1.35075,0.47959,-2.14117,0.09087,1.57080,-3.01911,-0.09677,-0.44240,0.36663,,
10.1717,1,DESCENDING,-0.0000,1.35075,0.47959,-2.14118,0.09087,1.57080,-3.01911,-0.09677,-0.44240,0.36663,,
10.1832,1,DESCENDING,-0.0000,1.35075,0.47958,-2.14122,0.09092,1.57080,-3.01911,-0.09677,-0.44240,0.36660,,
10.1908,1,DESCENDING,-0.0000,1.35075,0.47958,-2.14127,0.09098,1.57080,-3.01911,-0.09677,-0.44240,0.36657,,
10.2020,1,DESCENDING,-0.0000,1.35075,0.47958,-2.14128,0.09098,1.57080,-3.01911,-0.09677,-0.44240,0.36657,,
10.2115,1,DESCENDING,-0.0000,1.35075,0.47957,-2.14134,0.09106,1.57080,-3.01911,-0.09677,-0.44240,0.36653,,
10.2236,1,DESCENDING,-0.0000,1.35075,0.47956,-2.14144,0.09116,1.57080,-3.01911,-0.09677,-0.44240,0.36648,,
10.2318,1,DESCENDING,-0.0000,1.35075,0.47956,-2.14144,0.09116,1.57080,-3.01911,-0.09677,-0.44240,0.36647,,
10.2415,1,DESCENDING,-0.0000,1.35075,0.47956,-2.14147,0.09119,1.57080,-3.01911,-0.09677,-0.44240,0.36646,,
10.2509,1,DESCENDING,-0.0000,1.35075,0.47955,-2.14154,0.09127,1.57080,-3.01911,-0.09677,-0.44240,0.36642,,
10.2749,1,DESCENDING,-0.0000,1.35075,0.47954,-2.14164,0.09138,1.57080,-3.01911,-0.09677,-0.44240,0.36636,,
10.2853,1,DESCENDING,-0.0000,1.35075,0.47953,-2.14170,0.09145,1.57080,-3.01911,-0.09677,-0.44240,0.36632,,
10.2918,1,DESCENDING,-0.0000,1.35075,0.47953,-2.14170,0.09145,1.57080,-3.01911,-0.09677,-0.44240,0.36632,,
10.3011,1,DESCENDING,-0.0000,1.35075,0.47953,-2.14173,0.09148,1.57080,-3.01911,-0.09677,-0.44240,0.36630,,
10.3129,1,DESCENDING,-0.0000,1.35075,0.47952,-2.14180,0.09156,1.57080,-3.01911,-0.09677,-0.44240,0.36626,,
10.3288,1,DESCENDING,-0.0000,1.35075,0.47952,-2.14184,0.09160,1.57080,-3.01911,-0.09677,-0.44240,0.36624,,
10.3339,1,DESCENDING,-0.0000,1.35075,0.47951,-2.14187,0.09163,1.57080,-3.01911,-0.09677,-0.44240,0.36622,,
10.3403,1,DESCENDING,-0.0000,1.35075,0.47951,-2.14193,0.09170,1.57080,-3.01911,-0.09677,-0.44240,0.36618,,
10.3510,1,DESCENDING,-0.0000,1.35075,0.47950,-2.14196,0.09174,1.57080,-3.01911,-0.09677,-0.44240,0.36616,,
10.3669,1,DESCENDING,-0.0000,1.35075,0.47950,-2.14203,0.09182,1.57080,-3.01911,-0.09677,-0.44240,0.36612,,
10.3743,1,DESCENDING,-0.0000,1.35075,0.47949,-2.14206,0.09184,1.57080,-3.01911,-0.09677,-0.44240,0.36611,,
10.3817,1,DESCENDING,-0.0000,1.35075,0.47949,-2.14206,0.09185,1.57080,-3.01911,-0.09677,-0.44240,0.36610,,
10.4059,1,DESCENDING,-0.0000,1.35075,0.47948,-2.14222,0.09202,1.57080,-3.01911,-0.09677,-0.44240,0.36601,,
10.4063,1,DESCENDING,-0.0000,1.35075,0.47948,-2.14222,0.09202,1.57080,-3.01911,-0.09677,-0.44240,0.36601,,
10.4122,1,DESCENDING,-0.0000,1.35075,0.47947,-2.14222,0.09203,1.57080,-3.01911,-0.09677,-0.44240,0.36601,,
10.4223,1,DESCENDING,-0.0000,1.35075,0.47947,-2.14225,0.09206,1.57080,-3.01911,-0.09677,-0.44240,0.36599,,
10.4324,1,DESCENDING,-0.0000,1.35075,0.47946,-2.14232,0.09213,1.57080,-3.01911,-0.09677,-0.44240,0.36595,,
10.4407,1,DESCENDING,-0.0000,1.35075,0.47946,-2.14232,0.09214,1.57080,-3.01911,-0.09677,-0.44240,0.36595,,
10.4509,1,DESCENDING,-0.0000,1.35075,0.47946,-2.14239,0.09221,1.57080,-3.01911,-0.09677,-0.44240,0.36591,,
10.4681,1,DESCENDING,-0.0000,1.35075,0.47945,-2.14248,0.09231,1.57080,-3.01911,-0.09677,-0.44240,0.36585,,
10.4721,1,DESCENDING,-0.0000,1.35075,0.47945,-2.14248,0.09232,1.57080,-3.01911,-0.09677,-0.44240,0.36585,,
10.4825,1,DESCENDING,-0.0000,1.35075,0.47944,-2.14251,0.09235,1.57080,-3.01911,-0.09677,-0.44240,0.36584,,
10.4909,1,DESCENDING,-0.0000,1.35075,0.47944,-2.14258,0.09242,1.57080,-3.01911,-0.09677,-0.44240,0.36580,,
10.5009,1,DESCENDING,-0.0000,1.35075,0.47944,-2.14258,0.09243,1.57080,-3.01911,-0.09677,-0.44240,0.36579,,
10.5110,1,DESCENDING,-0.0000,1.35075,0.47943,-2.14265,0.09250,1.57080,-3.01911,-0.09677,-0.44240,0.36575,,
10.5232,1,DESCENDING,-0.0000,1.35075,0.47942,-2.14274,0.09260,1.57080,-3.01911,-0.09677,-0.44240,0.36570,,
10.5460,1,DESCENDING,-0.0000,1.35075,0.47941,-2.14281,0.09268,1.57080,-3.01911,-0.09677,-0.44240,0.36566,,
10.5467,1,DESCENDING,-0.0000,1.35075,0.47941,-2.14284,0.09271,1.57080,-3.01911,-0.09677,-0.44240,0.36564,,
10.5513,1,DESCENDING,-0.0000,1.35075,0.47941,-2.14287,0.09274,1.57080,-3.01911,-0.09677,-0.44240,0.36562,,
10.5617,1,DESCENDING,-0.0000,1.35075,0.47940,-2.14287,0.09275,1.57080,-3.01911,-0.09677,-0.44240,0.36562,,
10.5731,1,DESCENDING,-0.0000,1.35075,0.47940,-2.14293,0.09282,1.57080,-3.01911,-0.09677,-0.44240,0.36558,,
10.5805,1,DESCENDING,-0.0000,1.35075,0.47939,-2.14299,0.09288,1.57080,-3.01911,-0.09677,-0.44240,0.36555,,
10.5928,1,DESCENDING,-0.0000,1.35075,0.47939,-2.14303,0.09292,1.57080,-3.01911,-0.09677,-0.44240,0.36553,,
10.6005,1,DESCENDING,-0.0000,1.35075,0.47938,-2.14307,0.09296,1.57080,-3.01911,-0.09677,-0.44240,0.36551,,
10.6117,1,DESCENDING,-0.0000,1.35075,0.47937,-2.14315,0.09306,1.57080,-3.01911,-0.09677,-0.44240,0.36545,,
10.6210,1,DESCENDING,-0.0000,1.35075,0.47937,-2.14316,0.09306,1.57080,-3.01911,-0.09677,-0.44240,0.36545,,
10.6333,1,DESCENDING,-0.0000,1.35075,0.47937,-2.14322,0.09313,1.57080,-3.01911,-0.09677,-0.44240,0.36541,,
10.6442,1,DESCENDING,-0.0000,1.35075,0.47936,-2.14331,0.09323,1.57080,-3.01911,-0.09677,-0.44240,0.36536,,
10.6513,1,DESCENDING,-0.0000,1.35075,0.47936,-2.14331,0.09324,1.57080,-3.01911,-0.09677,-0.44240,0.36536,,
10.6652,1,DESCENDING,-0.0000,1.35075,0.47935,-2.14338,0.09331,1.57080,-3.01911,-0.09677,-0.44240,0.36532,,
10.6771,1,DESCENDING,-0.0000,1.35075,0.47934,-2.14344,0.09337,1.57080,-3.01911,-0.09677,-0.44240,0.36528,,
10.6819,1,DESCENDING,-0.0000,1.35075,0.47934,-2.14344,0.09338,1.57080,-3.01911,-0.09677,-0.44240,0.36528,,
10.6989,1,DESCENDING,-0.0000,1.35075,0.47933,-2.14356,0.09351,1.57080,-3.01911,-0.09677,-0.44240,0.36521,,
10.7476,1,DESCENDING,-0.0000,1.35075,0.47931,-2.14376,0.09374,1.57080,-3.01911,-0.09677,-0.44240,0.36509,,
10.7484,1,DESCENDING,-0.0000,1.35075,0.47931,-2.14376,0.09374,1.57080,-3.01911,-0.09677,-0.44240,0.36509,,
10.7515,1,DESCENDING,-0.0000,1.35075,0.47931,-2.14378,0.09376,1.57080,-3.01911,-0.09677,-0.44240,0.36508,,
10.7610,1,DESCENDING,-0.0000,1.35075,0.47930,-2.14383,0.09380,1.57080,-3.01911,-0.09677,-0.44240,0.36505,,
10.7841,1,DESCENDING,-0.0000,1.35075,0.47929,-2.14392,0.09391,1.57080,-3.01911,-0.09677,-0.44240,0.36499,,
10.7845,1,DESCENDING,-0.0000,1.35075,0.47929,-2.14392,0.09391,1.57080,-3.01911,-0.09677,-0.44240,0.36499,,
10.8036,1,DESCENDING,-0.0000,1.35075,0.47928,-2.14402,0.09402,1.57080,-3.01911,-0.09677,-0.44240,0.36494,,
10.8039,1,DESCENDING,-0.0000,1.35075,0.47928,-2.14402,0.09402,1.57080,-3.01911,-0.09677,-0.44240,0.36494,,
10.8122,1,DESCENDING,-0.0000,1.35075,0.47928,-2.14404,0.09404,1.57080,-3.01911,-0.09677,-0.44240,0.36492,,
10.8248,1,DESCENDING,-0.0000,1.35075,0.47927,-2.14411,0.09412,1.57080,-3.01911,-0.09677,-0.44240,0.36488,,
10.8319,1,DESCENDING,-0.0000,1.35075,0.47927,-2.14412,0.09413,1.57080,-3.01911,-0.09677,-0.44240,0.36488,,
10.8418,1,DESCENDING,-0.0000,1.35075,0.47927,-2.14415,0.09417,1.57080,-3.01911,-0.09677,-0.44240,0.36486,,
10.8515,1,DESCENDING,-0.0000,1.35075,0.47926,-2.14424,0.09427,1.57080,-3.01911,-0.09677,-0.44240,0.36480,,
10.9016,1,DESCENDING,-0.0000,1.35075,0.47924,-2.14441,0.09446,1.57080,-3.01911,-0.09677,-0.44240,0.36470,,
10.9020,1,DESCENDING,-0.0000,1.35075,0.47924,-2.14441,0.09446,1.57080,-3.01911,-0.09677,-0.44240,0.36470,,
10.9176,1,DESCENDING,-0.0000,1.35075,0.47922,-2.14453,0.09459,1.57080,-3.01911,-0.09677,-0.44240,0.36463,,
10.9382,1,DESCENDING,-0.0000,1.35075,0.47922,-2.14458,0.09465,1.57080,-3.01911,-0.09677,-0.44240,0.36460,,
10.9391,1,DESCENDING,-0.0000,1.35075,0.47922,-2.14461,0.09467,1.57080,-3.01911,-0.09677,-0.44240,0.36459,,
10.9475,1,DESCENDING,-0.0000,1.35075,0.47921,-2.14463,0.09470,1.57080,-3.01911,-0.09677,-0.44240,0.36457,,
10.9511,1,DESCENDING,-0.0000,1.35075,0.47921,-2.14464,0.09471,1.57080,-3.01911,-0.09677,-0.44240,0.36457,,
10.9613,1,DESCENDING,-0.0000,1.35075,0.47921,-2.14468,0.09475,1.57080,-3.01911,-0.09677,-0.44240,0.36454,,
10.9736,1,DESCENDING,-0.0000,1.35075,0.47920,-2.14476,0.09485,1.57080,-3.01911,-0.09677,-0.44240,0.36449,,
10.9840,1,DESCENDING,-0.0000,1.35075,0.47919,-2.14480,0.09488,1.57080,-3.01911,-0.09677,-0.44240,0.36447,,
10.9940,1,DESCENDING,-0.0000,1.35075,0.47919,-2.14482,0.09491,1.57080,-3.01911,-0.09677,-0.44240,0.36446,,
11.0017,1,DESCENDING,-0.0000,1.35075,0.47919,-2.14487,0.09496,1.57080,-3.01911,-0.09677,-0.44240,0.36443,,
11.0113,1,DESCENDING,-0.0000,1.35075,0.47918,-2.14490,0.09500,1.57080,-3.01911,-0.09677,-0.44240,0.36441,,
11.0268,1,DESCENDING,-0.0000,1.35075,0.47917,-2.14499,0.09510,1.57080,-3.01911,-0.09677,-0.44240,0.36435,,
11.0406,1,DESCENDING,-0.0000,1.35075,0.47917,-2.14505,0.09517,1.57080,-3.01911,-0.09677,-0.44240,0.36432,,
11.0429,1,DESCENDING,-0.0000,1.35075,0.47917,-2.14506,0.09517,1.57080,-3.01911,-0.09677,-0.44240,0.36432,,
11.0510,1,DESCENDING,-0.0000,1.35075,0.47916,-2.14508,0.09520,1.57080,-3.01911,-0.09677,-0.44240,0.36430,,
11.0627,1,DESCENDING,-0.0000,1.35075,0.47915,-2.14515,0.09528,1.57080,-3.01911,-0.09677,-0.44240,0.36426,,
11.0708,1,DESCENDING,-0.0000,1.35075,0.47915,-2.14516,0.09529,1.57080,-3.01911,-0.09677,-0.44240,0.36426,,
11.0856,1,DESCENDING,-0.0000,1.35075,0.47915,-2.14522,0.09536,1.57080,-3.01911,-0.09677,-0.44240,0.36422,,
11.0945,1,DESCENDING,-0.0000,1.35075,0.47914,-2.14529,0.09543,1.57080,-3.01911,-0.09677,-0.44240,0.36418,,
11.1024,1,DESCENDING,-0.0000,1.35075,0.47914,-2.14532,0.09546,1.57080,-3.01911,-0.09677,-0.44240,0.36416,,
11.1219,1,DESCENDING,-0.0000,1.35075,0.47913,-2.14539,0.09554,1.57080,-3.01911,-0.09677,-0.44240,0.36412,,
11.1329,1,DESCENDING,-0.0000,1.35075,0.47912,-2.14542,0.09557,1.57080,-3.01911,-0.09677,-0.44240,0.36410,,
11.1465,1,DESCENDING,-0.0000,1.35075,0.47912,-2.14548,0.09565,1.57080,-3.01911,-0.09677,-0.44240,0.36406,,
11.1530,1,DESCENDING,-0.0000,1.35075,0.47911,-2.14555,0.09571,1.57080,-3.01911,-0.09677,-0.44240,0.36402,,
11.1607,1,DESCENDING,-0.0000,1.35075,0.47911,-2.14558,0.09575,1.57080,-3.01911,-0.09677,-0.44240,0.36401,,
11.1713,1,DESCENDING,-0.0000,1.35075,0.47910,-2.14561,0.09578,1.57080,-3.01911,-0.09677,-0.44240,0.36399,,
11.1977,1,DESCENDING,-0.0000,1.35075,0.47909,-2.14570,0.09588,1.57080,-3.01911,-0.09677,-0.44240,0.36394,,
11.2027,1,DESCENDING,-0.0000,1.35075,0.47909,-2.14572,0.09591,1.57080,-3.01911,-0.09677,-0.44240,0.36392,,
11.2159,1,DESCENDING,-0.0000,1.35075,0.47908,-2.14584,0.09604,1.57080,-3.01911,-0.09677,-0.44240,0.36385,,
11.2223,1,DESCENDING,-0.0000,1.35075,0.47908,-2.14584,0.09604,1.57080,-3.01911,-0.09677,-0.44240,0.36385,,
11.2318,1,DESCENDING,-0.0000,1.35075,0.47907,-2.14587,0.09607,1.57080,-3.01911,-0.09677,-0.44240,0.36383,,
11.2426,1,DESCENDING,-0.0000,1.35075,0.47907,-2.14591,0.09612,1.57080,-3.01911,-0.09677,-0.44240,0.36381,,
11.2514,1,DESCENDING,-0.0000,1.35075,0.47907,-2.14594,0.09615,1.57080,-3.01911,-0.09677,-0.44240,0.36379,,
11.2655,1,DESCENDING,-0.0000,1.35075,0.47906,-2.14600,0.09623,1.57080,-3.01911,-0.09677,-0.44240,0.36375,,
11.2707,1,DESCENDING,-0.0000,1.35075,0.47906,-2.14604,0.09626,1.57080,-3.01911,-0.09677,-0.44240,0.36373,,
11.2817,1,DESCENDING,-0.0000,1.35075,0.47905,-2.14610,0.09633,1.57080,-3.01911,-0.09677,-0.44240,0.36370,,
11.2932,1,DESCENDING,-0.0000,1.35075,0.47905,-2.14613,0.09636,1.57080,-3.01911,-0.09677,-0.44240,0.36368,,
11.3006,1,DESCENDING,-0.0000,1.35075,0.47904,-2.14617,0.09641,1.57080,-3.01911,-0.09677,-0.44240,0.36365,,
11.3160,1,DESCENDING,-0.0000,1.35075,0.47904,-2.14622,0.09646,1.57080,-3.01911,-0.09677,-0.44240,0.36362,,
11.3203,1,DESCENDING,-0.0000,1.35075,0.47903,-2.14624,0.09648,1.57080,-3.01911,-0.09677,-0.44240,0.36361,,
11.3339,1,DESCENDING,-0.0000,1.35075,0.47902,-2.14633,0.09658,1.57080,-3.01911,-0.09677,-0.44240,0.36356,,
11.3439,1,DESCENDING,-0.0000,1.35075,0.47902,-2.14636,0.09662,1.57080,-3.01911,-0.09677,-0.44240,0.36354,,
11.3533,1,DESCENDING,-0.0000,1.35075,0.47901,-2.14640,0.09666,1.57080,-3.01911,-0.09677,-0.44240,0.36352,,
11.3610,1,DESCENDING,-0.0000,1.35075,0.47901,-2.14645,0.09672,1.57080,-3.01911,-0.09677,-0.44240,0.36348,,
11.3742,1,DESCENDING,-0.0000,1.35075,0.47900,-2.14649,0.09676,1.57080,-3.01911,-0.09677,-0.44240,0.36346,,
11.3818,1,DESCENDING,-0.0000,1.35075,0.47900,-2.14652,0.09680,1.57080,-3.01911,-0.09677,-0.44240,0.36344,,
11.4025,1,DESCENDING,-0.0000,1.35075,0.47899,-2.14664,0.09693,1.57080,-3.01911,-0.09677,-0.44240,0.36337,,
11.4110,1,DESCENDING,-0.0000,1.35075,0.47899,-2.14666,0.09695,1.57080,-3.01911,-0.09677,-0.44240,0.36336,,
11.4221,1,DESCENDING,-0.0000,1.35075,0.47898,-2.14674,0.09704,1.57080,-3.01911,-0.09677,-0.44240,0.36331,,
11.4318,1,DESCENDING,-0.0000,1.35075,0.47897,-2.14677,0.09708,1.57080,-3.01911,-0.09677,-0.44240,0.36329,,
11.4454,1,DESCENDING,-0.0000,1.35075,0.47897,-2.14683,0.09715,1.57080,-3.01911,-0.09677,-0.44240,0.36325,,
11.4523,1,DESCENDING,-0.0000,1.35075,0.47896,-2.14689,0.09722,1.57080,-3.01911,-0.09677,-0.44240,0.36322,,
11.4611,1,DESCENDING,-0.0000,1.35075,0.47895,-2.14692,0.09725,1.57080,-3.01911,-0.09677,-0.44240,0.36320,,
11.4716,1,DESCENDING,-0.0000,1.35075,0.47895,-2.14696,0.09729,1.57080,-3.01911,-0.09677,-0.44240,0.36318,,
11.4844,1,DESCENDING,-0.0000,1.35075,0.47894,-2.14705,0.09739,1.57080,-3.01911,-0.09677,-0.44240,0.36312,,
11.4963,1,DESCENDING,-0.0000,1.35075,0.47894,-2.14708,0.09743,1.57080,-3.01911,-0.09677,-0.44240,0.36310,,
11.5011,1,DESCENDING,-0.0000,1.35075,0.47894,-2.14710,0.09744,1.57080,-3.01911,-0.09677,-0.44240,0.36310,,
11.5222,1,DESCENDING,-0.0000,1.35075,0.47893,-2.14718,0.09754,1.57080,-3.01911,-0.09677,-0.44240,0.36305,,
11.5227,1,DESCENDING,-0.0000,1.35075,0.47893,-2.14718,0.09754,1.57080,-3.01911,-0.09677,-0.44240,0.36305,,
11.5318,1,DESCENDING,-0.0000,1.35075,0.47892,-2.14722,0.09758,1.57080,-3.01911,-0.09677,-0.44240,0.36302,,
11.5436,1,DESCENDING,-0.0000,1.35075,0.47891,-2.14731,0.09768,1.57080,-3.01911,-0.09677,-0.44240,0.36297,,
11.5545,1,DESCENDING,-0.0000,1.35075,0.47891,-2.14734,0.09771,1.57080,-3.01911,-0.09677,-0.44240,0.36295,,
11.5644,1,DESCENDING,-0.0000,1.35075,0.47890,-2.14737,0.09775,1.57080,-3.01911,-0.09677,-0.44240,0.36293,,
11.5718,1,DESCENDING,-0.0000,1.35075,0.47890,-2.14742,0.09780,1.57080,-3.01911,-0.09677,-0.44240,0.36291,,
