Martins-Lucaas/RoboticArm/sensors/Data/20260621_172820__samples.csv
t_rel_s,cycle,phase,force_net_n,q1,q2,q3,q4,q5,q6,tcp_x,tcp_y,tcp_z,touch_value,touch_age_ms
0.0103,1,HOME,-0.0000,1.35075,0.48284,-2.09940,0.04565,1.57079,-3.01912,-0.09678,-0.44233,0.39120,,
0.0230,1,HOME,-0.0000,1.35075,0.48284,-2.09940,0.04565,1.57079,-3.01912,-0.09678,-0.44233,0.39120,,
0.0297,1,HOME,-0.0000,1.35075,0.48284,-2.09940,0.04565,1.57079,-3.01912,-0.09678,-0.44233,0.39120,,
0.0380,1,HOME,-0.0000,1.35075,0.48284,-2.09940,0.04565,1.57079,-3.01912,-0.09678,-0.44233,0.39120,,
0.0544,1,HOME,-0.0000,1.35075,0.48284,-2.09940,0.04565,1.57079,-3.01912,-0.09678,-0.44233,0.39120,,
0.0617,1,HOME,-0.0000,1.35075,0.48284,-2.09940,0.04565,1.57079,-3.01912,-0.09678,-0.44233,0.39120,,
0.0702,1,HOME,-0.0000,1.35075,0.48284,-2.09940,0.04565,1.57079,-3.01912,-0.09678,-0.44233,0.39120,,
0.0809,1,HOME,-0.0000,1.35075,0.48284,-2.09940,0.04565,1.57079,-3.01912,-0.09678,-0.44233,0.39120,,
0.0889,1,HOME,-0.0000,1.35075,0.48284,-2.09940,0.04565,1.57079,-3.01912,-0.09678,-0.44233,0.39120,,
0.1005,1,HOME,-0.0000,1.35075,0.48284,-2.09940,0.04565,1.57079,-3.01912,-0.09678,-0.44233,0.39120,,
0.1111,1,HOME,-0.0000,1.35075,0.48284,-2.09940,0.04565,1.57079,-3.01912,-0.09678,-0.44233,0.39120,,
0.1196,1,HOME,-0.0000,1.35075,0.48284,-2.09940,0.04565,1.57079,-3.01912,-0.09678,-0.44233,0.39120,,
0.1305,1,HOME,-0.0000,1.35075,0.48284,-2.09940,0.04565,1.57079,-3.01912,-0.09678,-0.44233,0.39120,,
0.1395,1,HOME,-0.0000,1.35075,0.48284,-2.09940,0.04565,1.57079,-3.01912,-0.09678,-0.44233,0.39120,,
0.1492,1,HOME,-0.0000,1.35075,0.48284,-2.09940,0.04565,1.57079,-3.01912,-0.09678,-0.44233,0.39120,,
0.1635,1,HOME,-0.0000,1.35075,0.48284,-2.09940,0.04565,1.57079,-3.01912,-0.09678,-0.44233,0.39120,,
0.1810,1,HOME,-0.0000,1.35075,0.48284,-2.09940,0.04565,1.57079,-3.01912,-0.09678,-0.44233,0.39120,,
0.1903,1,HOME,-0.0000,1.35075,0.48284,-2.09940,0.04565,1.57079,-3.01912,-0.09678,-0.44233,0.39120,,
0.2020,1,HOME,-0.0000,1.35075,0.48284,-2.09940,0.04565,1.57079,-3.01912,-0.09678,-0.44233,0.39120,,
0.2149,1,HOME,-0.0000,1.35075,0.48284,-2.09940,0.04565,1.57079,-3.01912,-0.09678,-0.44233,0.39120,,
0.2204,1,HOME,-0.0000,1.35075,0.48284,-2.09940,0.04565,1.57079,-3.01912,-0.09678,-0.44233,0.39120,,
0.2423,1,HOME,-0.0000,1.35075,0.48284,-2.09940,0.04565,1.57079,-3.01912,-0.09678,-0.44233,0.39120,,
0.2500,1,HOME,-0.0000,1.35075,0.48284,-2.09940,0.04565,1.57079,-3.01912,-0.09678,-0.44233,0.39120,,
0.2506,1,HOME,-0.0000,1.35075,0.48284,-2.09940,0.04565,1.57079,-3.01912,-0.09678,-0.44233,0.39120,,
0.2739,1,HOME,-0.0000,1.35075,0.48284,-2.09940,0.04565,1.57079,-3.01912,-0.09678,-0.44233,0.39120,,
0.2742,1,HOME,-0.0000,1.35075,0.48284,-2.09940,0.04565,1.57079,-3.01912,-0.09678,-0.44233,0.39120,,
0.2813,1,HOME,-0.0000,1.35075,0.48284,-2.09940,0.04565,1.57079,-3.01912,-0.09678,-0.44233,0.39120,,
0.2903,1,HOME,-0.0000,1.35075,0.48284,-2.09940,0.04565,1.57079,-3.01912,-0.09678,-0.44233,0.39120,,
0.2991,1,HOME,-0.0000,1.35075,0.48284,-2.09940,0.04565,1.57079,-3.01912,-0.09678,-0.44233,0.39120,,
0.3219,1,HOME,-0.0000,1.35075,0.48284,-2.09940,0.04565,1.57079,-3.01912,-0.09678,-0.44233,0.39120,,
0.3227,1,HOME,-0.0000,1.35075,0.48284,-2.09940,0.04565,1.57079,-3.01912,-0.09678,-0.44233,0.39120,,
0.3282,1,HOME,-0.0000,1.35075,0.48284,-2.09940,0.04565,1.57079,-3.01912,-0.09678,-0.44233,0.39120,,
0.3417,1,HOME,-0.0000,1.35075,0.48284,-2.09940,0.04565,1.57079,-3.01912,-0.09678,-0.44233,0.39120,,
0.3493,1,HOME,-0.0000,1.35075,0.48284,-2.09940,0.04565,1.57079,-3.01912,-0.09678,-0.44233,0.39120,,
0.3852,1,HOME,-0.0000,1.35075,0.48284,-2.09940,0.04565,1.57079,-3.01912,-0.09678,-0.44233,0.39120,,
0.3856,1,HOME,-0.0000,1.35075,0.48284,-2.09940,0.04565,1.57079,-3.01912,-0.09678,-0.44233,0.39120,,
0.3894,1,HOME,-0.0000,1.35075,0.48284,-2.09940,0.04565,1.57079,-3.01912,-0.09678,-0.44233,0.39120,,
0.4071,1,HOME,-0.0000,1.35075,0.48284,-2.09940,0.04565,1.57079,-3.01912,-0.09678,-0.44233,0.39120,,
0.4456,1,HOME,-0.0000,1.35075,0.48284,-2.09940,0.04565,1.57079,-3.01912,-0.09678,-0.44233,0.39120,,
0.4468,1,HOME,-0.0000,1.35075,0.48284,-2.09940,0.04565,1.57079,-3.01912,-0.09678,-0.44233,0.39120,,
0.4751,1,HOME,-0.0000,1.35075,0.48284,-2.09940,0.04565,1.57079,-3.01912,-0.09678,-0.44233,0.39120,,
0.4755,1,HOME,-0.0000,1.35075,0.48284,-2.09940,0.04565,1.57079,-3.01912,-0.09678,-0.44233,0.39120,,
0.4857,1,HOME,-0.0000,1.35075,0.48284,-2.09940,0.04565,1.57079,-3.01912,-0.09678,-0.44233,0.39120,,
0.4945,1,HOME,-0.0000,1.35075,0.48284,-2.09940,0.04565,1.57079,-3.01912,-0.09678,-0.44233,0.39120,,
0.4949,1,HOME,-0.0000,1.35075,0.48284,-2.09940,0.04565,1.57079,-3.01912,-0.09678,-0.44233,0.39120,,
0.5026,1,HOME,-0.0000,1.35075,0.48284,-2.09940,0.04565,1.57079,-3.01912,-0.09678,-0.44233,0.39120,,
0.5114,1,HOME,-0.0000,1.35075,0.48284,-2.09940,0.04565,1.57079,-3.01912,-0.09678,-0.44233,0.39120,,
0.5220,1,HOME,-0.0000,1.35075,0.48284,-2.09940,0.04565,1.57079,-3.01912,-0.09678,-0.44233,0.39120,,
0.5335,1,HOME,-0.0000,1.35075,0.48284,-2.09940,0.04565,1.57079,-3.01912,-0.09678,-0.44233,0.39120,,
0.5518,1,HOME,-0.0000,1.35075,0.48284,-2.09940,0.04565,1.57079,-3.01912,-0.09678,-0.44233,0.39120,,
0.5584,1,HOME,-0.0000,1.35075,0.48284,-2.09940,0.04565,1.57079,-3.01912,-0.09678,-0.44233,0.39120,,
0.5599,1,HOME,-0.0000,1.35075,0.48284,-2.09940,0.04565,1.57079,-3.01912,-0.09678,-0.44233,0.39120,,
0.5691,1,HOME,-0.0000,1.35075,0.48284,-2.09940,0.04565,1.57079,-3.01912,-0.09678,-0.44233,0.39120,,
0.5816,1,HOME,-0.0000,1.35075,0.48284,-2.09940,0.04565,1.57079,-3.01912,-0.09678,-0.44233,0.39120,,
0.5899,1,HOME,-0.0000,1.35075,0.48284,-2.09940,0.04565,1.57079,-3.01912,-0.09678,-0.44233,0.39120,,
0.5994,1,HOME,-0.0000,1.35075,0.48284,-2.09940,0.04565,1.57079,-3.01912,-0.09678,-0.44233,0.39120,,
0.6123,1,HOME,-0.0000,1.35075,0.48284,-2.09940,0.04565,1.57079,-3.01912,-0.09678,-0.44233,0.39120,,
0.6238,1,HOME,-0.0000,1.35075,0.48284,-2.09940,0.04565,1.57079,-3.01912,-0.09678,-0.44233,0.39120,,
0.6309,1,HOME,-0.0000,1.35075,0.48284,-2.09940,0.04565,1.57079,-3.01912,-0.09678,-0.44233,0.39120,,
0.6433,1,HOME,-0.0000,1.35075,0.48284,-2.09940,0.04565,1.57079,-3.01912,-0.09678,-0.44233,0.39120,,
0.6501,1,HOME,-0.0000,1.35075,0.48284,-2.09940,0.04565,1.57079,-3.01912,-0.09678,-0.44233,0.39120,,
0.6597,1,HOME,-0.0000,1.35075,0.48284,-2.09940,0.04565,1.57079,-3.01912,-0.09678,-0.44233,0.39120,,
0.6753,1,HOME,-0.0000,1.35075,0.48284,-2.09940,0.04565,1.57079,-3.01912,-0.09678,-0.44233,0.39120,,
0.6801,1,HOME,-0.0000,1.35075,0.48284,-2.09940,0.04565,1.57079,-3.01912,-0.09678,-0.44233,0.39120,,
0.6916,1,HOME,-0.0000,1.35075,0.48284,-2.09940,0.04565,1.57079,-3.01912,-0.09678,-0.44233,0.39120,,
0.6997,1,HOME,-0.0000,1.35075,0.48284,-2.09940,0.04565,1.57079,-3.01912,-0.09678,-0.44233,0.39120,,
0.7095,1,HOME,-0.0000,1.35075,0.48284,-2.09940,0.04565,1.57079,-3.01912,-0.09678,-0.44233,0.39120,,
0.7329,1,DESCENDING,-0.0000,1.35075,0.48284,-2.09940,0.04565,1.57079,-3.01912,-0.09678,-0.44233,0.39120,,
0.7351,1,DESCENDING,-0.0000,1.35075,0.48284,-2.09940,0.04565,1.57079,-3.01912,-0.09678,-0.44233,0.39120,,
0.7400,1,DESCENDING,-0.0000,1.35075,0.48284,-2.09940,0.04565,1.57079,-3.01912,-0.09678,-0.44233,0.39120,,
0.7514,1,DESCENDING,-0.0000,1.35075,0.48284,-2.09940,0.04565,1.57079,-3.01912,-0.09678,-0.44233,0.39120,,
0.7598,1,DESCENDING,-0.0000,1.35075,0.48284,-2.09940,0.04565,1.57079,-3.01912,-0.09678,-0.44233,0.39120,,
0.7725,1,DESCENDING,-0.0000,1.35075,0.48284,-2.09940,0.04565,1.57079,-3.01912,-0.09678,-0.44233,0.39120,,
0.7786,1,DESCENDING,-0.0000,1.35075,0.48284,-2.09940,0.04565,1.57079,-3.01912,-0.09678,-0.44233,0.39120,,
0.7930,1,DESCENDING,-0.0000,1.35075,0.48284,-2.09940,0.04565,1.57079,-3.01912,-0.09678,-0.44233,0.39120,,
0.7994,1,DESCENDING,-0.0000,1.35075,0.48284,-2.09940,0.04565,1.57079,-3.01912,-0.09678,-0.44233,0.39120,,
0.8095,1,DESCENDING,-0.0000,1.35075,0.48284,-2.09940,0.04565,1.57079,-3.01912,-0.09678,-0.44233,0.39120,,
0.8199,1,DESCENDING,-0.0000,1.35075,0.48284,-2.09940,0.04565,1.57079,-3.01912,-0.09678,-0.44233,0.39120,,
0.8343,1,DESCENDING,-0.0000,1.35075,0.48284,-2.09940,0.04565,1.57079,-3.01912,-0.09678,-0.44233,0.39120,,
0.8408,1,DESCENDING,-0.0000,1.35075,0.48284,-2.09940,0.04565,1.57079,-3.01912,-0.09678,-0.44233,0.39120,,
0.8494,1,DESCENDING,-0.0000,1.35075,0.48284,-2.09940,0.04565,1.57079,-3.01912,-0.09678,-0.44233,0.39120,,
0.8618,1,DESCENDING,-0.0000,1.35075,0.48284,-2.09940,0.04565,1.57079,-3.01912,-0.09678,-0.44233,0.39120,,
0.8740,1,DESCENDING,-0.0000,1.35075,0.48284,-2.09940,0.04565,1.57079,-3.01912,-0.09678,-0.44233,0.39120,,
0.8808,1,DESCENDING,-0.0000,1.35075,0.48284,-2.09940,0.04565,1.57079,-3.01912,-0.09678,-0.44233,0.39120,,
0.8903,1,DESCENDING,-0.0000,1.35075,0.48284,-2.09940,0.04565,1.57079,-3.01912,-0.09678,-0.44233,0.39120,,
0.8992,1,DESCENDING,-0.0000,1.35075,0.48284,-2.09940,0.04565,1.57079,-3.01912,-0.09678,-0.44233,0.39120,,
0.9089,1,DESCENDING,-0.0000,1.35075,0.48284,-2.09940,0.04565,1.57079,-3.01912,-0.09678,-0.44233,0.39120,,
0.9185,1,DESCENDING,-0.0000,1.35075,0.48284,-2.09940,0.04565,1.57079,-3.01912,-0.09678,-0.44233,0.39120,,
0.9307,1,DESCENDING,-0.0000,1.35075,0.48284,-2.09940,0.04565,1.57079,-3.01912,-0.09678,-0.44233,0.39120,,
0.9465,1,DESCENDING,-0.0000,1.35075,0.48283,-2.09945,0.04569,1.57079,-3.01912,-0.09678,-0.44233,0.39118,,
0.9500,1,DESCENDING,-0.0000,1.35075,0.48283,-2.09947,0.04571,1.57079,-3.01912,-0.09678,-0.44233,0.39117,,
0.9604,1,DESCENDING,-0.0000,1.35075,0.48283,-2.09947,0.04571,1.57079,-3.01912,-0.09678,-0.44233,0.39117,,
0.9711,1,DESCENDING,-0.0000,1.35075,0.48283,-2.09949,0.04574,1.57079,-3.01912,-0.09678,-0.44233,0.39115,,
0.9829,1,DESCENDING,-0.0000,1.35075,0.48283,-2.09951,0.04576,1.57079,-3.01912,-0.09678,-0.44233,0.39114,,
0.9930,1,DESCENDING,-0.0000,1.35075,0.48283,-2.09954,0.04578,1.57079,-3.01912,-0.09678,-0.44233,0.39113,,
0.9992,1,DESCENDING,-0.0000,1.35075,0.48283,-2.09955,0.04580,1.57079,-3.01912,-0.09678,-0.44233,0.39112,,
1.0160,1,DESCENDING,-0.0000,1.35075,0.48283,-2.09960,0.04585,1.57079,-3.01912,-0.09678,-0.44233,0.39109,,
1.0226,1,DESCENDING,-0.0000,1.35075,0.48283,-2.09960,0.04586,1.57079,-3.01912,-0.09678,-0.44233,0.39109,,
1.0382,1,DESCENDING,-0.0000,1.35075,0.48282,-2.09965,0.04590,1.57079,-3.01912,-0.09678,-0.44233,0.39106,,
1.0391,1,DESCENDING,-0.0000,1.35075,0.48282,-2.09965,0.04590,1.57079,-3.01912,-0.09678,-0.44233,0.39106,,
1.0500,1,DESCENDING,-0.0000,1.35075,0.48282,-2.09966,0.04591,1.57079,-3.01912,-0.09678,-0.44233,0.39106,,
1.0605,1,DESCENDING,-0.0000,1.35075,0.48282,-2.09968,0.04594,1.57079,-3.01912,-0.09678,-0.44233,0.39104,,
1.0785,1,DESCENDING,-0.0000,1.35075,0.48282,-2.09973,0.04599,1.57079,-3.01912,-0.09678,-0.44233,0.39101,,
1.0796,1,DESCENDING,-0.0000,1.35075,0.48282,-2.09973,0.04599,1.57079,-3.01912,-0.09678,-0.44233,0.39101,,
1.0936,1,DESCENDING,-0.0000,1.35075,0.48282,-2.09977,0.04603,1.57079,-3.01912,-0.09678,-0.44233,0.39099,,
1.1000,1,DESCENDING,-0.0000,1.35075,0.48282,-2.09978,0.04604,1.57079,-3.01912,-0.09678,-0.44233,0.39098,,
1.1089,1,DESCENDING,-0.0000,1.35075,0.48282,-2.09979,0.04605,1.57079,-3.01912,-0.09678,-0.44233,0.39098,,
1.1199,1,DESCENDING,-0.0000,1.35075,0.48282,-2.09982,0.04608,1.57079,-3.01912,-0.09678,-0.44233,0.39096,,
1.1355,1,DESCENDING,-0.0000,1.35075,0.48281,-2.09986,0.04613,1.57079,-3.01912,-0.09678,-0.44233,0.39094,,
1.1388,1,DESCENDING,-0.0000,1.35075,0.48281,-2.09987,0.04613,1.57079,-3.01912,-0.09678,-0.44233,0.39094,,
1.1494,1,DESCENDING,-0.0000,1.35075,0.48281,-2.09989,0.04616,1.57079,-3.01912,-0.09678,-0.44233,0.39092,,
1.1632,1,DESCENDING,-0.0000,1.35075,0.48281,-2.09991,0.04618,1.57079,-3.01912,-0.09678,-0.44233,0.39091,,
1.1694,1,DESCENDING,-0.0000,1.35075,0.48281,-2.09993,0.04619,1.57079,-3.01912,-0.09678,-0.44233,0.39090,,
1.1812,1,DESCENDING,-0.0000,1.35075,0.48281,-2.09997,0.04624,1.57079,-3.01912,-0.09678,-0.44233,0.39088,,
1.1891,1,DESCENDING,-0.0000,1.35075,0.48281,-2.10000,0.04627,1.57079,-3.01912,-0.09678,-0.44233,0.39086,,
1.1994,1,DESCENDING,-0.0000,1.35075,0.48281,-2.10000,0.04627,1.57079,-3.01912,-0.09678,-0.44233,0.39086,,
1.2129,1,DESCENDING,-0.0000,1.35075,0.48280,-2.10004,0.04631,1.57079,-3.01912,-0.09678,-0.44233,0.39084,,
1.2200,1,DESCENDING,-0.0000,1.35075,0.48280,-2.10005,0.04632,1.57079,-3.01912,-0.09678,-0.44233,0.39083,,
1.2290,1,DESCENDING,-0.0000,1.35075,0.48280,-2.10006,0.04633,1.57079,-3.01912,-0.09678,-0.44233,0.39082,,
1.2455,1,DESCENDING,-0.0000,1.35075,0.48280,-2.10012,0.04639,1.57079,-3.01912,-0.09678,-0.44233,0.39079,,
1.2624,1,DESCENDING,-0.0000,1.35075,0.48280,-2.10014,0.04642,1.57079,-3.01912,-0.09678,-0.44233,0.39078,,
1.2636,1,DESCENDING,-0.0000,1.35075,0.48280,-2.10014,0.04642,1.57079,-3.01912,-0.09678,-0.44233,0.39078,,
1.2677,1,DESCENDING,-0.0000,1.35075,0.48280,-2.10015,0.04643,1.57079,-3.01912,-0.09678,-0.44233,0.39077,,
1.2812,1,DESCENDING,-0.0000,1.35075,0.48280,-2.10020,0.04648,1.57079,-3.01912,-0.09678,-0.44233,0.39074,,
1.2905,1,DESCENDING,-0.0000,1.35075,0.48280,-2.10021,0.04649,1.57079,-3.01912,-0.09678,-0.44233,0.39074,,
1.3005,1,DESCENDING,-0.0000,1.35075,0.48279,-2.10023,0.04652,1.57079,-3.01912,-0.09678,-0.44233,0.39072,,
1.3105,1,DESCENDING,-0.0000,1.35075,0.48279,-2.10028,0.04656,1.57079,-3.01912,-0.09678,-0.44233,0.39070,,
1.3186,1,DESCENDING,-0.0000,1.35075,0.48279,-2.10028,0.04657,1.57079,-3.01912,-0.09678,-0.44233,0.39069,,
1.3310,1,DESCENDING,-0.0000,1.35075,0.48279,-2.10031,0.04660,1.57079,-3.01912,-0.09678,-0.44233,0.39068,,
1.3411,1,DESCENDING,-0.0000,1.35075,0.48279,-2.10034,0.04663,1.57079,-3.01912,-0.09678,-0.44233,0.39066,,
1.3493,1,DESCENDING,-0.0000,1.35075,0.48279,-2.10035,0.04664,1.57079,-3.01912,-0.09678,-0.44233,0.39065,,
1.3584,1,DESCENDING,-0.0000,1.35075,0.48279,-2.10038,0.04667,1.57079,-3.01912,-0.09678,-0.44233,0.39064,,
1.3702,1,DESCENDING,-0.0000,1.35075,0.48278,-2.10042,0.04672,1.57079,-3.01912,-0.09678,-0.44233,0.39061,,
1.3811,1,DESCENDING,-0.0000,1.35075,0.48278,-2.10043,0.04673,1.57079,-3.01912,-0.09678,-0.44233,0.39061,,
1.3923,1,DESCENDING,-0.0000,1.35075,0.48278,-2.10046,0.04675,1.57079,-3.01912,-0.09678,-0.44233,0.39059,,
1.4033,1,DESCENDING,-0.0000,1.35075,0.48278,-2.10050,0.04680,1.57079,-3.01912,-0.09678,-0.44233,0.39056,,
1.4092,1,DESCENDING,-0.0000,1.35075,0.48278,-2.10050,0.04680,1.57079,-3.01912,-0.09678,-0.44233,0.39056,,
1.4238,1,DESCENDING,-0.0000,1.35075,0.48278,-2.10053,0.04683,1.57079,-3.01912,-0.09678,-0.44233,0.39055,,
1.4289,1,DESCENDING,-0.0000,1.35075,0.48278,-2.10055,0.04686,1.57079,-3.01912,-0.09678,-0.44233,0.39053,,
1.4433,1,DESCENDING,-0.0000,1.35075,0.48278,-2.10056,0.04687,1.57079,-3.01912,-0.09678,-0.44233,0.39053,,
1.4532,1,DESCENDING,-0.0000,1.35075,0.48277,-2.10061,0.04691,1.57079,-3.01912,-0.09678,-0.44233,0.39050,,
1.4636,1,DESCENDING,-0.0000,1.35075,0.48277,-2.10064,0.04694,1.57079,-3.01912,-0.09678,-0.44233,0.39049,,
1.4684,1,DESCENDING,-0.0000,1.35075,0.48277,-2.10064,0.04694,1.57079,-3.01912,-0.09678,-0.44233,0.39049,,
1.4833,1,DESCENDING,-0.0000,1.35075,0.48277,-2.10066,0.04697,1.57079,-3.01912,-0.09678,-0.44233,0.39047,,
1.4892,1,DESCENDING,-0.0000,1.35075,0.48277,-2.10069,0.04700,1.57079,-3.01912,-0.09678,-0.44233,0.39046,,
1.5099,1,DESCENDING,-0.0000,1.35075,0.48277,-2.10072,0.04703,1.57079,-3.01912,-0.09678,-0.44233,0.39044,,
1.5103,1,DESCENDING,-0.0000,1.35075,0.48277,-2.10072,0.04703,1.57079,-3.01912,-0.09678,-0.44233,0.39044,,
1.5186,1,DESCENDING,-0.0000,1.35075,0.48277,-2.10076,0.04707,1.57079,-3.01912,-0.09678,-0.44233,0.39042,,
1.5302,1,DESCENDING,-0.0000,1.35075,0.48277,-2.10077,0.04709,1.57079,-3.01912,-0.09678,-0.44233,0.39041,,
1.5524,1,DESCENDING,-0.0000,1.35075,0.48276,-2.10082,0.04714,1.57079,-3.01912,-0.09678,-0.44233,0.39038,,
1.5535,1,DESCENDING,-0.0000,1.35075,0.48276,-2.10082,0.04714,1.57079,-3.01912,-0.09678,-0.44233,0.39038,,
1.5778,1,DESCENDING,-0.0000,1.35075,0.48276,-2.10089,0.04721,1.57079,-3.01912,-0.09678,-0.44233,0.39034,,
1.5781,1,DESCENDING,-0.0000,1.35075,0.48276,-2.10089,0.04721,1.57079,-3.01912,-0.09678,-0.44233,0.39034,,
1.5796,1,DESCENDING,-0.0000,1.35075,0.48276,-2.10089,0.04721,1.57079,-3.01912,-0.09678,-0.44233,0.39034,,
1.5963,1,DESCENDING,-0.0000,1.35075,0.48276,-2.10091,0.04723,1.57079,-3.01912,-0.09678,-0.44233,0.39033,,
1.6014,1,DESCENDING,-0.0000,1.35075,0.48276,-2.10093,0.04725,1.57079,-3.01912,-0.09678,-0.44233,0.39032,,
1.6093,1,DESCENDING,-0.0000,1.35075,0.48276,-2.10096,0.04728,1.57079,-3.01912,-0.09678,-0.44233,0.39030,,
1.6228,1,DESCENDING,-0.0000,1.35075,0.48276,-2.10097,0.04729,1.57079,-3.01912,-0.09678,-0.44233,0.39030,,
1.6336,1,DESCENDING,-0.0000,1.35075,0.48275,-2.10101,0.04733,1.57079,-3.01912,-0.09678,-0.44233,0.39027,,
1.6563,1,DESCENDING,-0.0000,1.35075,0.48275,-2.10104,0.04737,1.57079,-3.01912,-0.09678,-0.44233,0.39025,,
1.6619,1,DESCENDING,-0.0000,1.35075,0.48275,-2.10106,0.04739,1.57079,-3.01912,-0.09678,-0.44233,0.39024,,
1.6721,1,DESCENDING,-0.0000,1.35075,0.48275,-2.10109,0.04742,1.57079,-3.01912,-0.09678,-0.44233,0.39022,,
1.6738,1,DESCENDING,-0.0000,1.35075,0.48275,-2.10109,0.04742,1.57079,-3.01912,-0.09678,-0.44233,0.39022,,
1.6830,1,DESCENDING,-0.0000,1.35075,0.48275,-2.10110,0.04743,1.57079,-3.01912,-0.09678,-0.44233,0.39022,,
1.6937,1,DESCENDING,-0.0000,1.35075,0.48275,-2.10114,0.04747,1.57079,-3.01912,-0.09678,-0.44233,0.39019,,
1.7002,1,DESCENDING,-0.0000,1.35075,0.48275,-2.10116,0.04749,1.57079,-3.01912,-0.09678,-0.44233,0.39018,,
1.7098,1,DESCENDING,-0.0000,1.35075,0.48274,-2.10117,0.04751,1.57079,-3.01912,-0.09678,-0.44233,0.39017,,
1.7186,1,DESCENDING,-0.0000,1.35075,0.48274,-2.10119,0.04752,1.57079,-3.01912,-0.09678,-0.44233,0.39017,,
1.7290,1,DESCENDING,-0.0000,1.35075,0.48274,-2.10122,0.04756,1.57079,-3.01912,-0.09678,-0.44233,0.39015,,
1.7398,1,DESCENDING,-0.0000,1.35075,0.48274,-2.10123,0.04756,1.57079,-3.01912,-0.09678,-0.44233,0.39014,,
1.7554,1,DESCENDING,-0.0000,1.35075,0.48274,-2.10127,0.04761,1.57079,-3.01912,-0.09678,-0.44233,0.39012,,
1.7601,1,DESCENDING,-0.0000,1.35075,0.48274,-2.10129,0.04763,1.57079,-3.01912,-0.09678,-0.44233,0.39011,,
1.7699,1,DESCENDING,-0.0000,1.35075,0.48274,-2.10131,0.04765,1.57079,-3.01912,-0.09678,-0.44233,0.39010,,
1.7778,1,DESCENDING,-0.0000,1.35075,0.48274,-2.10132,0.04766,1.57079,-3.01912,-0.09678,-0.44233,0.39009,,
1.7932,1,DESCENDING,-0.0000,1.35075,0.48274,-2.10136,0.04770,1.57079,-3.01912,-0.09678,-0.44233,0.39007,,
1.8031,1,DESCENDING,-0.0000,1.35075,0.48273,-2.10137,0.04771,1.57079,-3.01912,-0.09678,-0.44233,0.39006,,
1.8137,1,DESCENDING,-0.0000,1.35075,0.48273,-2.10141,0.04775,1.57079,-3.01912,-0.09678,-0.44233,0.39004,,
1.8188,1,DESCENDING,-0.0000,1.35075,0.48273,-2.10142,0.04777,1.57079,-3.01912,-0.09678,-0.44233,0.39003,,
1.8301,1,DESCENDING,-0.0000,1.35075,0.48273,-2.10144,0.04779,1.57079,-3.01912,-0.09678,-0.44233,0.39002,,
1.8385,1,DESCENDING,-0.0000,1.35075,0.48273,-2.10146,0.04781,1.57079,-3.01912,-0.09678,-0.44233,0.39001,,
1.8530,1,DESCENDING,-0.0000,1.35075,0.48273,-2.10150,0.04785,1.57079,-3.01912,-0.09678,-0.44233,0.38998,,
1.8586,1,DESCENDING,-0.0000,1.35075,0.48273,-2.10151,0.04786,1.57079,-3.01912,-0.09678,-0.44233,0.38998,,
1.8773,1,DESCENDING,-0.0000,1.35075,0.48272,-2.10157,0.04792,1.57079,-3.01912,-0.09678,-0.44233,0.38994,,
1.8821,1,DESCENDING,-0.0000,1.35075,0.48272,-2.10158,0.04794,1.57079,-3.01912,-0.09678,-0.44233,0.38993,,
1.8913,1,DESCENDING,-0.0000,1.35075,0.48272,-2.10159,0.04794,1.57079,-3.01912,-0.09678,-0.44233,0.38993,,
1.8986,1,DESCENDING,-0.0000,1.35075,0.48272,-2.10160,0.04796,1.57079,-3.01912,-0.09678,-0.44233,0.38992,,
1.9109,1,DESCENDING,-0.0000,1.35075,0.48272,-2.10165,0.04801,1.57079,-3.01912,-0.09678,-0.44233,0.38990,,
1.9214,1,DESCENDING,-0.0000,1.35075,0.48272,-2.10166,0.04802,1.57079,-3.01912,-0.09678,-0.44233,0.38989,,
1.9297,1,DESCENDING,-0.0000,1.35075,0.48272,-2.10168,0.04804,1.57079,-3.01912,-0.09678,-0.44233,0.38988,,
1.9388,1,DESCENDING,-0.0000,1.35075,0.48272,-2.10171,0.04808,1.57079,-3.01912,-0.09678,-0.44233,0.38986,,
1.9606,1,DESCENDING,-0.0000,1.35075,0.48271,-2.10175,0.04811,1.57079,-3.01912,-0.09678,-0.44233,0.38984,,
1.9635,1,DESCENDING,-0.0000,1.35075,0.48271,-2.10176,0.04813,1.57079,-3.01912,-0.09678,-0.44233,0.38983,,
1.9715,1,DESCENDING,-0.0000,1.35075,0.48271,-2.10179,0.04816,1.57079,-3.01912,-0.09678,-0.44233,0.38981,,
1.9874,1,DESCENDING,-0.0000,1.35075,0.48271,-2.10182,0.04818,1.57079,-3.01912,-0.09678,-0.44233,0.38980,,
1.9895,1,DESCENDING,-0.0000,1.35075,0.48271,-2.10183,0.04820,1.57079,-3.01912,-0.09678,-0.44233,0.38979,,
2.0011,1,DESCENDING,-0.0000,1.35075,0.48271,-2.10188,0.04825,1.57079,-3.01912,-0.09678,-0.44233,0.38977,,
2.0144,1,DESCENDING,-0.0000,1.35075,0.48271,-2.10189,0.04826,1.57079,-3.01912,-0.09678,-0.44233,0.38976,,
2.0217,1,DESCENDING,-0.0000,1.35075,0.48271,-2.10191,0.04828,1.57079,-3.01912,-0.09678,-0.44233,0.38975,,
2.0307,1,DESCENDING,-0.0000,1.35075,0.48270,-2.10194,0.04832,1.57079,-3.01912,-0.09678,-0.44233,0.38973,,
2.0416,1,DESCENDING,-0.0000,1.35075,0.48270,-2.10195,0.04833,1.57079,-3.01912,-0.09678,-0.44233,0.38972,,
2.0565,1,DESCENDING,-0.0000,1.35075,0.48270,-2.10199,0.04837,1.57079,-3.01912,-0.09678,-0.44233,0.38970,,
2.0626,1,DESCENDING,-0.0000,1.35075,0.48270,-2.10202,0.04840,1.57079,-3.01912,-0.09678,-0.44233,0.38968,,
2.0739,1,DESCENDING,-0.0000,1.35075,0.48270,-2.10203,0.04841,1.57079,-3.01912,-0.09678,-0.44233,0.38967,,
2.0816,1,DESCENDING,-0.0000,1.35075,0.48270,-2.10206,0.04844,1.57079,-3.01912,-0.09678,-0.44233,0.38966,,
2.0950,1,DESCENDING,-0.0000,1.35075,0.48270,-2.10209,0.04847,1.57079,-3.01912,-0.09678,-0.44233,0.38964,,
2.1031,1,DESCENDING,-0.0000,1.35075,0.48270,-2.10210,0.04848,1.57079,-3.01912,-0.09678,-0.44233,0.38964,,
2.1096,1,DESCENDING,-0.0000,1.35075,0.48269,-2.10212,0.04850,1.57079,-3.01912,-0.09678,-0.44233,0.38962,,
2.1215,1,DESCENDING,-0.0000,1.35075,0.48269,-2.10217,0.04855,1.57079,-3.01912,-0.09678,-0.44233,0.38960,,
2.1336,1,DESCENDING,-0.0000,1.35075,0.48269,-2.10218,0.04856,1.57079,-3.01912,-0.09678,-0.44233,0.38959,,
2.1386,1,DESCENDING,-0.0000,1.35075,0.48269,-2.10219,0.04857,1.57079,-3.01912,-0.09678,-0.44233,0.38958,,
2.1505,1,DESCENDING,-0.0000,1.35075,0.48269,-2.10223,0.04862,1.57079,-3.01912,-0.09678,-0.44233,0.38956,,
2.1592,1,DESCENDING,-0.0000,1.35075,0.48269,-2.10225,0.04864,1.57079,-3.01912,-0.09678,-0.44233,0.38955,,
2.1693,1,DESCENDING,-0.0000,1.35075,0.48269,-2.10226,0.04865,1.57079,-3.01912,-0.09678,-0.44233,0.38954,,
2.1801,1,DESCENDING,-0.0000,1.35075,0.48269,-2.10228,0.04868,1.57079,-3.01912,-0.09678,-0.44233,0.38953,,
2.1888,1,DESCENDING,-0.0000,1.35075,0.48268,-2.10230,0.04869,1.57079,-3.01912,-0.09678,-0.44233,0.38952,,
2.1993,1,DESCENDING,-0.0000,1.35075,0.48268,-2.10232,0.04871,1.57079,-3.01912,-0.09678,-0.44233,0.38951,,
2.2122,1,DESCENDING,-0.0000,1.35075,0.48268,-2.10237,0.04876,1.57079,-3.01912,-0.09678,-0.44233,0.38948,,
2.2206,1,DESCENDING,-0.0000,1.35075,0.48268,-2.10237,0.04877,1.57079,-3.01912,-0.09678,-0.44233,0.38948,,
2.2311,1,DESCENDING,-0.0000,1.35075,0.48268,-2.10240,0.04880,1.57079,-3.01912,-0.09678,-0.44233,0.38946,,
2.2395,1,DESCENDING,-0.0000,1.35075,0.48268,-2.10243,0.04883,1.57079,-3.01912,-0.09678,-0.44233,0.38944,,
2.2502,1,DESCENDING,-0.0000,1.35075,0.48268,-2.10245,0.04885,1.57079,-3.01912,-0.09678,-0.44233,0.38943,,
2.2617,1,DESCENDING,-0.0000,1.35075,0.48267,-2.10248,0.04888,1.57079,-3.01912,-0.09678,-0.44233,0.38941,,
2.2737,1,DESCENDING,-0.0000,1.35075,0.48267,-2.10253,0.04893,1.57079,-3.01912,-0.09678,-0.44233,0.38939,,
2.2809,1,DESCENDING,-0.0000,1.35075,0.48267,-2.10253,0.04893,1.57079,-3.01912,-0.09678,-0.44233,0.38939,,
2.2888,1,DESCENDING,-0.0000,1.35075,0.48267,-2.10253,0.04894,1.57079,-3.01912,-0.09678,-0.44233,0.38938,,
2.3003,1,DESCENDING,-0.0000,1.35075,0.48267,-2.10256,0.04897,1.57079,-3.01912,-0.09678,-0.44233,0.38936,,
2.3091,1,DESCENDING,-0.0000,1.35075,0.48267,-2.10258,0.04899,1.57079,-3.01912,-0.09678,-0.44233,0.38936,,
2.3207,1,DESCENDING,-0.0000,1.35075,0.48267,-2.10260,0.04901,1.57079,-3.01912,-0.09678,-0.44233,0.38934,,
2.3303,1,DESCENDING,-0.0000,1.35075,0.48267,-2.10264,0.04906,1.57079,-3.01912,-0.09678,-0.44233,0.38932,,
2.3424,1,DESCENDING,-0.0000,1.35075,0.48266,-2.10266,0.04908,1.57079,-3.01912,-0.09678,-0.44233,0.38931,,
2.3538,1,DESCENDING,-0.0000,1.35075,0.48266,-2.10267,0.04909,1.57079,-3.01912,-0.09678,-0.44233,0.38930,,
2.3769,1,DESCENDING,-0.0000,1.35075,0.48266,-2.10272,0.04914,1.57079,-3.01912,-0.09678,-0.44233,0.38927,,
2.3784,1,DESCENDING,-0.0000,1.35075,0.48266,-2.10273,0.04915,1.57079,-3.01912,-0.09678,-0.44233,0.38927,,
2.3833,1,DESCENDING,-0.0000,1.35075,0.48266,-2.10275,0.04916,1.57079,-3.01912,-0.09678,-0.44233,0.38926,,
2.4417,1,DESCENDING,-0.0000,1.35075,0.48265,-2.10288,0.04931,1.57079,-3.01912,-0.09678,-0.44233,0.38918,,
2.4525,1,DESCENDING,-0.0000,1.35075,0.48265,-2.10291,0.04934,1.57079,-3.01912,-0.09678,-0.44233,0.38916,,
2.4822,1,DESCENDING,-0.0000,1.35075,0.48265,-2.10298,0.04941,1.57079,-3.01912,-0.09678,-0.44233,0.38912,,
2.4837,1,DESCENDING,-0.0000,1.35075,0.48265,-2.10298,0.04941,1.57079,-3.01912,-0.09678,-0.44233,0.38912,,
2.4850,1,DESCENDING,-0.0000,1.35075,0.48265,-2.10298,0.04941,1.57079,-3.01912,-0.09678,-0.44233,0.38912,,
2.4856,1,DESCENDING,-0.0000,1.35075,0.48265,-2.10298,0.04941,1.57079,-3.01912,-0.09678,-0.44233,0.38912,,
2.4955,1,DESCENDING,-0.0000,1.35075,0.48265,-2.10299,0.04942,1.57079,-3.01912,-0.09678,-0.44233,0.38912,,
2.5007,1,DESCENDING,-0.0000,1.35075,0.48265,-2.10300,0.04943,1.57079,-3.01912,-0.09678,-0.44233,0.38911,,
2.5012,1,DESCENDING,-0.0000,1.35075,0.48265,-2.10300,0.04943,1.57079,-3.01912,-0.09678,-0.44233,0.38911,,
2.5024,1,DESCENDING,-0.0000,1.35075,0.48265,-2.10301,0.04945,1.57079,-3.01912,-0.09678,-0.44233,0.38910,,
2.5126,1,DESCENDING,-0.0000,1.35075,0.48264,-2.10304,0.04948,1.57079,-3.01912,-0.09678,-0.44233,0.38908,,
2.5501,1,DESCENDING,-0.0000,1.35075,0.48264,-2.10311,0.04955,1.57079,-3.01912,-0.09678,-0.44233,0.38904,,
2.5533,1,DESCENDING,-0.0000,1.35075,0.48264,-2.10311,0.04955,1.57079,-3.01912,-0.09678,-0.44233,0.38904,,
2.5708,1,DESCENDING,-0.0000,1.35075,0.48264,-2.10318,0.04962,1.57079,-3.01912,-0.09678,-0.44233,0.38901,,
2.5821,1,DESCENDING,-0.0000,1.35075,0.48264,-2.10320,0.04964,1.57079,-3.01912,-0.09678,-0.44233,0.38900,,
2.6853,1,DESCENDING,-0.0000,1.35075,0.48262,-2.10341,0.04987,1.57079,-3.01912,-0.09678,-0.44233,0.38887,,
2.6910,1,DESCENDING,-0.0000,1.35075,0.48262,-2.10344,0.04990,1.57079,-3.01912,-0.09678,-0.44233,0.38885,,
2.6914,1,DESCENDING,-0.0000,1.35075,0.48262,-2.10344,0.04990,1.57079,-3.01912,-0.09678,-0.44233,0.38885,,
2.7754,1,DESCENDING,-0.0000,1.35075,0.48261,-2.10362,0.05009,1.57079,-3.01912,-0.09678,-0.44233,0.38875,,
2.7910,1,DESCENDING,-0.0000,1.35075,0.48261,-2.10365,0.05012,1.57079,-3.01912,-0.09678,-0.44233,0.38873,,
2.8465,1,DESCENDING,-0.0000,1.35075,0.48260,-2.10379,0.05027,1.57079,-3.01912,-0.09678,-0.44233,0.38865,,
2.8480,1,DESCENDING,-0.0000,1.35075,0.48260,-2.10379,0.05027,1.57079,-3.01912,-0.09678,-0.44233,0.38865,,
2.8516,1,DESCENDING,-0.0000,1.35075,0.48260,-2.10379,0.05027,1.57079,-3.01912,-0.09678,-0.44233,0.38865,,
2.8519,1,DESCENDING,-0.0000,1.35075,0.48260,-2.10379,0.05027,1.57079,-3.01912,-0.09678,-0.44233,0.38865,,
2.8525,1,DESCENDING,-0.0000,1.35075,0.48260,-2.10379,0.05027,1.57079,-3.01912,-0.09678,-0.44233,0.38865,,
2.8530,1,DESCENDING,-0.0000,1.35075,0.48260,-2.10379,0.05027,1.57079,-3.01912,-0.09678,-0.44233,0.38865,,
2.8536,1,DESCENDING,-0.0000,1.35075,0.48260,-2.10380,0.05028,1.57079,-3.01912,-0.09678,-0.44233,0.38864,,
2.8589,1,DESCENDING,-0.0000,1.35075,0.48260,-2.10381,0.05029,1.57079,-3.01912,-0.09678,-0.44233,0.38864,,
2.8644,1,DESCENDING,-0.0000,1.35075,0.48260,-2.10383,0.05030,1.57079,-3.01912,-0.09678,-0.44233,0.38863,,
2.8651,1,DESCENDING,-0.0000,1.35075,0.48260,-2.10383,0.05030,1.57079,-3.01912,-0.09678,-0.44233,0.38863,,
2.8824,1,DESCENDING,-0.0000,1.35075,0.48260,-2.10387,0.05036,1.57079,-3.01912,-0.09678,-0.44233,0.38860,,
2.8827,1,DESCENDING,-0.0000,1.35075,0.48260,-2.10387,0.05036,1.57079,-3.01912,-0.09678,-0.44233,0.38860,,
2.8889,1,DESCENDING,-0.0000,1.35075,0.48260,-2.10388,0.05036,1.57079,-3.01912,-0.09678,-0.44233,0.38860,,
2.8991,1,DESCENDING,-0.0000,1.35075,0.48260,-2.10392,0.05041,1.57079,-3.01912,-0.09678,-0.44233,0.38857,,
2.9100,1,DESCENDING,-0.0000,1.35075,0.48259,-2.10394,0.05042,1.57079,-3.01912,-0.09678,-0.44233,0.38856,,
2.9220,1,DESCENDING,-0.0000,1.35075,0.48259,-2.10397,0.05046,1.57079,-3.01912,-0.09678,-0.44233,0.38854,,
2.9294,1,DESCENDING,-0.0000,1.35075,0.48259,-2.10399,0.05047,1.57079,-3.01912,-0.09678,-0.44233,0.38853,,
2.9429,1,DESCENDING,-0.0000,1.35075,0.48259,-2.10402,0.05051,1.57079,-3.01912,-0.09678,-0.44233,0.38851,,
2.9523,1,DESCENDING,-0.0000,1.35075,0.48259,-2.10404,0.05053,1.57079,-3.01912,-0.09678,-0.44233,0.38850,,
2.9626,1,DESCENDING,-0.0000,1.35075,0.48259,-2.10408,0.05058,1.57079,-3.01912,-0.09678,-0.44233,0.38848,,
2.9740,1,DESCENDING,-0.0000,1.35075,0.48259,-2.10409,0.05059,1.57079,-3.01912,-0.09678,-0.44233,0.38847,,
2.9793,1,DESCENDING,-0.0000,1.35075,0.48258,-2.10410,0.05060,1.57079,-3.01912,-0.09678,-0.44233,0.38847,,
2.9945,1,DESCENDING,-0.0000,1.35075,0.48258,-2.10416,0.05066,1.57079,-3.01912,-0.09678,-0.44233,0.38843,,
2.9984,1,DESCENDING,-0.0000,1.35075,0.48258,-2.10416,0.05066,1.57079,-3.01912,-0.09678,-0.44233,0.38843,,
3.0124,1,DESCENDING,-0.0000,1.35075,0.48258,-2.10418,0.05068,1.57079,-3.01912,-0.09678,-0.44233,0.38842,,
3.0250,1,DESCENDING,-0.0000,1.35075,0.48258,-2.10423,0.05073,1.57079,-3.01912,-0.09678,-0.44233,0.38839,,
3.0306,1,DESCENDING,-0.0000,1.35075,0.48258,-2.10423,0.05073,1.57079,-3.01912,-0.09678,-0.44233,0.38839,,
3.0427,1,DESCENDING,-0.0000,1.35075,0.48258,-2.10426,0.05077,1.57079,-3.01912,-0.09678,-0.44233,0.38837,,
3.0499,1,DESCENDING,-0.0000,1.35075,0.48257,-2.10429,0.05080,1.57079,-3.01912,-0.09678,-0.44233,0.38836,,
3.0611,1,DESCENDING,-0.0000,1.35075,0.48257,-2.10431,0.05081,1.57079,-3.01912,-0.09678,-0.44233,0.38835,,
3.0703,1,DESCENDING,-0.0000,1.35075,0.48257,-2.10433,0.05084,1.57079,-3.01912,-0.09678,-0.44233,0.38833,,
3.0820,1,DESCENDING,-0.0000,1.35075,0.48257,-2.10437,0.05088,1.57079,-3.01912,-0.09678,-0.44233,0.38831,,
3.0956,1,DESCENDING,-0.0000,1.35075,0.48257,-2.10439,0.05090,1.57079,-3.01912,-0.09678,-0.44233,0.38830,,
3.1109,1,DESCENDING,-0.0000,1.35075,0.48257,-2.10443,0.05094,1.57079,-3.01912,-0.09678,-0.44233,0.38828,,
3.1117,1,DESCENDING,-0.0000,1.35075,0.48257,-2.10443,0.05094,1.57079,-3.01912,-0.09678,-0.44233,0.38828,,
3.1246,1,DESCENDING,-0.0000,1.35075,0.48257,-2.10444,0.05096,1.57079,-3.01912,-0.09678,-0.44233,0.38827,,
3.1379,1,DESCENDING,-0.0000,1.35075,0.48256,-2.10449,0.05101,1.57079,-3.01912,-0.09678,-0.44233,0.38824,,
3.1423,1,DESCENDING,-0.0000,1.35075,0.48256,-2.10451,0.05102,1.57079,-3.01912,-0.09678,-0.44233,0.38823,,
3.1539,1,DESCENDING,-0.0000,1.35075,0.48256,-2.10452,0.05104,1.57079,-3.01912,-0.09678,-0.44233,0.38822,,
3.1601,1,DESCENDING,-0.0000,1.35075,0.48256,-2.10453,0.05105,1.57079,-3.01912,-0.09678,-0.44233,0.38822,,
3.1716,1,DESCENDING,-0.0000,1.35075,0.48256,-2.10456,0.05108,1.57079,-3.01912,-0.09678,-0.44233,0.38820,,
3.1841,1,DESCENDING,-0.0000,1.35075,0.48256,-2.10458,0.05110,1.57079,-3.01912,-0.09678,-0.44233,0.38819,,
3.1912,1,DESCENDING,-0.0000,1.35075,0.48256,-2.10460,0.05112,1.57079,-3.01912,-0.09678,-0.44233,0.38818,,
3.2048,1,DESCENDING,-0.0000,1.35075,0.48255,-2.10464,0.05116,1.57079,-3.01912,-0.09678,-0.44233,0.38815,,
3.2098,1,DESCENDING,-0.0000,1.35075,0.48255,-2.10466,0.05118,1.57079,-3.01912,-0.09678,-0.44233,0.38814,,
3.2189,1,DESCENDING,-0.0000,1.35075,0.48255,-2.10466,0.05119,1.57079,-3.01912,-0.09678,-0.44233,0.38814,,
3.2508,1,DESCENDING,-0.0000,1.35075,0.48255,-2.10473,0.05126,1.57079,-3.01912,-0.09678,-0.44233,0.38810,,
3.2537,1,DESCENDING,-0.0000,1.35075,0.48255,-2.10474,0.05127,1.57079,-3.01912,-0.09678,-0.44233,0.38809,,
3.2550,1,DESCENDING,-0.0000,1.35075,0.48255,-2.10474,0.05127,1.57079,-3.01912,-0.09678,-0.44233,0.38809,,
3.2624,1,DESCENDING,-0.0000,1.35075,0.48255,-2.10477,0.05131,1.57079,-3.01912,-0.09678,-0.44233,0.38807,,
3.2741,1,DESCENDING,-0.0000,1.35075,0.48255,-2.10479,0.05132,1.57079,-3.01912,-0.09678,-0.44233,0.38806,,
3.2845,1,DESCENDING,-0.0000,1.35075,0.48254,-2.10480,0.05134,1.57079,-3.01912,-0.09678,-0.44233,0.38806,,
3.2924,1,DESCENDING,-0.0000,1.35075,0.48254,-2.10483,0.05136,1.57079,-3.01912,-0.09678,-0.44233,0.38804,,
3.2987,1,DESCENDING,-0.0000,1.35075,0.48254,-2.10484,0.05138,1.57079,-3.01912,-0.09678,-0.44233,0.38804,,
3.3129,1,DESCENDING,-0.0000,1.35075,0.48254,-2.10486,0.05140,1.57079,-3.01912,-0.09678,-0.44233,0.38802,,
3.3194,1,DESCENDING,-0.0000,1.35075,0.48254,-2.10489,0.05143,1.57079,-3.01912,-0.09678,-0.44233,0.38801,,
3.3321,1,DESCENDING,-0.0000,1.35075,0.48254,-2.10492,0.05146,1.57079,-3.01912,-0.09678,-0.44233,0.38799,,
3.3386,1,DESCENDING,-0.0000,1.35075,0.48254,-2.10493,0.05147,1.57079,-3.01912,-0.09678,-0.44233,0.38798,,
3.3502,1,DESCENDING,-0.0000,1.35075,0.48254,-2.10496,0.05150,1.57079,-3.01912,-0.09678,-0.44233,0.38797,,
3.3588,1,DESCENDING,-0.0000,1.35075,0.48254,-2.10497,0.05152,1.57079,-3.01912,-0.09678,-0.44233,0.38796,,
3.3715,1,DESCENDING,-0.0000,1.35075,0.48253,-2.10500,0.05154,1.57079,-3.01912,-0.09678,-0.44233,0.38795,,
3.3788,1,DESCENDING,-0.0000,1.35075,0.48253,-2.10502,0.05157,1.57079,-3.01912,-0.09678,-0.44233,0.38793,,
3.3945,1,DESCENDING,-0.0000,1.35075,0.48253,-2.10506,0.05161,1.57079,-3.01912,-0.09678,-0.44233,0.38791,,
3.3985,1,DESCENDING,-0.0000,1.35075,0.48253,-2.10506,0.05161,1.57079,-3.01912,-0.09678,-0.44233,0.38791,,
3.4141,1,DESCENDING,-0.0000,1.35075,0.48253,-2.10511,0.05166,1.57079,-3.01912,-0.09678,-0.44233,0.38788,,
3.4210,1,DESCENDING,-0.0000,1.35075,0.48253,-2.10511,0.05166,1.57079,-3.01912,-0.09678,-0.44233,0.38788,,
3.4315,1,DESCENDING,-0.0000,1.35075,0.48253,-2.10513,0.05168,1.57079,-3.01912,-0.09678,-0.44233,0.38787,,
3.4409,1,DESCENDING,-0.0000,1.35075,0.48252,-2.10516,0.05171,1.57079,-3.01912,-0.09678,-0.44233,0.38785,,
3.4519,1,DESCENDING,-0.0000,1.35075,0.48252,-2.10519,0.05174,1.57079,-3.01912,-0.09678,-0.44233,0.38783,,
3.4588,1,DESCENDING,-0.0000,1.35075,0.48252,-2.10520,0.05175,1.57079,-3.01912,-0.09678,-0.44233,0.38783,,
3.4698,1,DESCENDING,-0.0000,1.35075,0.48252,-2.10523,0.05178,1.57079,-3.01912,-0.09678,-0.44233,0.38781,,
3.4806,1,DESCENDING,-0.0000,1.35075,0.48252,-2.10524,0.05180,1.57079,-3.01912,-0.09678,-0.44233,0.38780,,
3.5026,1,DESCENDING,-0.0000,1.35075,0.48252,-2.10531,0.05187,1.57079,-3.01912,-0.09678,-0.44233,0.38776,,
3.5030,1,DESCENDING,-0.0000,1.35075,0.48252,-2.10531,0.05187,1.57079,-3.01912,-0.09678,-0.44233,0.38776,,
3.5091,1,DESCENDING,-0.0000,1.35075,0.48252,-2.10532,0.05189,1.57079,-3.01912,-0.09678,-0.44233,0.38775,,
3.5207,1,DESCENDING,-0.0000,1.35075,0.48251,-2.10533,0.05190,1.57079,-3.01912,-0.09678,-0.44233,0.38775,,
3.5290,1,DESCENDING,-0.0000,1.35075,0.48251,-2.10536,0.05192,1.57079,-3.01912,-0.09678,-0.44233,0.38773,,
3.5421,1,DESCENDING,-0.0000,1.35075,0.48251,-2.10539,0.05196,1.57079,-3.01912,-0.09678,-0.44233,0.38772,,
3.5524,1,DESCENDING,-0.0000,1.35075,0.48251,-2.10541,0.05198,1.57079,-3.01912,-0.09678,-0.44233,0.38770,,
3.5678,1,DESCENDING,-0.0000,1.35075,0.48251,-2.10547,0.05204,1.57079,-3.01912,-0.09678,-0.44233,0.38767,,
3.5702,1,DESCENDING,-0.0000,1.35075,0.48251,-2.10547,0.05204,1.57079,-3.01912,-0.09678,-0.44233,0.38767,,
3.5788,1,DESCENDING,-0.0000,1.35075,0.48251,-2.10548,0.05205,1.57079,-3.01912,-0.09678,-0.44233,0.38766,,
3.5926,1,DESCENDING,-0.0000,1.35075,0.48250,-2.10552,0.05209,1.57079,-3.01912,-0.09678,-0.44233,0.38764,,
3.5992,1,DESCENDING,-0.0000,1.35075,0.48250,-2.10553,0.05211,1.57079,-3.01912,-0.09678,-0.44233,0.38763,,
3.6108,1,DESCENDING,-0.0000,1.35075,0.48250,-2.10555,0.05213,1.57079,-3.01912,-0.09678,-0.44233,0.38762,,
3.6200,1,DESCENDING,-0.0000,1.35075,0.48250,-2.10558,0.05216,1.57079,-3.01912,-0.09678,-0.44233,0.38760,,
3.6302,1,DESCENDING,-0.0000,1.35075,0.48250,-2.10561,0.05219,1.57079,-3.01912,-0.09678,-0.44233,0.38759,,
3.6391,1,DESCENDING,-0.0000,1.35075,0.48250,-2.10562,0.05220,1.57079,-3.01912,-0.09678,-0.44233,0.38758,,
3.6564,1,DESCENDING,-0.0000,1.35075,0.48249,-2.10568,0.05226,1.57079,-3.01912,-0.09678,-0.44233,0.38755,,
3.6607,1,DESCENDING,-0.0000,1.35075,0.48249,-2.10568,0.05226,1.57079,-3.01912,-0.09678,-0.44233,0.38755,,
3.6699,1,DESCENDING,-0.0000,1.35075,0.48249,-2.10570,0.05228,1.57079,-3.01912,-0.09678,-0.44233,0.38753,,
3.6800,1,DESCENDING,-0.0000,1.35075,0.48249,-2.10573,0.05231,1.57079,-3.01912,-0.09678,-0.44233,0.38752,,
3.7042,1,DESCENDING,-0.0000,1.35075,0.48249,-2.10578,0.05237,1.57079,-3.01912,-0.09678,-0.44233,0.38749,,
3.7058,1,DESCENDING,-0.0000,1.35075,0.48249,-2.10579,0.05238,1.57079,-3.01912,-0.09678,-0.44233,0.38748,,
3.7092,1,DESCENDING,-0.0000,1.35075,0.48249,-2.10579,0.05238,1.57079,-3.01912,-0.09678,-0.44233,0.38748,,
3.7220,1,DESCENDING,-0.0000,1.35075,0.48249,-2.10583,0.05242,1.57079,-3.01912,-0.09678,-0.44233,0.38746,,
3.7292,1,DESCENDING,-0.0000,1.35075,0.48249,-2.10583,0.05243,1.57079,-3.01912,-0.09678,-0.44233,0.38746,,
3.7676,1,DESCENDING,-0.0000,1.35075,0.48248,-2.10594,0.05254,1.57079,-3.01912,-0.09678,-0.44233,0.38740,,
3.7824,1,DESCENDING,-0.0000,1.35075,0.48248,-2.10597,0.05257,1.57079,-3.01912,-0.09678,-0.44233,0.38738,,
3.8692,1,DESCENDING,-0.0000,1.35075,0.48246,-2.10619,0.05281,1.57079,-3.01912,-0.09678,-0.44233,0.38725,,
3.9268,1,DESCENDING,-0.0000,1.35075,0.48246,-2.10633,0.05295,1.57079,-3.01912,-0.09678,-0.44233,0.38717,,
3.9270,1,DESCENDING,-0.0000,1.35075,0.48246,-2.10633,0.05295,1.57079,-3.01912,-0.09678,-0.44233,0.38717,,
3.9908,1,DESCENDING,-0.0000,1.35075,0.48245,-2.10646,0.05309,1.57079,-3.01912,-0.09678,-0.44233,0.38709,,
4.0106,1,DESCENDING,-0.0000,1.35075,0.48245,-2.10651,0.05314,1.57079,-3.01912,-0.09678,-0.44233,0.38706,,
4.0306,1,DESCENDING,-0.0000,1.35075,0.48244,-2.10655,0.05318,1.57079,-3.01912,-0.09678,-0.44233,0.38704,,
4.0498,1,DESCENDING,-0.0000,1.35075,0.48244,-2.10659,0.05323,1.57079,-3.01912,-0.09678,-0.44233,0.38701,,
4.0703,1,DESCENDING,-0.0000,1.35075,0.48244,-2.10664,0.05328,1.57079,-3.01912,-0.09678,-0.44233,0.38698,,
4.0783,1,DESCENDING,-0.0000,1.35075,0.48244,-2.10667,0.05332,1.57079,-3.01912,-0.09678,-0.44233,0.38697,,
4.0876,1,DESCENDING,-0.0000,1.35075,0.48244,-2.10668,0.05332,1.57079,-3.01912,-0.09678,-0.44233,0.38696,,
4.0917,1,DESCENDING,-0.0000,1.35075,0.48244,-2.10668,0.05332,1.57079,-3.01912,-0.09678,-0.44233,0.38696,,
4.1054,1,DESCENDING,-0.0000,1.35075,0.48243,-2.10671,0.05336,1.57079,-3.01912,-0.09678,-0.44233,0.38694,,
4.1057,1,DESCENDING,-0.0000,1.35075,0.48243,-2.10671,0.05336,1.57079,-3.01912,-0.09678,-0.44233,0.38694,,
4.1667,1,DESCENDING,-0.0000,1.35075,0.48242,-2.10686,0.05351,1.57079,-3.01912,-0.09678,-0.44233,0.38686,,
4.1762,1,DESCENDING,-0.0000,1.35075,0.48242,-2.10686,0.05351,1.57079,-3.01912,-0.09678,-0.44233,0.38686,,
4.1940,1,DESCENDING,-0.0000,1.35075,0.48242,-2.10693,0.05358,1.57079,-3.01912,-0.09678,-0.44233,0.38682,,
4.2083,1,DESCENDING,-0.0000,1.35075,0.48242,-2.10694,0.05360,1.57079,-3.01912,-0.09678,-0.44233,0.38681,,
4.2702,1,DESCENDING,-0.0000,1.35075,0.48241,-2.10710,0.05376,1.57079,-3.01912,-0.09678,-0.44233,0.38672,,
4.2860,1,DESCENDING,-0.0000,1.35075,0.48241,-2.10715,0.05382,1.57079,-3.01912,-0.09678,-0.44233,0.38669,,
4.2959,1,DESCENDING,-0.0000,1.35075,0.48241,-2.10715,0.05382,1.57079,-3.01912,-0.09678,-0.44233,0.38669,,
4.2965,1,DESCENDING,-0.0000,1.35075,0.48241,-2.10715,0.05382,1.57079,-3.01912,-0.09678,-0.44233,0.38669,,
4.3089,1,DESCENDING,-0.0000,1.35075,0.48240,-2.10718,0.05386,1.57079,-3.01912,-0.09678,-0.44233,0.38667,,
4.4003,1,DESCENDING,-0.0000,1.35075,0.48239,-2.10741,0.05410,1.57079,-3.01912,-0.09678,-0.44233,0.38654,,
4.4006,1,DESCENDING,-0.0000,1.35075,0.48239,-2.10741,0.05410,1.57079,-3.01912,-0.09678,-0.44233,0.38654,,
4.4105,1,DESCENDING,-0.0000,1.35075,0.48239,-2.10744,0.05413,1.57079,-3.01912,-0.09678,-0.44233,0.38652,,
4.5553,1,DESCENDING,-0.0000,1.35075,0.48237,-2.10778,0.05449,1.57079,-3.01912,-0.09678,-0.44233,0.38632,,
4.6040,1,DESCENDING,-0.0000,1.35075,0.48236,-2.10789,0.05460,1.57079,-3.01912,-0.09678,-0.44233,0.38626,,
4.6152,1,DESCENDING,-0.0000,1.35075,0.48236,-2.10792,0.05463,1.57079,-3.01912,-0.09678,-0.44233,0.38624,,
4.6181,1,DESCENDING,-0.0000,1.35075,0.48236,-2.10793,0.05465,1.57079,-3.01912,-0.09678,-0.44233,0.38623,,
4.6234,1,DESCENDING,-0.0000,1.35075,0.48236,-2.10793,0.05465,1.57079,-3.01912,-0.09678,-0.44233,0.38623,,
4.6294,1,DESCENDING,-0.0000,1.35075,0.48236,-2.10793,0.05465,1.57079,-3.01912,-0.09678,-0.44233,0.38623,,
4.6346,1,DESCENDING,-0.0000,1.35075,0.48236,-2.10795,0.05467,1.57079,-3.01912,-0.09678,-0.44233,0.38622,,
4.6351,1,DESCENDING,-0.0000,1.35075,0.48236,-2.10795,0.05467,1.57079,-3.01912,-0.09678,-0.44233,0.38622,,
4.6385,1,DESCENDING,-0.0000,1.35075,0.48236,-2.10797,0.05469,1.57079,-3.01912,-0.09678,-0.44233,0.38621,,
4.6434,1,DESCENDING,-0.0000,1.35075,0.48236,-2.10798,0.05470,1.57079,-3.01912,-0.09678,-0.44233,0.38620,,
4.6438,1,DESCENDING,-0.0000,1.35075,0.48236,-2.10798,0.05470,1.57079,-3.01912,-0.09678,-0.44233,0.38620,,
4.6509,1,DESCENDING,-0.0000,1.35075,0.48235,-2.10801,0.05474,1.57079,-3.01912,-0.09678,-0.44233,0.38618,,
4.6550,1,DESCENDING,-0.0000,1.35075,0.48235,-2.10801,0.05474,1.57079,-3.01912,-0.09678,-0.44233,0.38618,,
4.6553,1,DESCENDING,-0.0000,1.35075,0.48235,-2.10801,0.05474,1.57079,-3.01912,-0.09678,-0.44233,0.38618,,
4.6686,1,DESCENDING,-0.0000,1.35075,0.48235,-2.10803,0.05475,1.57079,-3.01912,-0.09678,-0.44233,0.38617,,
4.6690,1,DESCENDING,-0.0000,1.35075,0.48235,-2.10803,0.05475,1.57079,-3.01912,-0.09678,-0.44233,0.38617,,
4.6736,1,DESCENDING,-0.0000,1.35075,0.48235,-2.10804,0.05476,1.57079,-3.01912,-0.09678,-0.44233,0.38617,,
4.6933,1,DESCENDING,-0.0000,1.35075,0.48235,-2.10807,0.05480,1.57079,-3.01912,-0.09678,-0.44233,0.38615,,
4.7176,1,DESCENDING,-0.0000,1.35075,0.48235,-2.10815,0.05488,1.57079,-3.01912,-0.09678,-0.44233,0.38610,,
4.7471,1,DESCENDING,-0.0000,1.35075,0.48234,-2.10820,0.05493,1.57079,-3.01912,-0.09678,-0.44233,0.38607,,
4.7474,1,DESCENDING,-0.0000,1.35075,0.48234,-2.10820,0.05493,1.57079,-3.01912,-0.09678,-0.44233,0.38607,,
4.7527,1,DESCENDING,-0.0000,1.35075,0.48234,-2.10821,0.05494,1.57079,-3.01912,-0.09678,-0.44233,0.38607,,
4.7571,1,DESCENDING,-0.0000,1.35075,0.48234,-2.10822,0.05495,1.57079,-3.01912,-0.09678,-0.44233,0.38606,,
4.7575,1,DESCENDING,-0.0000,1.35075,0.48234,-2.10822,0.05495,1.57079,-3.01912,-0.09678,-0.44233,0.38606,,
4.7590,1,DESCENDING,-0.0000,1.35075,0.48234,-2.10823,0.05497,1.57079,-3.01912,-0.09678,-0.44233,0.38605,,
4.7649,1,DESCENDING,-0.0000,1.35075,0.48234,-2.10825,0.05499,1.57079,-3.01912,-0.09678,-0.44233,0.38605,,
4.7758,1,DESCENDING,-0.0000,1.35075,0.48234,-2.10828,0.05502,1.57079,-3.01912,-0.09678,-0.44233,0.38603,,
4.7903,1,DESCENDING,-0.0000,1.35075,0.48234,-2.10830,0.05505,1.57079,-3.01912,-0.09678,-0.44233,0.38601,,
4.7912,1,DESCENDING,-0.0000,1.35075,0.48234,-2.10830,0.05505,1.57079,-3.01912,-0.09678,-0.44233,0.38601,,
4.7925,1,DESCENDING,-0.0000,1.35075,0.48234,-2.10830,0.05505,1.57079,-3.01912,-0.09678,-0.44233,0.38601,,
4.7928,1,DESCENDING,-0.0000,1.35075,0.48234,-2.10830,0.05505,1.57079,-3.01912,-0.09678,-0.44233,0.38601,,
4.7950,1,DESCENDING,-0.0000,1.35075,0.48234,-2.10832,0.05506,1.57079,-3.01912,-0.09678,-0.44233,0.38601,,
4.7954,1,DESCENDING,-0.0000,1.35075,0.48234,-2.10832,0.05506,1.57079,-3.01912,-0.09678,-0.44233,0.38601,,
4.7983,1,DESCENDING,-0.0000,1.35075,0.48234,-2.10833,0.05507,1.57079,-3.01912,-0.09678,-0.44233,0.38600,,
4.8003,1,DESCENDING,-0.0000,1.35075,0.48234,-2.10833,0.05507,1.57079,-3.01912,-0.09678,-0.44233,0.38600,,
4.8061,1,DESCENDING,-0.0000,1.35075,0.48233,-2.10833,0.05508,1.57079,-3.01912,-0.09678,-0.44233,0.38600,,
4.8066,1,DESCENDING,-0.0000,1.35075,0.48233,-2.10833,0.05508,1.57079,-3.01912,-0.09678,-0.44233,0.38600,,
4.8130,1,DESCENDING,-0.0000,1.35075,0.48233,-2.10834,0.05508,1.57079,-3.01912,-0.09678,-0.44233,0.38599,,
4.8211,1,DESCENDING,-0.0000,1.35075,0.48233,-2.10837,0.05511,1.57079,-3.01912,-0.09678,-0.44233,0.38598,,
4.8327,1,DESCENDING,-0.0000,1.35075,0.48233,-2.10841,0.05516,1.57079,-3.01912,-0.09678,-0.44233,0.38595,,
4.8418,1,DESCENDING,-0.0000,1.35075,0.48233,-2.10841,0.05516,1.57079,-3.01912,-0.09678,-0.44233,0.38595,,
4.8486,1,DESCENDING,-0.0000,1.35075,0.48233,-2.10843,0.05518,1.57079,-3.01912,-0.09678,-0.44233,0.38594,,
4.8625,1,DESCENDING,-0.0000,1.35075,0.48233,-2.10846,0.05521,1.57079,-3.01912,-0.09678,-0.44233,0.38592,,
4.8746,1,DESCENDING,-0.0000,1.35075,0.48233,-2.10848,0.05524,1.57079,-3.01912,-0.09678,-0.44233,0.38591,,
4.8923,1,DESCENDING,-0.0000,1.35075,0.48232,-2.10855,0.05530,1.57079,-3.01912,-0.09678,-0.44233,0.38587,,
4.8932,1,DESCENDING,-0.0000,1.35075,0.48232,-2.10855,0.05530,1.57079,-3.01912,-0.09678,-0.44233,0.38587,,
4.9028,1,DESCENDING,-0.0000,1.35075,0.48232,-2.10855,0.05531,1.57079,-3.01912,-0.09678,-0.44233,0.38587,,
4.9095,1,DESCENDING,-0.0000,1.35075,0.48232,-2.10856,0.05532,1.57079,-3.01912,-0.09678,-0.44233,0.38586,,
4.9237,1,DESCENDING,-0.0000,1.35075,0.48232,-2.10860,0.05535,1.57079,-3.01912,-0.09678,-0.44233,0.38584,,
4.9300,1,DESCENDING,-0.0000,1.35075,0.48232,-2.10860,0.05536,1.57079,-3.01912,-0.09678,-0.44233,0.38584,,
4.9458,1,DESCENDING,-0.0000,1.35075,0.48232,-2.10865,0.05541,1.57079,-3.01912,-0.09678,-0.44233,0.38581,,
4.9521,1,DESCENDING,-0.0000,1.35075,0.48231,-2.10868,0.05544,1.57079,-3.01912,-0.09678,-0.44233,0.38579,,
4.9596,1,DESCENDING,-0.0000,1.35075,0.48231,-2.10868,0.05544,1.57079,-3.01912,-0.09678,-0.44233,0.38579,,
4.9698,1,DESCENDING,-0.0000,1.35075,0.48231,-2.10870,0.05546,1.57079,-3.01912,-0.09678,-0.44233,0.38578,,
4.9808,1,DESCENDING,-0.0000,1.35075,0.48231,-2.10874,0.05551,1.57079,-3.01912,-0.09678,-0.44233,0.38576,,
4.9906,1,DESCENDING,-0.0000,1.35075,0.48231,-2.10875,0.05552,1.57079,-3.01912,-0.09678,-0.44233,0.38575,,
4.9984,1,DESCENDING,-0.0000,1.35075,0.48231,-2.10878,0.05555,1.57079,-3.01912,-0.09678,-0.44233,0.38574,,
5.0095,1,DESCENDING,-0.0000,1.35075,0.48231,-2.10881,0.05558,1.57079,-3.01912,-0.09678,-0.44233,0.38572,,
5.0386,1,DESCENDING,-0.0000,1.35075,0.48230,-2.10889,0.05567,1.57079,-3.01912,-0.09678,-0.44233,0.38567,,
5.0632,1,DESCENDING,-0.0000,1.35075,0.48230,-2.10894,0.05572,1.57079,-3.01912,-0.09678,-0.44233,0.38564,,
5.0639,1,DESCENDING,-0.0000,1.35075,0.48230,-2.10894,0.05572,1.57079,-3.01912,-0.09678,-0.44233,0.38564,,
5.0743,1,DESCENDING,-0.0000,1.35075,0.48230,-2.10897,0.05575,1.57079,-3.01912,-0.09678,-0.44233,0.38562,,
5.0788,1,DESCENDING,-0.0000,1.35075,0.48230,-2.10897,0.05575,1.57079,-3.01912,-0.09678,-0.44233,0.38562,,
5.0995,1,DESCENDING,-0.0000,1.35075,0.48229,-2.10903,0.05582,1.57079,-3.01912,-0.09678,-0.44233,0.38559,,
5.1122,1,DESCENDING,-0.0000,1.35075,0.48229,-2.10904,0.05583,1.57079,-3.01912,-0.09678,-0.44233,0.38558,,
5.1125,1,DESCENDING,-0.0000,1.35075,0.48229,-2.10904,0.05583,1.57079,-3.01912,-0.09678,-0.44233,0.38558,,
5.1281,1,DESCENDING,-0.0000,1.35075,0.48229,-2.10910,0.05589,1.57079,-3.01912,-0.09678,-0.44233,0.38555,,
5.1384,1,DESCENDING,-0.0000,1.35075,0.48229,-2.10912,0.05591,1.57079,-3.01912,-0.09678,-0.44233,0.38554,,
5.1479,1,DESCENDING,-0.0000,1.35075,0.48229,-2.10913,0.05593,1.57079,-3.01912,-0.09678,-0.44233,0.38553,,
5.1585,1,DESCENDING,-0.0000,1.35075,0.48228,-2.10918,0.05597,1.57079,-3.01912,-0.09678,-0.44233,0.38550,,
5.1830,1,DESCENDING,-0.0000,1.35075,0.48228,-2.10923,0.05603,1.57079,-3.01912,-0.09678,-0.44233,0.38547,,
5.1854,1,DESCENDING,-0.0000,1.35075,0.48228,-2.10923,0.05603,1.57079,-3.01912,-0.09678,-0.44233,0.38547,,
5.1906,1,DESCENDING,-0.0000,1.35075,0.48228,-2.10926,0.05606,1.57079,-3.01912,-0.09678,-0.44233,0.38545,,
5.2017,1,DESCENDING,-0.0000,1.35075,0.48228,-2.10926,0.05606,1.57079,-3.01912,-0.09678,-0.44233,0.38545,,
5.2101,1,DESCENDING,-0.0000,1.35075,0.48228,-2.10928,0.05608,1.57079,-3.01912,-0.09678,-0.44233,0.38544,,
5.2194,1,DESCENDING,-0.0000,1.35075,0.48227,-2.10932,0.05613,1.57079,-3.01912,-0.09678,-0.44233,0.38542,,
5.2317,1,DESCENDING,-0.0000,1.35075,0.48227,-2.10933,0.05614,1.57079,-3.01912,-0.09678,-0.44233,0.38541,,
5.2421,1,DESCENDING,-0.0000,1.35075,0.48227,-2.10936,0.05616,1.57079,-3.01912,-0.09678,-0.44233,0.38540,,
5.2508,1,DESCENDING,-0.0000,1.35075,0.48227,-2.10940,0.05621,1.57079,-3.01912,-0.09678,-0.44233,0.38537,,
5.2585,1,DESCENDING,-0.0000,1.35075,0.48227,-2.10941,0.05621,1.57079,-3.01912,-0.09678,-0.44233,0.38537,,
5.2698,1,DESCENDING,-0.0000,1.35075,0.48227,-2.10942,0.05623,1.57079,-3.01912,-0.09678,-0.44233,0.38536,,
5.2853,1,DESCENDING,-0.0000,1.35075,0.48226,-2.10947,0.05628,1.57079,-3.01912,-0.09678,-0.44233,0.38533,,
5.2949,1,DESCENDING,-0.0000,1.35075,0.48226,-2.10949,0.05630,1.57079,-3.01912,-0.09678,-0.44233,0.38532,,
5.3061,1,DESCENDING,-0.0000,1.35075,0.48226,-2.10952,0.05633,1.57079,-3.01912,-0.09678,-0.44233,0.38530,,
5.3117,1,DESCENDING,-0.0000,1.35075,0.48226,-2.10955,0.05637,1.57079,-3.01912,-0.09678,-0.44233,0.38528,,
5.3185,1,DESCENDING,-0.0000,1.35075,0.48226,-2.10955,0.05637,1.57079,-3.01912,-0.09678,-0.44233,0.38528,,
5.3329,1,DESCENDING,-0.0000,1.35075,0.48226,-2.10958,0.05640,1.57079,-3.01912,-0.09678,-0.44233,0.38526,,
5.3381,1,DESCENDING,-0.0000,1.35075,0.48226,-2.10960,0.05642,1.57079,-3.01912,-0.09678,-0.44233,0.38526,,
5.3548,1,DESCENDING,-0.0000,1.35075,0.48225,-2.10963,0.05646,1.57079,-3.01912,-0.09678,-0.44233,0.38523,,
5.3626,1,DESCENDING,-0.0000,1.35075,0.48225,-2.10966,0.05649,1.57079,-3.01912,-0.09678,-0.44233,0.38522,,
5.3706,1,DESCENDING,-0.0000,1.35075,0.48225,-2.10969,0.05652,1.57079,-3.01912,-0.09678,-0.44233,0.38520,,
5.3802,1,DESCENDING,-0.0000,1.35075,0.48225,-2.10970,0.05652,1.57079,-3.01912,-0.09678,-0.44233,0.38520,,
5.4015,1,DESCENDING,-0.0000,1.35075,0.48225,-2.10976,0.05659,1.57079,-3.01912,-0.09678,-0.44233,0.38516,,
5.4040,1,DESCENDING,-0.0000,1.35075,0.48224,-2.10977,0.05661,1.57079,-3.01912,-0.09678,-0.44233,0.38515,,
5.4079,1,DESCENDING,-0.0000,1.35075,0.48224,-2.10977,0.05661,1.57079,-3.01912,-0.09678,-0.44233,0.38515,,
5.4212,1,DESCENDING,-0.0000,1.35075,0.48224,-2.10979,0.05662,1.57079,-3.01912,-0.09678,-0.44233,0.38514,,
5.4354,1,DESCENDING,-0.0000,1.35075,0.48224,-2.10982,0.05666,1.57079,-3.01912,-0.09678,-0.44233,0.38512,,
5.4396,1,DESCENDING,-0.0000,1.35075,0.48224,-2.10983,0.05666,1.57079,-3.01912,-0.09678,-0.44233,0.38512,,
5.4481,1,DESCENDING,-0.0000,1.35075,0.48224,-2.10985,0.05668,1.57079,-3.01912,-0.09678,-0.44233,0.38511,,
5.4634,1,DESCENDING,-0.0000,1.35075,0.48224,-2.10991,0.05675,1.57079,-3.01912,-0.09678,-0.44233,0.38508,,
5.4706,1,DESCENDING,-0.0000,1.35075,0.48224,-2.10991,0.05675,1.57079,-3.01912,-0.09678,-0.44233,0.38507,,
5.4816,1,DESCENDING,-0.0000,1.35075,0.48224,-2.10992,0.05676,1.57079,-3.01912,-0.09678,-0.44233,0.38507,,
5.4886,1,DESCENDING,-0.0000,1.35075,0.48223,-2.10994,0.05679,1.57079,-3.01912,-0.09678,-0.44233,0.38505,,
5.4989,1,DESCENDING,-0.0000,1.35075,0.48223,-2.10996,0.05680,1.57079,-3.01912,-0.09678,-0.44233,0.38504,,
5.5149,1,DESCENDING,-0.0000,1.35075,0.48223,-2.11001,0.05686,1.57079,-3.01912,-0.09678,-0.44233,0.38502,,
5.5197,1,DESCENDING,-0.0000,1.35075,0.48223,-2.11002,0.05687,1.57079,-3.01912,-0.09678,-0.44233,0.38501,,
5.5402,1,DESCENDING,-0.0000,1.35075,0.48223,-2.11005,0.05691,1.57079,-3.01912,-0.09678,-0.44233,0.38499,,
5.5562,1,DESCENDING,-0.0000,1.35075,0.48222,-2.11009,0.05694,1.57079,-3.01912,-0.09678,-0.44233,0.38497,,
5.5730,1,DESCENDING,-0.0000,1.35075,0.48222,-2.11013,0.05698,1.57079,-3.01912,-0.09678,-0.44233,0.38495,,
5.5849,1,DESCENDING,-0.0000,1.35075,0.48222,-2.11017,0.05703,1.57079,-3.01912,-0.09678,-0.44233,0.38492,,
5.5853,1,DESCENDING,-0.0000,1.35075,0.48222,-2.11017,0.05703,1.57079,-3.01912,-0.09678,-0.44233,0.38492,,
5.6050,1,DESCENDING,-0.0000,1.35075,0.48222,-2.11020,0.05706,1.57079,-3.01912,-0.09678,-0.44233,0.38490,,
5.6054,1,DESCENDING,-0.0000,1.35075,0.48222,-2.11020,0.05706,1.57079,-3.01912,-0.09678,-0.44233,0.38490,,
5.6179,1,DESCENDING,-0.0000,1.35075,0.48222,-2.11022,0.05708,1.57079,-3.01912,-0.09678,-0.44233,0.38489,,
5.6184,1,DESCENDING,-0.0000,1.35075,0.48222,-2.11022,0.05708,1.57079,-3.01912,-0.09678,-0.44233,0.38489,,
5.6295,1,DESCENDING,-0.0000,1.35075,0.48221,-2.11024,0.05711,1.57079,-3.01912,-0.09678,-0.44233,0.38488,,
5.6412,1,DESCENDING,-0.0000,1.35075,0.48221,-2.11029,0.05716,1.57079,-3.01912,-0.09678,-0.44233,0.38485,,
5.6483,1,DESCENDING,-0.0000,1.35075,0.48221,-2.11031,0.05717,1.57079,-3.01912,-0.09678,-0.44233,0.38484,,
5.6588,1,DESCENDING,-0.0000,1.35075,0.48221,-2.11032,0.05719,1.57079,-3.01912,-0.09678,-0.44233,0.38483,,
5.6740,1,DESCENDING,-0.0000,1.35075,0.48221,-2.11036,0.05723,1.57079,-3.01912,-0.09678,-0.44233,0.38481,,
5.6876,1,DESCENDING,-0.0000,1.35075,0.48221,-2.11038,0.05725,1.57079,-3.01912,-0.09678,-0.44233,0.38480,,
5.6940,1,DESCENDING,-0.0000,1.35075,0.48221,-2.11039,0.05726,1.57079,-3.01912,-0.09678,-0.44233,0.38479,,
5.7083,1,DESCENDING,-0.0000,1.35075,0.48220,-2.11044,0.05731,1.57079,-3.01912,-0.09678,-0.44233,0.38476,,
5.7215,1,DESCENDING,-0.0000,1.35075,0.48220,-2.11045,0.05733,1.57079,-3.01912,-0.09678,-0.44233,0.38475,,
5.7257,1,DESCENDING,-0.0000,1.35075,0.48220,-2.11046,0.05734,1.57079,-3.01912,-0.09678,-0.44233,0.38475,,
5.7318,1,DESCENDING,-0.0000,1.35075,0.48220,-2.11049,0.05737,1.57079,-3.01912,-0.09678,-0.44233,0.38473,,
5.7428,1,DESCENDING,-0.0000,1.35075,0.48220,-2.11050,0.05738,1.57079,-3.01912,-0.09678,-0.44233,0.38473,,
5.7517,1,DESCENDING,-0.0000,1.35075,0.48220,-2.11052,0.05740,1.57079,-3.01912,-0.09678,-0.44233,0.38471,,
5.7592,1,DESCENDING,-0.0000,1.35075,0.48219,-2.11056,0.05744,1.57079,-3.01912,-0.09678,-0.44233,0.38470,,
5.7700,1,DESCENDING,-0.0000,1.35075,0.48219,-2.11057,0.05745,1.57079,-3.01912,-0.09678,-0.44233,0.38469,,
5.7800,1,DESCENDING,-0.0000,1.35075,0.48219,-2.11059,0.05748,1.57079,-3.01912,-0.09678,-0.44233,0.38467,,
5.8034,1,DESCENDING,-0.0000,1.35075,0.48219,-2.11065,0.05753,1.57079,-3.01912,-0.09678,-0.44233,0.38464,,
5.8118,1,DESCENDING,-0.0000,1.35075,0.48219,-2.11067,0.05756,1.57079,-3.01912,-0.09678,-0.44233,0.38463,,
5.8230,1,DESCENDING,-0.0000,1.35075,0.48218,-2.11072,0.05761,1.57079,-3.01912,-0.09678,-0.44233,0.38460,,
5.8316,1,DESCENDING,-0.0000,1.35075,0.48218,-2.11072,0.05761,1.57079,-3.01912,-0.09678,-0.44233,0.38460,,
5.8517,1,DESCENDING,-0.0000,1.35075,0.48218,-2.11078,0.05768,1.57079,-3.01912,-0.09678,-0.44233,0.38456,,
5.8522,1,DESCENDING,-0.0000,1.35075,0.48218,-2.11078,0.05768,1.57079,-3.01912,-0.09678,-0.44233,0.38456,,
5.8606,1,DESCENDING,-0.0000,1.35075,0.48218,-2.11078,0.05768,1.57079,-3.01912,-0.09678,-0.44233,0.38456,,
5.8796,1,DESCENDING,-0.0000,1.35075,0.48218,-2.11085,0.05775,1.57079,-3.01912,-0.09678,-0.44233,0.38453,,
5.8831,1,DESCENDING,-0.0000,1.35075,0.48217,-2.11086,0.05776,1.57079,-3.01912,-0.09678,-0.44233,0.38452,,
5.9154,1,DESCENDING,-0.0000,1.35075,0.48217,-2.11093,0.05783,1.57079,-3.01912,-0.09678,-0.44233,0.38448,,
5.9189,1,DESCENDING,-0.0000,1.35075,0.48217,-2.11093,0.05783,1.57079,-3.01912,-0.09678,-0.44233,0.38448,,
5.9261,1,DESCENDING,-0.0000,1.35075,0.48217,-2.11094,0.05784,1.57079,-3.01912,-0.09678,-0.44233,0.38447,,
5.9302,1,DESCENDING,-0.0000,1.35075,0.48217,-2.11095,0.05785,1.57079,-3.01912,-0.09678,-0.44233,0.38447,,
5.9685,1,DESCENDING,-0.0000,1.35075,0.48216,-2.11105,0.05797,1.57079,-3.01912,-0.09678,-0.44233,0.38440,,
6.0178,1,DESCENDING,-0.0000,1.35075,0.48216,-2.11116,0.05808,1.57079,-3.01912,-0.09678,-0.44233,0.38434,,
6.0182,1,DESCENDING,-0.0000,1.35075,0.48216,-2.11116,0.05808,1.57079,-3.01912,-0.09678,-0.44233,0.38434,,
6.0247,1,DESCENDING,-0.0000,1.35075,0.48215,-2.11118,0.05811,1.57079,-3.01912,-0.09678,-0.44233,0.38433,,
6.0252,1,DESCENDING,-0.0000,1.35075,0.48215,-2.11118,0.05811,1.57079,-3.01912,-0.09678,-0.44233,0.38433,,
6.0807,1,DESCENDING,-0.0000,1.35075,0.48215,-2.11132,0.05825,1.57079,-3.01912,-0.09678,-0.44233,0.38425,,
6.0810,1,DESCENDING,-0.0000,1.35075,0.48215,-2.11132,0.05825,1.57079,-3.01912,-0.09678,-0.44233,0.38425,,
6.0847,1,DESCENDING,-0.0000,1.35075,0.48214,-2.11133,0.05826,1.57079,-3.01912,-0.09678,-0.44233,0.38424,,
6.1229,1,DESCENDING,-0.0000,1.35075,0.48214,-2.11144,0.05838,1.57079,-3.01912,-0.09678,-0.44233,0.38418,,
6.1299,1,DESCENDING,-0.0000,1.35075,0.48214,-2.11144,0.05838,1.57079,-3.01912,-0.09678,-0.44233,0.38418,,
6.1304,1,DESCENDING,-0.0000,1.35075,0.48214,-2.11144,0.05838,1.57079,-3.01912,-0.09678,-0.44233,0.38418,,
6.1436,1,DESCENDING,-0.0000,1.35075,0.48213,-2.11147,0.05842,1.57079,-3.01912,-0.09678,-0.44233,0.38416,,
6.1717,1,DESCENDING,-0.0000,1.35075,0.48213,-2.11154,0.05849,1.57079,-3.01912,-0.09678,-0.44233,0.38412,,
6.1723,1,DESCENDING,-0.0000,1.35075,0.48213,-2.11154,0.05849,1.57079,-3.01912,-0.09678,-0.44233,0.38412,,
6.1780,1,DESCENDING,-0.0000,1.35075,0.48213,-2.11155,0.05850,1.57079,-3.01912,-0.09678,-0.44233,0.38411,,
6.1797,1,DESCENDING,-0.0000,1.35075,0.48213,-2.11157,0.05852,1.57079,-3.01912,-0.09678,-0.44233,0.38410,,
6.1928,1,DESCENDING,-0.0000,1.35075,0.48213,-2.11159,0.05854,1.57079,-3.01911,-0.09678,-0.44233,0.38409,,
6.2059,1,DESCENDING,-0.0000,1.35075,0.48213,-2.11162,0.05857,1.57079,-3.01911,-0.09678,-0.44233,0.38407,,
6.2232,1,DESCENDING,-0.0000,1.35075,0.48212,-2.11167,0.05862,1.57079,-3.01911,-0.09678,-0.44233,0.38404,,
6.2269,1,DESCENDING,-0.0000,1.35075,0.48212,-2.11167,0.05863,1.57079,-3.01911,-0.09678,-0.44233,0.38404,,
6.2301,1,DESCENDING,-0.0000,1.35075,0.48212,-2.11167,0.05863,1.57079,-3.01911,-0.09678,-0.44233,0.38404,,
6.2414,1,DESCENDING,-0.0000,1.35075,0.48212,-2.11170,0.05866,1.57079,-3.01911,-0.09678,-0.44233,0.38402,,
6.2554,1,DESCENDING,-0.0000,1.35075,0.48212,-2.11173,0.05869,1.57079,-3.01911,-0.09678,-0.44233,0.38401,,
6.2753,1,DESCENDING,-0.0000,1.35075,0.48211,-2.11180,0.05876,1.57079,-3.01911,-0.09678,-0.44233,0.38397,,
6.2756,1,DESCENDING,-0.0000,1.35075,0.48211,-2.11180,0.05876,1.57079,-3.01911,-0.09678,-0.44233,0.38397,,
6.2929,1,DESCENDING,-0.0000,1.35075,0.48211,-2.11181,0.05878,1.57079,-3.01911,-0.09678,-0.44233,0.38396,,
6.2933,1,DESCENDING,-0.0000,1.35075,0.48211,-2.11181,0.05878,1.57079,-3.01911,-0.09678,-0.44233,0.38396,,
6.3069,1,DESCENDING,-0.0000,1.35075,0.48211,-2.11185,0.05882,1.57079,-3.01911,-0.09678,-0.44233,0.38394,,
6.3229,1,DESCENDING,-0.0000,1.35075,0.48211,-2.11188,0.05885,1.57079,-3.01911,-0.09678,-0.44233,0.38392,,
6.3415,1,DESCENDING,-0.0000,1.35075,0.48210,-2.11193,0.05890,1.57079,-3.01911,-0.09678,-0.44233,0.38389,,
6.3571,1,DESCENDING,-0.0000,1.35075,0.48210,-2.11196,0.05893,1.57079,-3.01911,-0.09678,-0.44233,0.38387,,
6.3635,1,DESCENDING,-0.0000,1.35075,0.48210,-2.11198,0.05896,1.57079,-3.01911,-0.09678,-0.44233,0.38386,,
6.3698,1,DESCENDING,-0.0000,1.35075,0.48210,-2.11198,0.05896,1.57079,-3.01911,-0.09678,-0.44233,0.38386,,
6.3830,1,DESCENDING,-0.0000,1.35075,0.48210,-2.11202,0.05899,1.57079,-3.01911,-0.09678,-0.44233,0.38384,,
6.3924,1,DESCENDING,-0.0000,1.35075,0.48210,-2.11205,0.05903,1.57079,-3.01911,-0.09678,-0.44233,0.38382,,
6.4043,1,DESCENDING,-0.0000,1.35075,0.48210,-2.11207,0.05905,1.57079,-3.01911,-0.09678,-0.44233,0.38381,,
6.4113,1,DESCENDING,-0.0000,1.35075,0.48209,-2.11208,0.05906,1.57079,-3.01911,-0.09678,-0.44233,0.38380,,
6.4215,1,DESCENDING,-0.0000,1.35075,0.48209,-2.11210,0.05908,1.57079,-3.01911,-0.09678,-0.44233,0.38379,,
6.4290,1,DESCENDING,-0.0000,1.35075,0.48209,-2.11211,0.05910,1.57079,-3.01911,-0.09678,-0.44233,0.38378,,
6.4432,1,DESCENDING,-0.0000,1.35075,0.48209,-2.11215,0.05914,1.57079,-3.01911,-0.09678,-0.44233,0.38376,,
6.4488,1,DESCENDING,-0.0000,1.35075,0.48209,-2.11216,0.05915,1.57079,-3.01911,-0.09678,-0.44233,0.38375,,
6.4595,1,DESCENDING,-0.0000,1.35075,0.48209,-2.11220,0.05919,1.57079,-3.01911,-0.09678,-0.44233,0.38373,,
6.4684,1,DESCENDING,-0.0000,1.35075,0.48209,-2.11220,0.05919,1.57079,-3.01911,-0.09678,-0.44233,0.38373,,
6.4807,1,DESCENDING,-0.0000,1.35075,0.48208,-2.11223,0.05923,1.57079,-3.01911,-0.09678,-0.44233,0.38371,,
