Martins-Lucaas/RoboticArm/sensors/Data/20260621_173136__samples.csv
t_rel_s,cycle,phase,force_net_n,q1,q2,q3,q4,q5,q6,tcp_x,tcp_y,tcp_z,touch_value,touch_age_ms
0.0135,1,HOME,-0.0000,1.35075,0.48284,-2.09928,0.04573,1.57080,-3.01912,-0.09677,-0.44240,0.39130,,
0.0170,1,HOME,-0.0000,1.35075,0.48284,-2.09928,0.04573,1.57080,-3.01912,-0.09677,-0.44240,0.39130,,
0.0278,1,HOME,-0.0000,1.35075,0.48284,-2.09928,0.04573,1.57080,-3.01912,-0.09677,-0.44240,0.39130,,
0.0371,1,HOME,-0.0000,1.35075,0.48284,-2.09928,0.04573,1.57080,-3.01912,-0.09677,-0.44240,0.39130,,
0.0429,1,HOME,-0.0000,1.35075,0.48284,-2.09928,0.04573,1.57080,-3.01912,-0.09677,-0.44240,0.39130,,
0.0518,1,HOME,-0.0000,1.35075,0.48284,-2.09928,0.04573,1.57080,-3.01912,-0.09677,-0.44240,0.39130,,
0.0616,1,HOME,-0.0000,1.35075,0.48284,-2.09928,0.04573,1.57080,-3.01912,-0.09677,-0.44240,0.39130,,
0.0719,1,HOME,-0.0000,1.35075,0.48284,-2.09928,0.04573,1.57080,-3.01912,-0.09677,-0.44240,0.39130,,
0.0829,1,HOME,-0.0000,1.35075,0.48284,-2.09928,0.04573,1.57080,-3.01912,-0.09677,-0.44240,0.39130,,
0.1060,1,HOME,-0.0000,1.35075,0.48284,-2.09928,0.04573,1.57080,-3.01912,-0.09677,-0.44240,0.39130,,
0.1171,1,HOME,-0.0000,1.35075,0.48284,-2.09928,0.04573,1.57080,-3.01912,-0.09677,-0.44240,0.39130,,
0.1175,1,HOME,-0.0000,1.35075,0.48284,-2.09928,0.04573,1.57080,-3.01912,-0.09677,-0.44240,0.39130,,
0.1232,1,HOME,-0.0000,1.35075,0.48284,-2.09928,0.04573,1.57080,-3.01912,-0.09677,-0.44240,0.39130,,
0.1319,1,HOME,-0.0000,1.35075,0.48284,-2.09928,0.04573,1.57080,-3.01912,-0.09677,-0.44240,0.39130,,
0.1423,1,HOME,-0.0000,1.35075,0.48284,-2.09928,0.04573,1.57080,-3.01912,-0.09677,-0.44240,0.39130,,
0.1598,1,HOME,-0.0000,1.35075,0.48284,-2.09928,0.04573,1.57080,-3.01912,-0.09677,-0.44240,0.39130,,
0.1629,1,HOME,-0.0000,1.35075,0.48284,-2.09928,0.04573,1.57080,-3.01912,-0.09677,-0.44240,0.39130,,
0.1754,1,HOME,-0.0000,1.35075,0.48284,-2.09928,0.04573,1.57080,-3.01912,-0.09677,-0.44240,0.39130,,
0.1817,1,HOME,-0.0000,1.35075,0.48284,-2.09928,0.04573,1.57080,-3.01912,-0.09677,-0.44240,0.39130,,
0.1916,1,HOME,-0.0000,1.35075,0.48284,-2.09928,0.04573,1.57080,-3.01912,-0.09677,-0.44240,0.39130,,
0.2064,1,HOME,-0.0000,1.35075,0.48284,-2.09928,0.04573,1.57080,-3.01912,-0.09677,-0.44240,0.39130,,
0.2134,1,HOME,-0.0000,1.35075,0.48284,-2.09928,0.04573,1.57080,-3.01912,-0.09677,-0.44240,0.39130,,
0.2229,1,HOME,-0.0000,1.35075,0.48284,-2.09928,0.04573,1.57080,-3.01912,-0.09677,-0.44240,0.39130,,
0.2315,1,HOME,-0.0000,1.35075,0.48284,-2.09928,0.04573,1.57080,-3.01912,-0.09677,-0.44240,0.39130,,
0.2428,1,HOME,-0.0000,1.35075,0.48284,-2.09928,0.04573,1.57080,-3.01912,-0.09677,-0.44240,0.39130,,
0.2574,1,HOME,-0.0000,1.35075,0.48284,-2.09928,0.04573,1.57080,-3.01912,-0.09677,-0.44240,0.39130,,
0.2749,1,HOME,-0.0000,1.35075,0.48284,-2.09928,0.04573,1.57080,-3.01912,-0.09677,-0.44240,0.39130,,
0.2834,1,HOME,-0.0000,1.35075,0.48284,-2.09928,0.04573,1.57080,-3.01912,-0.09677,-0.44240,0.39130,,
0.2934,1,HOME,-0.0000,1.35075,0.48284,-2.09928,0.04573,1.57080,-3.01912,-0.09677,-0.44240,0.39130,,
0.3028,1,HOME,-0.0000,1.35075,0.48284,-2.09928,0.04573,1.57080,-3.01912,-0.09677,-0.44240,0.39130,,
0.3237,1,HOME,-0.0000,1.35075,0.48284,-2.09928,0.04573,1.57080,-3.01912,-0.09677,-0.44240,0.39130,,
0.3246,1,HOME,-0.0000,1.35075,0.48284,-2.09928,0.04573,1.57080,-3.01912,-0.09677,-0.44240,0.39130,,
0.3347,1,HOME,-0.0000,1.35075,0.48284,-2.09928,0.04573,1.57080,-3.01912,-0.09677,-0.44240,0.39130,,
0.3445,1,HOME,-0.0000,1.35075,0.48284,-2.09928,0.04573,1.57080,-3.01912,-0.09677,-0.44240,0.39130,,
0.3646,1,HOME,-0.0000,1.35075,0.48284,-2.09928,0.04573,1.57080,-3.01912,-0.09677,-0.44240,0.39130,,
0.3651,1,HOME,-0.0000,1.35075,0.48284,-2.09928,0.04573,1.57080,-3.01912,-0.09677,-0.44240,0.39130,,
0.3755,1,HOME,-0.0000,1.35075,0.48284,-2.09928,0.04573,1.57080,-3.01912,-0.09677,-0.44240,0.39130,,
0.3847,1,HOME,-0.0000,1.35075,0.48284,-2.09928,0.04573,1.57080,-3.01912,-0.09677,-0.44240,0.39130,,
0.3954,1,HOME,-0.0000,1.35075,0.48284,-2.09928,0.04573,1.57080,-3.01912,-0.09677,-0.44240,0.39130,,
0.4055,1,HOME,-0.0000,1.35075,0.48284,-2.09928,0.04573,1.57080,-3.01912,-0.09677,-0.44240,0.39130,,
0.4122,1,HOME,-0.0000,1.35075,0.48284,-2.09928,0.04573,1.57080,-3.01912,-0.09677,-0.44240,0.39130,,
0.4272,1,HOME,-0.0000,1.35075,0.48284,-2.09928,0.04573,1.57080,-3.01912,-0.09677,-0.44240,0.39130,,
0.4331,1,HOME,-0.0000,1.35075,0.48284,-2.09928,0.04573,1.57080,-3.01912,-0.09677,-0.44240,0.39130,,
0.4457,1,HOME,-0.0000,1.35075,0.48284,-2.09928,0.04573,1.57080,-3.01912,-0.09677,-0.44240,0.39130,,
0.4530,1,HOME,-0.0000,1.35075,0.48284,-2.09928,0.04573,1.57080,-3.01912,-0.09677,-0.44240,0.39130,,
0.4620,1,HOME,-0.0000,1.35075,0.48284,-2.09928,0.04573,1.57080,-3.01912,-0.09677,-0.44240,0.39130,,
0.4801,1,HOME,-0.0000,1.35075,0.48284,-2.09928,0.04573,1.57080,-3.01912,-0.09677,-0.44240,0.39130,,
0.4871,1,HOME,-0.0000,1.35075,0.48284,-2.09928,0.04573,1.57080,-3.01912,-0.09677,-0.44240,0.39130,,
0.4963,1,HOME,-0.0000,1.35075,0.48284,-2.09928,0.04573,1.57080,-3.01912,-0.09677,-0.44240,0.39130,,
0.5189,1,HOME,-0.0000,1.35075,0.48284,-2.09928,0.04573,1.57080,-3.01912,-0.09677,-0.44240,0.39130,,
0.5324,1,HOME,-0.0000,1.35075,0.48284,-2.09928,0.04573,1.57080,-3.01912,-0.09677,-0.44240,0.39130,,
0.5474,1,HOME,-0.0000,1.35075,0.48284,-2.09928,0.04573,1.57080,-3.01912,-0.09677,-0.44240,0.39130,,
0.5509,1,HOME,-0.0000,1.35075,0.48284,-2.09928,0.04573,1.57080,-3.01912,-0.09677,-0.44240,0.39130,,
0.6240,1,HOME,-0.0000,1.35075,0.48284,-2.09928,0.04573,1.57080,-3.01912,-0.09677,-0.44240,0.39130,,
0.6312,1,HOME,-0.0000,1.35075,0.48284,-2.09928,0.04573,1.57080,-3.01912,-0.09677,-0.44240,0.39130,,
0.6417,1,HOME,-0.0000,1.35075,0.48284,-2.09928,0.04573,1.57080,-3.01912,-0.09677,-0.44240,0.39130,,
0.6421,1,HOME,-0.0000,1.35075,0.48284,-2.09928,0.04573,1.57080,-3.01912,-0.09677,-0.44240,0.39130,,
0.6717,1,HOME,-0.0000,1.35075,0.48284,-2.09928,0.04573,1.57080,-3.01912,-0.09677,-0.44240,0.39130,,
0.6835,1,HOME,-0.0000,1.35075,0.48284,-2.09928,0.04573,1.57080,-3.01912,-0.09677,-0.44240,0.39130,,
0.7110,1,HOME,-0.0000,1.35075,0.48284,-2.09928,0.04573,1.57080,-3.01912,-0.09677,-0.44240,0.39130,,
0.7236,1,HOME,-0.0000,1.35075,0.48284,-2.09928,0.04573,1.57080,-3.01912,-0.09677,-0.44240,0.39130,,
0.7384,1,DESCENDING,-0.0000,1.35075,0.48284,-2.09928,0.04573,1.57080,-3.01912,-0.09677,-0.44240,0.39130,,
0.7670,1,DESCENDING,-0.0000,1.35075,0.48284,-2.09928,0.04573,1.57080,-3.01912,-0.09677,-0.44240,0.39130,,
0.7764,1,DESCENDING,-0.0000,1.35075,0.48284,-2.09928,0.04573,1.57080,-3.01912,-0.09677,-0.44240,0.39130,,
0.7872,1,DESCENDING,-0.0000,1.35075,0.48284,-2.09928,0.04573,1.57080,-3.01912,-0.09677,-0.44240,0.39130,,
0.7876,1,DESCENDING,-0.0000,1.35075,0.48284,-2.09928,0.04573,1.57080,-3.01912,-0.09677,-0.44240,0.39130,,
0.8037,1,DESCENDING,-0.0000,1.35075,0.48284,-2.09928,0.04573,1.57080,-3.01912,-0.09677,-0.44240,0.39130,,
0.8042,1,DESCENDING,-0.0000,1.35075,0.48284,-2.09928,0.04573,1.57080,-3.01912,-0.09677,-0.44240,0.39130,,
0.8280,1,DESCENDING,-0.0000,1.35075,0.48284,-2.09928,0.04573,1.57080,-3.01912,-0.09677,-0.44240,0.39130,,
0.8475,1,DESCENDING,-0.0000,1.35075,0.48284,-2.09928,0.04573,1.57080,-3.01912,-0.09677,-0.44240,0.39130,,
0.8481,1,DESCENDING,-0.0000,1.35075,0.48284,-2.09928,0.04573,1.57080,-3.01912,-0.09677,-0.44240,0.39130,,
0.8557,1,DESCENDING,-0.0000,1.35075,0.48284,-2.09928,0.04573,1.57080,-3.01912,-0.09677,-0.44240,0.39130,,
0.8872,1,DESCENDING,-0.0000,1.35075,0.48284,-2.09928,0.04573,1.57080,-3.01912,-0.09677,-0.44240,0.39130,,
0.8915,1,DESCENDING,-0.0000,1.35075,0.48284,-2.09928,0.04573,1.57080,-3.01912,-0.09677,-0.44240,0.39130,,
0.9176,1,DESCENDING,-0.0000,1.35075,0.48284,-2.09928,0.04573,1.57080,-3.01912,-0.09677,-0.44240,0.39130,,
0.9259,1,DESCENDING,-0.0000,1.35075,0.48284,-2.09928,0.04573,1.57080,-3.01912,-0.09677,-0.44240,0.39130,,
0.9313,1,DESCENDING,-0.0000,1.35075,0.48283,-2.09930,0.04575,1.57080,-3.01912,-0.09677,-0.44240,0.39129,,
0.9389,1,DESCENDING,-0.0000,1.35075,0.48283,-2.09936,0.04582,1.57080,-3.01912,-0.09677,-0.44240,0.39125,,
0.9515,1,DESCENDING,-0.0000,1.35075,0.48283,-2.09944,0.04589,1.57080,-3.01912,-0.09677,-0.44240,0.39121,,
0.9607,1,DESCENDING,-0.0000,1.35075,0.48283,-2.09945,0.04591,1.57080,-3.01912,-0.09677,-0.44240,0.39120,,
0.9794,1,DESCENDING,-0.0000,1.35075,0.48282,-2.09959,0.04606,1.57080,-3.01912,-0.09677,-0.44240,0.39112,,
0.9798,1,DESCENDING,-0.0000,1.35075,0.48282,-2.09959,0.04606,1.57080,-3.01912,-0.09677,-0.44240,0.39112,,
1.0381,1,DESCENDING,-0.0000,1.35075,0.48281,-2.09983,0.04631,1.57080,-3.01912,-0.09677,-0.44240,0.39098,,
1.0385,1,DESCENDING,-0.0000,1.35075,0.48281,-2.09983,0.04631,1.57080,-3.01912,-0.09677,-0.44240,0.39098,,
1.0452,1,DESCENDING,-0.0000,1.35075,0.48281,-2.09986,0.04634,1.57080,-3.01912,-0.09677,-0.44240,0.39096,,
1.0556,1,DESCENDING,-0.0000,1.35075,0.48280,-2.09989,0.04637,1.57080,-3.01912,-0.09677,-0.44240,0.39094,,
1.1658,1,DESCENDING,-0.0000,1.35075,0.48278,-2.10039,0.04690,1.57080,-3.01912,-0.09677,-0.44240,0.39065,,
1.1663,1,DESCENDING,-0.0000,1.35075,0.48278,-2.10039,0.04690,1.57080,-3.01912,-0.09677,-0.44240,0.39065,,
1.1767,1,DESCENDING,-0.0000,1.35075,0.48278,-2.10043,0.04693,1.57080,-3.01912,-0.09677,-0.44240,0.39063,,
1.1990,1,DESCENDING,-0.0000,1.35075,0.48277,-2.10052,0.04703,1.57080,-3.01912,-0.09677,-0.44240,0.39058,,
1.2068,1,DESCENDING,-0.0000,1.35075,0.48277,-2.10057,0.04709,1.57080,-3.01912,-0.09677,-0.44240,0.39055,,
1.2173,1,DESCENDING,-0.0000,1.35075,0.48277,-2.10063,0.04715,1.57080,-3.01912,-0.09677,-0.44240,0.39051,,
1.2483,1,DESCENDING,-0.0000,1.35075,0.48276,-2.10076,0.04729,1.57080,-3.01912,-0.09677,-0.44240,0.39044,,
1.2486,1,DESCENDING,-0.0000,1.35075,0.48276,-2.10076,0.04729,1.57080,-3.01912,-0.09677,-0.44240,0.39044,,
1.2563,1,DESCENDING,-0.0000,1.35075,0.48276,-2.10077,0.04730,1.57080,-3.01912,-0.09677,-0.44240,0.39043,,
1.2672,1,DESCENDING,-0.0000,1.35075,0.48276,-2.10084,0.04737,1.57080,-3.01912,-0.09677,-0.44240,0.39039,,
1.3100,1,DESCENDING,-0.0000,1.35075,0.48275,-2.10103,0.04757,1.57080,-3.01912,-0.09677,-0.44240,0.39028,,
1.3490,1,DESCENDING,-0.0000,1.35075,0.48274,-2.10120,0.04775,1.57080,-3.01912,-0.09677,-0.44240,0.39018,,
1.3564,1,DESCENDING,-0.0000,1.35075,0.48273,-2.10124,0.04779,1.57080,-3.01912,-0.09677,-0.44240,0.39016,,
1.3913,1,DESCENDING,-0.0000,1.35075,0.48272,-2.10143,0.04799,1.57080,-3.01912,-0.09677,-0.44240,0.39005,,
1.3999,1,DESCENDING,-0.0000,1.35075,0.48272,-2.10149,0.04805,1.57080,-3.01912,-0.09677,-0.44240,0.39002,,
1.4128,1,DESCENDING,-0.0000,1.35075,0.48272,-2.10151,0.04807,1.57080,-3.01912,-0.09677,-0.44240,0.39000,,
1.4170,1,DESCENDING,-0.0000,1.35075,0.48272,-2.10153,0.04810,1.57080,-3.01912,-0.09677,-0.44240,0.38999,,
1.4310,1,DESCENDING,-0.0000,1.35075,0.48271,-2.10162,0.04819,1.57080,-3.01912,-0.09677,-0.44240,0.38994,,
1.5113,1,DESCENDING,-0.0000,1.35075,0.48269,-2.10201,0.04860,1.57080,-3.01912,-0.09677,-0.44240,0.38971,,
1.5141,1,DESCENDING,-0.0000,1.35075,0.48269,-2.10201,0.04860,1.57080,-3.01912,-0.09677,-0.44240,0.38971,,
1.5175,1,DESCENDING,-0.0000,1.35075,0.48269,-2.10204,0.04863,1.57080,-3.01912,-0.09677,-0.44240,0.38969,,
1.5323,1,DESCENDING,-0.0000,1.35075,0.48269,-2.10209,0.04869,1.57080,-3.01912,-0.09677,-0.44240,0.38966,,
1.5616,1,DESCENDING,-0.0000,1.35075,0.48268,-2.10223,0.04884,1.57080,-3.01912,-0.09677,-0.44240,0.38958,,
1.5695,1,DESCENDING,-0.0000,1.35075,0.48268,-2.10226,0.04887,1.57080,-3.01912,-0.09677,-0.44240,0.38956,,
1.5768,1,DESCENDING,-0.0000,1.35075,0.48268,-2.10231,0.04892,1.57080,-3.01912,-0.09677,-0.44240,0.38954,,
1.5982,1,DESCENDING,-0.0000,1.35075,0.48267,-2.10238,0.04899,1.57080,-3.01912,-0.09677,-0.44240,0.38950,,
1.6054,1,DESCENDING,-0.0000,1.35075,0.48267,-2.10244,0.04905,1.57080,-3.01912,-0.09677,-0.44240,0.38946,,
1.6132,1,DESCENDING,-0.0000,1.35075,0.48267,-2.10247,0.04909,1.57080,-3.01912,-0.09677,-0.44240,0.38944,,
1.6167,1,DESCENDING,-0.0000,1.35075,0.48267,-2.10247,0.04909,1.57080,-3.01912,-0.09677,-0.44240,0.38944,,
1.6278,1,DESCENDING,-0.0000,1.35075,0.48266,-2.10254,0.04916,1.57080,-3.01912,-0.09677,-0.44240,0.38940,,
1.6458,1,DESCENDING,-0.0000,1.35075,0.48266,-2.10263,0.04925,1.57080,-3.01912,-0.09677,-0.44240,0.38935,,
1.6531,1,DESCENDING,-0.0000,1.35075,0.48266,-2.10265,0.04928,1.57080,-3.01912,-0.09677,-0.44240,0.38934,,
1.6668,1,DESCENDING,-0.0000,1.35075,0.48265,-2.10276,0.04939,1.57080,-3.01912,-0.09677,-0.44240,0.38927,,
1.6750,1,DESCENDING,-0.0000,1.35075,0.48265,-2.10276,0.04940,1.57080,-3.01912,-0.09677,-0.44240,0.38927,,
1.6988,1,DESCENDING,-0.0000,1.35075,0.48264,-2.10292,0.04956,1.57080,-3.01912,-0.09677,-0.44240,0.38918,,
1.7137,1,DESCENDING,-0.0000,1.35075,0.48264,-2.10294,0.04958,1.57080,-3.01912,-0.09677,-0.44240,0.38917,,
1.7274,1,DESCENDING,-0.0000,1.35075,0.48264,-2.10305,0.04970,1.57080,-3.01912,-0.09677,-0.44240,0.38910,,
1.7494,1,DESCENDING,-0.0000,1.35075,0.48263,-2.10311,0.04976,1.57080,-3.01912,-0.09677,-0.44240,0.38907,,
1.7570,1,DESCENDING,-0.0000,1.35075,0.48263,-2.10316,0.04981,1.57080,-3.01912,-0.09677,-0.44240,0.38904,,
1.7663,1,DESCENDING,-0.0000,1.35075,0.48263,-2.10318,0.04984,1.57080,-3.01912,-0.09677,-0.44240,0.38903,,
1.7761,1,DESCENDING,-0.0000,1.35075,0.48263,-2.10323,0.04989,1.57080,-3.01912,-0.09677,-0.44240,0.38900,,
1.7811,1,DESCENDING,-0.0000,1.35075,0.48262,-2.10325,0.04991,1.57080,-3.01912,-0.09677,-0.44240,0.38899,,
1.8015,1,DESCENDING,-0.0000,1.35075,0.48262,-2.10335,0.05002,1.57080,-3.01912,-0.09677,-0.44240,0.38893,,
1.8046,1,DESCENDING,-0.0000,1.35075,0.48262,-2.10336,0.05003,1.57080,-3.01912,-0.09677,-0.44240,0.38892,,
1.8155,1,DESCENDING,-0.0000,1.35075,0.48262,-2.10342,0.05009,1.57080,-3.01912,-0.09677,-0.44240,0.38889,,
1.8664,1,DESCENDING,-0.0000,1.35075,0.48260,-2.10363,0.05031,1.57080,-3.01912,-0.09677,-0.44240,0.38877,,
1.8783,1,DESCENDING,-0.0000,1.35075,0.48260,-2.10369,0.05037,1.57080,-3.01912,-0.09677,-0.44240,0.38873,,
1.8834,1,DESCENDING,-0.0000,1.35075,0.48260,-2.10372,0.05040,1.57080,-3.01912,-0.09677,-0.44240,0.38872,,
1.8951,1,DESCENDING,-0.0000,1.35075,0.48260,-2.10376,0.05045,1.57080,-3.01912,-0.09677,-0.44240,0.38869,,
1.9020,1,DESCENDING,-0.0000,1.35075,0.48260,-2.10379,0.05048,1.57080,-3.01912,-0.09677,-0.44240,0.38867,,
1.9118,1,DESCENDING,-0.0000,1.35075,0.48259,-2.10388,0.05058,1.57080,-3.01912,-0.09677,-0.44240,0.38862,,
1.9217,1,DESCENDING,-0.0000,1.35075,0.48259,-2.10388,0.05058,1.57080,-3.01912,-0.09677,-0.44240,0.38862,,
1.9341,1,DESCENDING,-0.0000,1.35075,0.48259,-2.10393,0.05063,1.57080,-3.01912,-0.09677,-0.44240,0.38859,,
1.9433,1,DESCENDING,-0.0000,1.35075,0.48258,-2.10398,0.05068,1.57080,-3.01912,-0.09677,-0.44240,0.38856,,
1.9586,1,DESCENDING,-0.0000,1.35075,0.48258,-2.10403,0.05073,1.57080,-3.01912,-0.09677,-0.44240,0.38854,,
1.9633,1,DESCENDING,-0.0000,1.35075,0.48258,-2.10408,0.05079,1.57080,-3.01912,-0.09677,-0.44240,0.38850,,
1.9748,1,DESCENDING,-0.0000,1.35075,0.48257,-2.10415,0.05086,1.57080,-3.01912,-0.09677,-0.44240,0.38846,,
1.9830,1,DESCENDING,-0.0000,1.35075,0.48257,-2.10416,0.05087,1.57080,-3.01912,-0.09677,-0.44240,0.38846,,
1.9970,1,DESCENDING,-0.0000,1.35075,0.48257,-2.10422,0.05094,1.57080,-3.01912,-0.09677,-0.44240,0.38842,,
2.0032,1,DESCENDING,-0.0000,1.35075,0.48257,-2.10425,0.05097,1.57080,-3.01912,-0.09677,-0.44240,0.38840,,
2.0124,1,DESCENDING,-0.0000,1.35075,0.48257,-2.10427,0.05099,1.57080,-3.01912,-0.09677,-0.44240,0.38839,,
2.0232,1,DESCENDING,-0.0000,1.35075,0.48256,-2.10435,0.05107,1.57080,-3.01912,-0.09677,-0.44240,0.38835,,
2.0358,1,DESCENDING,-0.0000,1.35075,0.48256,-2.10441,0.05114,1.57080,-3.01912,-0.09677,-0.44240,0.38831,,
2.0454,1,DESCENDING,-0.0000,1.35075,0.48256,-2.10443,0.05116,1.57080,-3.01912,-0.09677,-0.44240,0.38830,,
2.0561,1,DESCENDING,-0.0000,1.35075,0.48256,-2.10449,0.05122,1.57080,-3.01912,-0.09677,-0.44240,0.38826,,
2.0671,1,DESCENDING,-0.0000,1.35075,0.48255,-2.10452,0.05125,1.57080,-3.01912,-0.09677,-0.44240,0.38825,,
2.0730,1,DESCENDING,-0.0000,1.35075,0.48255,-2.10454,0.05127,1.57080,-3.01912,-0.09677,-0.44240,0.38824,,
2.0853,1,DESCENDING,-0.0000,1.35075,0.48255,-2.10462,0.05136,1.57080,-3.01912,-0.09677,-0.44240,0.38819,,
2.0970,1,DESCENDING,-0.0000,1.35075,0.48254,-2.10468,0.05142,1.57080,-3.01912,-0.09677,-0.44240,0.38815,,
2.1018,1,DESCENDING,-0.0000,1.35075,0.48254,-2.10469,0.05143,1.57080,-3.01912,-0.09677,-0.44240,0.38815,,
2.1117,1,DESCENDING,-0.0000,1.35075,0.48254,-2.10475,0.05149,1.57080,-3.01912,-0.09677,-0.44240,0.38811,,
2.1257,1,DESCENDING,-0.0000,1.35075,0.48254,-2.10481,0.05156,1.57080,-3.01912,-0.09677,-0.44240,0.38808,,
2.1342,1,DESCENDING,-0.0000,1.35075,0.48254,-2.10483,0.05158,1.57080,-3.01912,-0.09677,-0.44240,0.38807,,
2.1432,1,DESCENDING,-0.0000,1.35075,0.48253,-2.10491,0.05166,1.57080,-3.01912,-0.09677,-0.44240,0.38802,,
2.1518,1,DESCENDING,-0.0000,1.35075,0.48253,-2.10497,0.05173,1.57080,-3.01912,-0.09677,-0.44240,0.38798,,
2.1680,1,DESCENDING,-0.0000,1.35075,0.48253,-2.10501,0.05177,1.57080,-3.01912,-0.09677,-0.44240,0.38796,,
2.1754,1,DESCENDING,-0.0000,1.35075,0.48252,-2.10507,0.05183,1.57080,-3.01912,-0.09677,-0.44240,0.38793,,
2.1838,1,DESCENDING,-0.0000,1.35075,0.48252,-2.10510,0.05187,1.57080,-3.01912,-0.09677,-0.44240,0.38791,,
2.1916,1,DESCENDING,-0.0000,1.35075,0.48252,-2.10512,0.05189,1.57080,-3.01912,-0.09677,-0.44240,0.38790,,
2.2080,1,DESCENDING,-0.0000,1.35075,0.48251,-2.10523,0.05200,1.57080,-3.01912,-0.09677,-0.44240,0.38783,,
2.2129,1,DESCENDING,-0.0000,1.35075,0.48251,-2.10526,0.05204,1.57080,-3.01912,-0.09677,-0.44240,0.38781,,
2.2221,1,DESCENDING,-0.0000,1.35075,0.48251,-2.10527,0.05204,1.57080,-3.01912,-0.09677,-0.44240,0.38781,,
2.2328,1,DESCENDING,-0.0000,1.35075,0.48251,-2.10533,0.05211,1.57080,-3.01912,-0.09677,-0.44240,0.38777,,
2.2457,1,DESCENDING,-0.0000,1.35075,0.48250,-2.10539,0.05217,1.57080,-3.01912,-0.09677,-0.44240,0.38774,,
2.2559,1,DESCENDING,-0.0000,1.35075,0.48250,-2.10543,0.05222,1.57080,-3.01912,-0.09677,-0.44240,0.38771,,
2.2725,1,DESCENDING,-0.0000,1.35075,0.48249,-2.10555,0.05234,1.57080,-3.01912,-0.09677,-0.44240,0.38764,,
2.2777,1,DESCENDING,-0.0000,1.35075,0.48249,-2.10555,0.05234,1.57080,-3.01912,-0.09677,-0.44240,0.38764,,
2.2818,1,DESCENDING,-0.0000,1.35075,0.48249,-2.10556,0.05235,1.57080,-3.01912,-0.09677,-0.44240,0.38764,,
2.3018,1,DESCENDING,-0.0000,1.35075,0.48249,-2.10568,0.05248,1.57080,-3.01912,-0.09677,-0.44240,0.38757,,
2.3158,1,DESCENDING,-0.0000,1.35075,0.48248,-2.10573,0.05253,1.57080,-3.01912,-0.09677,-0.44240,0.38754,,
2.3238,1,DESCENDING,-0.0000,1.35075,0.48248,-2.10576,0.05257,1.57080,-3.01912,-0.09677,-0.44240,0.38752,,
2.3319,1,DESCENDING,-0.0000,1.35075,0.48248,-2.10582,0.05262,1.57080,-3.01912,-0.09677,-0.44240,0.38749,,
2.3422,1,DESCENDING,-0.0000,1.35075,0.48248,-2.10582,0.05263,1.57080,-3.01912,-0.09677,-0.44240,0.38749,,
2.3517,1,DESCENDING,-0.0000,1.35075,0.48247,-2.10589,0.05270,1.57080,-3.01912,-0.09677,-0.44240,0.38745,,
2.3644,1,DESCENDING,-0.0000,1.35075,0.48247,-2.10598,0.05280,1.57080,-3.01912,-0.09677,-0.44240,0.38739,,
2.3727,1,DESCENDING,-0.0000,1.35075,0.48247,-2.10598,0.05280,1.57080,-3.01912,-0.09677,-0.44240,0.38739,,
2.4148,1,DESCENDING,-0.0000,1.35075,0.48246,-2.10615,0.05298,1.57080,-3.01912,-0.09677,-0.44240,0.38729,,
2.4270,1,DESCENDING,-0.0000,1.35075,0.48245,-2.10625,0.05308,1.57080,-3.01912,-0.09677,-0.44240,0.38724,,
2.4275,1,DESCENDING,-0.0000,1.35075,0.48245,-2.10625,0.05308,1.57080,-3.01912,-0.09677,-0.44240,0.38724,,
2.4355,1,DESCENDING,-0.0000,1.35075,0.48245,-2.10626,0.05309,1.57080,-3.01912,-0.09677,-0.44240,0.38723,,
2.4944,1,DESCENDING,-0.0000,1.35075,0.48244,-2.10652,0.05337,1.57080,-3.01912,-0.09677,-0.44240,0.38708,,
2.5104,1,DESCENDING,-0.0000,1.35075,0.48243,-2.10659,0.05344,1.57080,-3.01912,-0.09677,-0.44240,0.38704,,
2.5364,1,DESCENDING,-0.0000,1.35075,0.48242,-2.10672,0.05358,1.57080,-3.01912,-0.09677,-0.44240,0.38696,,
2.5399,1,DESCENDING,-0.0000,1.35075,0.48242,-2.10675,0.05361,1.57080,-3.01912,-0.09677,-0.44240,0.38695,,
2.5437,1,DESCENDING,-0.0000,1.35075,0.48242,-2.10678,0.05364,1.57080,-3.01912,-0.09677,-0.44240,0.38693,,
2.5446,1,DESCENDING,-0.0000,1.35075,0.48242,-2.10678,0.05364,1.57080,-3.01912,-0.09677,-0.44240,0.38693,,
2.5451,1,DESCENDING,-0.0000,1.35075,0.48242,-2.10678,0.05364,1.57080,-3.01912,-0.09677,-0.44240,0.38693,,
2.5453,1,DESCENDING,-0.0000,1.35075,0.48242,-2.10678,0.05364,1.57080,-3.01912,-0.09677,-0.44240,0.38693,,
2.5463,1,DESCENDING,-0.0000,1.35075,0.48242,-2.10678,0.05364,1.57080,-3.01912,-0.09677,-0.44240,0.38693,,
2.5532,1,DESCENDING,-0.0000,1.35075,0.48242,-2.10678,0.05365,1.57080,-3.01912,-0.09677,-0.44240,0.38693,,
2.5629,1,DESCENDING,-0.0000,1.35075,0.48242,-2.10681,0.05368,1.57080,-3.01912,-0.09677,-0.44240,0.38691,,
2.5774,1,DESCENDING,-0.0000,1.35075,0.48242,-2.10688,0.05375,1.57080,-3.01912,-0.09677,-0.44240,0.38687,,
2.5837,1,DESCENDING,-0.0000,1.35075,0.48241,-2.10690,0.05377,1.57080,-3.01912,-0.09677,-0.44240,0.38686,,
2.5946,1,DESCENDING,-0.0000,1.35075,0.48241,-2.10695,0.05383,1.57080,-3.01912,-0.09677,-0.44240,0.38683,,
2.6024,1,DESCENDING,-0.0000,1.35075,0.48241,-2.10701,0.05389,1.57080,-3.01912,-0.09677,-0.44240,0.38679,,
2.6174,1,DESCENDING,-0.0000,1.35075,0.48240,-2.10706,0.05394,1.57080,-3.01912,-0.09677,-0.44240,0.38676,,
2.6238,1,DESCENDING,-0.0000,1.35075,0.48240,-2.10710,0.05398,1.57080,-3.01912,-0.09677,-0.44240,0.38674,,
2.6367,1,DESCENDING,-0.0000,1.35075,0.48240,-2.10715,0.05403,1.57080,-3.01912,-0.09677,-0.44240,0.38671,,
2.6450,1,DESCENDING,-0.0000,1.35075,0.48240,-2.10717,0.05406,1.57080,-3.01912,-0.09677,-0.44240,0.38670,,
2.6551,1,DESCENDING,-0.0000,1.35075,0.48239,-2.10722,0.05411,1.57080,-3.01912,-0.09677,-0.44240,0.38667,,
2.6646,1,DESCENDING,-0.0000,1.35075,0.48239,-2.10731,0.05421,1.57080,-3.01912,-0.09677,-0.44240,0.38662,,
2.6786,1,DESCENDING,-0.0000,1.35075,0.48239,-2.10733,0.05422,1.57080,-3.01912,-0.09677,-0.44240,0.38661,,
2.6863,1,DESCENDING,-0.0000,1.35075,0.48239,-2.10736,0.05426,1.57080,-3.01912,-0.09677,-0.44240,0.38659,,
2.6926,1,DESCENDING,-0.0000,1.35075,0.48238,-2.10741,0.05432,1.57080,-3.01912,-0.09677,-0.44240,0.38656,,
2.7021,1,DESCENDING,-0.0000,1.35075,0.48238,-2.10742,0.05432,1.57080,-3.01912,-0.09677,-0.44240,0.38655,,
2.7125,1,DESCENDING,-0.0000,1.35075,0.48238,-2.10748,0.05439,1.57080,-3.01912,-0.09677,-0.44240,0.38652,,
2.7222,1,DESCENDING,-0.0000,1.35075,0.48237,-2.10755,0.05446,1.57080,-3.01912,-0.09677,-0.44240,0.38648,,
2.7338,1,DESCENDING,-0.0000,1.35075,0.48237,-2.10758,0.05449,1.57080,-3.01912,-0.09677,-0.44240,0.38646,,
2.7446,1,DESCENDING,-0.0000,1.35075,0.48237,-2.10763,0.05454,1.57080,-3.01912,-0.09677,-0.44240,0.38643,,
2.7524,1,DESCENDING,-0.0000,1.35075,0.48237,-2.10768,0.05460,1.57080,-3.01912,-0.09677,-0.44240,0.38640,,
2.7666,1,DESCENDING,-0.0000,1.35075,0.48237,-2.10770,0.05462,1.57080,-3.01912,-0.09677,-0.44240,0.38639,,
2.7740,1,DESCENDING,-0.0000,1.35075,0.48236,-2.10775,0.05467,1.57080,-3.01912,-0.09677,-0.44240,0.38636,,
2.7828,1,DESCENDING,-0.0000,1.35075,0.48236,-2.10781,0.05474,1.57080,-3.01912,-0.09677,-0.44240,0.38632,,
2.7924,1,DESCENDING,-0.0000,1.35075,0.48236,-2.10785,0.05478,1.57080,-3.01912,-0.09677,-0.44240,0.38630,,
2.8021,1,DESCENDING,-0.0000,1.35075,0.48235,-2.10787,0.05481,1.57080,-3.01912,-0.09677,-0.44240,0.38629,,
2.8247,1,DESCENDING,-0.0000,1.35075,0.48235,-2.10797,0.05490,1.57080,-3.01912,-0.09677,-0.44240,0.38623,,
2.8251,1,DESCENDING,-0.0000,1.35075,0.48235,-2.10797,0.05490,1.57080,-3.01912,-0.09677,-0.44240,0.38623,,
2.8323,1,DESCENDING,-0.0000,1.35075,0.48235,-2.10802,0.05496,1.57080,-3.01912,-0.09677,-0.44240,0.38620,,
2.8439,1,DESCENDING,-0.0000,1.35075,0.48234,-2.10811,0.05506,1.57080,-3.01912,-0.09677,-0.44240,0.38615,,
2.8534,1,DESCENDING,-0.0000,1.35075,0.48234,-2.10811,0.05506,1.57080,-3.01912,-0.09677,-0.44240,0.38615,,
2.8631,1,DESCENDING,-0.0000,1.35075,0.48234,-2.10814,0.05509,1.57080,-3.01912,-0.09677,-0.44240,0.38613,,
2.8760,1,DESCENDING,-0.0000,1.35075,0.48233,-2.10821,0.05516,1.57080,-3.01912,-0.09677,-0.44240,0.38609,,
2.8854,1,DESCENDING,-0.0000,1.35075,0.48233,-2.10823,0.05518,1.57080,-3.01912,-0.09677,-0.44240,0.38608,,
2.8933,1,DESCENDING,-0.0000,1.35075,0.48233,-2.10828,0.05524,1.57080,-3.01912,-0.09677,-0.44240,0.38605,,
2.9030,1,DESCENDING,-0.0000,1.35075,0.48233,-2.10835,0.05531,1.57080,-3.01912,-0.09677,-0.44240,0.38601,,
2.9266,1,DESCENDING,-0.0000,1.35075,0.48232,-2.10843,0.05539,1.57080,-3.01912,-0.09677,-0.44240,0.38596,,
2.9280,1,DESCENDING,-0.0000,1.35075,0.48232,-2.10845,0.05542,1.57080,-3.01912,-0.09677,-0.44240,0.38595,,
2.9345,1,DESCENDING,-0.0000,1.35075,0.48232,-2.10848,0.05545,1.57080,-3.01912,-0.09677,-0.44240,0.38593,,
2.9486,1,DESCENDING,-0.0000,1.35075,0.48231,-2.10852,0.05549,1.57080,-3.01912,-0.09677,-0.44240,0.38591,,
2.9531,1,DESCENDING,-0.0000,1.35075,0.48231,-2.10855,0.05552,1.57080,-3.01912,-0.09677,-0.44240,0.38589,,
2.9709,1,DESCENDING,-0.0000,1.35075,0.48231,-2.10864,0.05562,1.57080,-3.01912,-0.09677,-0.44240,0.38584,,
2.9724,1,DESCENDING,-0.0000,1.35075,0.48231,-2.10865,0.05562,1.57080,-3.01912,-0.09677,-0.44240,0.38584,,
2.9871,1,DESCENDING,-0.0000,1.35075,0.48230,-2.10869,0.05567,1.57080,-3.01912,-0.09677,-0.44240,0.38581,,
2.9923,1,DESCENDING,-0.0000,1.35075,0.48230,-2.10874,0.05573,1.57080,-3.01912,-0.09677,-0.44240,0.38578,,
3.0029,1,DESCENDING,-0.0000,1.35075,0.48230,-2.10875,0.05573,1.57080,-3.01912,-0.09677,-0.44240,0.38578,,
3.0136,1,DESCENDING,-0.0000,1.35075,0.48230,-2.10881,0.05580,1.57080,-3.01912,-0.09677,-0.44240,0.38574,,
3.0263,1,DESCENDING,-0.0000,1.35075,0.48229,-2.10891,0.05590,1.57080,-3.01912,-0.09677,-0.44240,0.38568,,
3.0320,1,DESCENDING,-0.0000,1.35075,0.48229,-2.10891,0.05591,1.57080,-3.01912,-0.09677,-0.44240,0.38568,,
3.0482,1,DESCENDING,-0.0000,1.35075,0.48228,-2.10901,0.05601,1.57080,-3.01912,-0.09677,-0.44240,0.38562,,
3.0549,1,DESCENDING,-0.0000,1.35075,0.48228,-2.10904,0.05604,1.57080,-3.01912,-0.09677,-0.44240,0.38561,,
3.0744,1,DESCENDING,-0.0000,1.35075,0.48228,-2.10911,0.05611,1.57080,-3.01912,-0.09677,-0.44240,0.38557,,
3.0756,1,DESCENDING,-0.0000,1.35075,0.48228,-2.10914,0.05615,1.57080,-3.01912,-0.09677,-0.44240,0.38555,,
3.0889,1,DESCENDING,-0.0000,1.35075,0.48227,-2.10920,0.05621,1.57080,-3.01912,-0.09677,-0.44240,0.38551,,
3.0928,1,DESCENDING,-0.0000,1.35075,0.48227,-2.10920,0.05622,1.57080,-3.01912,-0.09677,-0.44240,0.38551,,
3.1079,1,DESCENDING,-0.0000,1.35075,0.48227,-2.10930,0.05632,1.57080,-3.01912,-0.09677,-0.44240,0.38546,,
3.1121,1,DESCENDING,-0.0000,1.35075,0.48226,-2.10933,0.05635,1.57080,-3.01912,-0.09677,-0.44240,0.38544,,
3.1331,1,DESCENDING,-0.0000,1.35075,0.48226,-2.10939,0.05641,1.57080,-3.01912,-0.09677,-0.44240,0.38540,,
3.1335,1,DESCENDING,-0.0000,1.35075,0.48226,-2.10939,0.05641,1.57080,-3.01912,-0.09677,-0.44240,0.38540,,
3.1427,1,DESCENDING,-0.0000,1.35075,0.48226,-2.10943,0.05646,1.57080,-3.01912,-0.09677,-0.44240,0.38537,,
3.1522,1,DESCENDING,-0.0000,1.35075,0.48226,-2.10947,0.05650,1.57080,-3.01912,-0.09677,-0.44240,0.38536,,
3.1640,1,DESCENDING,-0.0000,1.35075,0.48225,-2.10953,0.05657,1.57080,-3.01912,-0.09677,-0.44240,0.38532,,
3.1761,1,DESCENDING,-0.0000,1.35075,0.48225,-2.10962,0.05666,1.57080,-3.01912,-0.09677,-0.44240,0.38526,,
3.1859,1,DESCENDING,-0.0000,1.35075,0.48225,-2.10963,0.05667,1.57080,-3.01912,-0.09677,-0.44240,0.38526,,
3.1927,1,DESCENDING,-0.0000,1.35075,0.48224,-2.10966,0.05670,1.57080,-3.01912,-0.09677,-0.44240,0.38525,,
3.2022,1,DESCENDING,-0.0000,1.35075,0.48224,-2.10970,0.05674,1.57080,-3.01912,-0.09677,-0.44240,0.38522,,
3.2124,1,DESCENDING,-0.0000,1.35075,0.48224,-2.10973,0.05678,1.57080,-3.01912,-0.09677,-0.44240,0.38520,,
3.2278,1,DESCENDING,-0.0000,1.35075,0.48223,-2.10983,0.05688,1.57080,-3.01912,-0.09677,-0.44240,0.38514,,
3.2334,1,DESCENDING,-0.0000,1.35075,0.48223,-2.10986,0.05692,1.57080,-3.01912,-0.09677,-0.44240,0.38513,,
3.2442,1,DESCENDING,-0.0000,1.35075,0.48223,-2.10989,0.05695,1.57080,-3.01912,-0.09677,-0.44240,0.38511,,
3.2522,1,DESCENDING,-0.0000,1.35075,0.48223,-2.10992,0.05698,1.57080,-3.01912,-0.09677,-0.44240,0.38509,,
3.2624,1,DESCENDING,-0.0000,1.35075,0.48222,-2.10997,0.05703,1.57080,-3.01912,-0.09677,-0.44240,0.38506,,
3.2737,1,DESCENDING,-0.0000,1.35075,0.48222,-2.11000,0.05706,1.57080,-3.01912,-0.09677,-0.44240,0.38505,,
3.2883,1,DESCENDING,-0.0000,1.35075,0.48222,-2.11009,0.05716,1.57080,-3.01912,-0.09677,-0.44240,0.38499,,
3.2962,1,DESCENDING,-0.0000,1.35075,0.48221,-2.11016,0.05723,1.57080,-3.01912,-0.09677,-0.44240,0.38495,,
3.3018,1,DESCENDING,-0.0000,1.35075,0.48221,-2.11016,0.05723,1.57080,-3.01912,-0.09677,-0.44240,0.38495,,
3.3127,1,DESCENDING,-0.0000,1.35075,0.48221,-2.11019,0.05726,1.57080,-3.01912,-0.09677,-0.44240,0.38493,,
3.3289,1,DESCENDING,-0.0000,1.35075,0.48220,-2.11026,0.05734,1.57080,-3.01912,-0.09677,-0.44240,0.38489,,
3.3344,1,DESCENDING,-0.0000,1.35075,0.48220,-2.11026,0.05734,1.57080,-3.01912,-0.09677,-0.44240,0.38489,,
3.3455,1,DESCENDING,-0.0000,1.35075,0.48220,-2.11033,0.05741,1.57080,-3.01912,-0.09677,-0.44240,0.38485,,
3.3544,1,DESCENDING,-0.0000,1.35075,0.48220,-2.11039,0.05748,1.57080,-3.01912,-0.09677,-0.44240,0.38481,,
3.3638,1,DESCENDING,-0.0000,1.35075,0.48219,-2.11043,0.05752,1.57080,-3.01912,-0.09677,-0.44240,0.38479,,
3.3748,1,DESCENDING,-0.0000,1.35075,0.48219,-2.11045,0.05755,1.57080,-3.01912,-0.09677,-0.44240,0.38478,,
3.3826,1,DESCENDING,-0.0000,1.35075,0.48219,-2.11050,0.05759,1.57080,-3.01912,-0.09677,-0.44240,0.38475,,
3.3966,1,DESCENDING,-0.0000,1.35075,0.48219,-2.11054,0.05764,1.57080,-3.01912,-0.09677,-0.44240,0.38472,,
3.4032,1,DESCENDING,-0.0000,1.35075,0.48218,-2.11057,0.05767,1.57080,-3.01912,-0.09677,-0.44240,0.38471,,
3.4148,1,DESCENDING,-0.0000,1.35075,0.48218,-2.11066,0.05776,1.57080,-3.01912,-0.09677,-0.44240,0.38466,,
3.4221,1,DESCENDING,-0.0000,1.35075,0.48218,-2.11069,0.05780,1.57080,-3.01912,-0.09677,-0.44240,0.38464,,
3.4324,1,DESCENDING,-0.0000,1.35075,0.48217,-2.11073,0.05784,1.57080,-3.01912,-0.09677,-0.44240,0.38462,,
3.4423,1,DESCENDING,-0.0000,1.35075,0.48217,-2.11079,0.05790,1.57080,-3.01912,-0.09677,-0.44240,0.38458,,
3.4576,1,DESCENDING,-0.0000,1.35075,0.48217,-2.11084,0.05796,1.57080,-3.01912,-0.09677,-0.44240,0.38455,,
3.4651,1,DESCENDING,-0.0000,1.35075,0.48216,-2.11089,0.05801,1.57080,-3.01912,-0.09677,-0.44240,0.38452,,
3.4776,1,DESCENDING,-0.0000,1.35075,0.48216,-2.11098,0.05810,1.57080,-3.01912,-0.09677,-0.44240,0.38447,,
3.4838,1,DESCENDING,-0.0000,1.35075,0.48216,-2.11098,0.05811,1.57080,-3.01912,-0.09677,-0.44240,0.38447,,
3.4941,1,DESCENDING,-0.0000,1.35075,0.48216,-2.11102,0.05815,1.57080,-3.01912,-0.09677,-0.44240,0.38445,,
3.5036,1,DESCENDING,-0.0000,1.35075,0.48215,-2.11111,0.05824,1.57080,-3.01912,-0.09677,-0.44240,0.38440,,
3.5120,1,DESCENDING,-0.0000,1.35075,0.48215,-2.11111,0.05825,1.57080,-3.01912,-0.09677,-0.44240,0.38439,,
3.5223,1,DESCENDING,-0.0000,1.35075,0.48215,-2.11115,0.05829,1.57080,-3.01912,-0.09677,-0.44240,0.38437,,
3.5341,1,DESCENDING,-0.0000,1.35075,0.48214,-2.11124,0.05838,1.57080,-3.01912,-0.09677,-0.44240,0.38432,,
3.5445,1,DESCENDING,-0.0000,1.35075,0.48214,-2.11127,0.05842,1.57080,-3.01912,-0.09677,-0.44240,0.38430,,
3.5536,1,DESCENDING,-0.0000,1.35075,0.48214,-2.11131,0.05846,1.57080,-3.01912,-0.09677,-0.44240,0.38428,,
3.5627,1,DESCENDING,-0.0000,1.35075,0.48213,-2.11137,0.05852,1.57080,-3.01912,-0.09677,-0.44240,0.38424,,
3.5791,1,DESCENDING,-0.0000,1.35075,0.48213,-2.11142,0.05857,1.57080,-3.01912,-0.09677,-0.44240,0.38421,,
3.5936,1,DESCENDING,-0.0000,1.35075,0.48212,-2.11153,0.05869,1.57080,-3.01912,-0.09677,-0.44240,0.38415,,
3.5945,1,DESCENDING,-0.0000,1.35075,0.48212,-2.11153,0.05869,1.57080,-3.01912,-0.09677,-0.44240,0.38415,,
3.6027,1,DESCENDING,-0.0000,1.35075,0.48212,-2.11156,0.05872,1.57080,-3.01912,-0.09677,-0.44240,0.38413,,
3.6121,1,DESCENDING,-0.0000,1.35075,0.48212,-2.11160,0.05877,1.57080,-3.01912,-0.09677,-0.44240,0.38411,,
3.6226,1,DESCENDING,-0.0000,1.35075,0.48211,-2.11166,0.05883,1.57080,-3.01912,-0.09677,-0.44240,0.38407,,
3.6441,1,DESCENDING,-0.0000,1.35075,0.48211,-2.11175,0.05893,1.57080,-3.01912,-0.09677,-0.44240,0.38402,,
3.6448,1,DESCENDING,-0.0000,1.35075,0.48211,-2.11175,0.05893,1.57080,-3.01912,-0.09677,-0.44240,0.38402,,
3.6538,1,DESCENDING,-0.0000,1.35075,0.48210,-2.11179,0.05897,1.57080,-3.01912,-0.09677,-0.44240,0.38399,,
3.6620,1,DESCENDING,-0.0000,1.35075,0.48210,-2.11182,0.05900,1.57080,-3.01912,-0.09677,-0.44240,0.38398,,
3.6748,1,DESCENDING,-0.0000,1.35075,0.48210,-2.11186,0.05905,1.57080,-3.01912,-0.09677,-0.44240,0.38395,,
3.6840,1,DESCENDING,-0.0000,1.35075,0.48209,-2.11195,0.05914,1.57080,-3.01912,-0.09677,-0.44240,0.38390,,
3.6959,1,DESCENDING,-0.0000,1.35075,0.48209,-2.11199,0.05918,1.57080,-3.01912,-0.09677,-0.44240,0.38388,,
3.7046,1,DESCENDING,-0.0000,1.35075,0.48209,-2.11201,0.05921,1.57080,-3.01912,-0.09677,-0.44240,0.38386,,
3.7125,1,DESCENDING,-0.0000,1.35075,0.48209,-2.11206,0.05926,1.57080,-3.01912,-0.09677,-0.44240,0.38384,,
3.7228,1,DESCENDING,-0.0000,1.35075,0.48209,-2.11208,0.05928,1.57080,-3.01912,-0.09677,-0.44240,0.38382,,
3.7380,1,DESCENDING,-0.0000,1.35075,0.48208,-2.11216,0.05936,1.57080,-3.01912,-0.09677,-0.44240,0.38378,,
3.7440,1,DESCENDING,-0.0000,1.35075,0.48208,-2.11222,0.05943,1.57080,-3.01912,-0.09677,-0.44240,0.38374,,
3.7521,1,DESCENDING,-0.0000,1.35075,0.48207,-2.11225,0.05946,1.57080,-3.01912,-0.09677,-0.44240,0.38373,,
3.7720,1,DESCENDING,-0.0000,1.35075,0.48207,-2.11232,0.05954,1.57080,-3.01912,-0.09677,-0.44240,0.38368,,
3.7747,1,DESCENDING,-0.0000,1.35075,0.48207,-2.11232,0.05954,1.57080,-3.01912,-0.09677,-0.44240,0.38368,,
3.7848,1,DESCENDING,-0.0000,1.35075,0.48207,-2.11236,0.05957,1.57080,-3.01912,-0.09677,-0.44240,0.38366,,
3.7960,1,DESCENDING,-0.0000,1.35075,0.48206,-2.11242,0.05964,1.57080,-3.01912,-0.09677,-0.44240,0.38363,,
3.8073,1,DESCENDING,-0.0000,1.35075,0.48206,-2.11248,0.05971,1.57080,-3.01912,-0.09677,-0.44240,0.38359,,
3.8122,1,DESCENDING,-0.0000,1.35075,0.48206,-2.11251,0.05974,1.57080,-3.01912,-0.09677,-0.44240,0.38357,,
3.8244,1,DESCENDING,-0.0000,1.35075,0.48205,-2.11254,0.05978,1.57080,-3.01912,-0.09677,-0.44240,0.38355,,
3.8324,1,DESCENDING,-0.0000,1.35075,0.48205,-2.11259,0.05982,1.57080,-3.01912,-0.09677,-0.44240,0.38353,,
3.8469,1,DESCENDING,-0.0000,1.35075,0.48205,-2.11262,0.05986,1.57080,-3.01912,-0.09677,-0.44240,0.38351,,
3.8568,1,DESCENDING,-0.0000,1.35075,0.48204,-2.11269,0.05993,1.57080,-3.01912,-0.09677,-0.44240,0.38347,,
3.8667,1,DESCENDING,-0.0000,1.35075,0.48204,-2.11275,0.05999,1.57080,-3.01912,-0.09677,-0.44240,0.38343,,
3.8747,1,DESCENDING,-0.0000,1.35075,0.48204,-2.11278,0.06003,1.57080,-3.01912,-0.09677,-0.44240,0.38342,,
3.8866,1,DESCENDING,-0.0000,1.35075,0.48204,-2.11281,0.06006,1.57080,-3.01912,-0.09677,-0.44240,0.38340,,
3.8931,1,DESCENDING,-0.0000,1.35075,0.48203,-2.11285,0.06011,1.57080,-3.01912,-0.09677,-0.44240,0.38337,,
3.9037,1,DESCENDING,-0.0000,1.35075,0.48203,-2.11289,0.06014,1.57080,-3.01912,-0.09677,-0.44240,0.38335,,
3.9127,1,DESCENDING,-0.0000,1.35075,0.48203,-2.11292,0.06018,1.57080,-3.01912,-0.09677,-0.44240,0.38333,,
3.9223,1,DESCENDING,-0.0000,1.35075,0.48202,-2.11298,0.06024,1.57080,-3.01912,-0.09677,-0.44240,0.38330,,
3.9321,1,DESCENDING,-0.0000,1.35075,0.48202,-2.11305,0.06031,1.57080,-3.01912,-0.09677,-0.44240,0.38326,,
3.9436,1,DESCENDING,-0.0000,1.35075,0.48202,-2.11306,0.06033,1.57080,-3.01912,-0.09677,-0.44240,0.38325,,
3.9535,1,DESCENDING,-0.0000,1.35075,0.48201,-2.11314,0.06041,1.57080,-3.01912,-0.09677,-0.44240,0.38320,,
3.9640,1,DESCENDING,-0.0000,1.35075,0.48201,-2.11318,0.06045,1.57080,-3.01912,-0.09677,-0.44240,0.38318,,
3.9733,1,DESCENDING,-0.0000,1.35075,0.48201,-2.11322,0.06049,1.57080,-3.01912,-0.09677,-0.44240,0.38316,,
3.9829,1,DESCENDING,-0.0000,1.35075,0.48200,-2.11327,0.06055,1.57080,-3.01912,-0.09677,-0.44240,0.38313,,
3.9964,1,DESCENDING,-0.0000,1.35075,0.48200,-2.11334,0.06062,1.57080,-3.01912,-0.09677,-0.44240,0.38309,,
4.0126,1,DESCENDING,-0.0000,1.35075,0.48199,-2.11343,0.06072,1.57080,-3.01912,-0.09677,-0.44240,0.38303,,
4.0151,1,DESCENDING,-0.0000,1.35075,0.48199,-2.11343,0.06072,1.57080,-3.01912,-0.09677,-0.44240,0.38303,,
4.0223,1,DESCENDING,-0.0000,1.35075,0.48199,-2.11346,0.06076,1.57080,-3.01912,-0.09677,-0.44240,0.38301,,
4.0326,1,DESCENDING,-0.0000,1.35075,0.48199,-2.11351,0.06080,1.57080,-3.01912,-0.09677,-0.44240,0.38299,,
4.0511,1,DESCENDING,-0.0000,1.35075,0.48198,-2.11362,0.06093,1.57080,-3.01912,-0.09677,-0.44240,0.38292,,
4.0547,1,DESCENDING,-0.0000,1.35075,0.48198,-2.11362,0.06093,1.57080,-3.01912,-0.09677,-0.44240,0.38292,,
4.0631,1,DESCENDING,-0.0000,1.35075,0.48198,-2.11364,0.06095,1.57080,-3.01912,-0.09677,-0.44240,0.38291,,
4.0747,1,DESCENDING,-0.0000,1.35075,0.48197,-2.11372,0.06103,1.57080,-3.01912,-0.09677,-0.44240,0.38286,,
4.0821,1,DESCENDING,-0.0000,1.35075,0.48197,-2.11378,0.06110,1.57080,-3.01912,-0.09677,-0.44240,0.38283,,
4.0972,1,DESCENDING,-0.0000,1.35075,0.48197,-2.11381,0.06113,1.57080,-3.01912,-0.09677,-0.44240,0.38281,,
4.1053,1,DESCENDING,-0.0000,1.35075,0.48196,-2.11386,0.06118,1.57080,-3.01912,-0.09677,-0.44240,0.38278,,
4.1144,1,DESCENDING,-0.0000,1.35075,0.48196,-2.11389,0.06121,1.57080,-3.01912,-0.09677,-0.44240,0.38277,,
4.1228,1,DESCENDING,-0.0000,1.35075,0.48196,-2.11391,0.06123,1.57080,-3.01912,-0.09677,-0.44240,0.38275,,
4.1333,1,DESCENDING,-0.0000,1.35075,0.48196,-2.11399,0.06132,1.57080,-3.01912,-0.09677,-0.44240,0.38271,,
4.1554,1,DESCENDING,-0.0000,1.35075,0.48195,-2.11406,0.06139,1.57080,-3.01912,-0.09677,-0.44240,0.38266,,
4.1642,1,DESCENDING,-0.0000,1.35075,0.48194,-2.11415,0.06149,1.57080,-3.01912,-0.09677,-0.44240,0.38261,,
4.1747,1,DESCENDING,-0.0000,1.35075,0.48194,-2.11418,0.06152,1.57080,-3.01912,-0.09677,-0.44240,0.38260,,
4.1824,1,DESCENDING,-0.0000,1.35075,0.48194,-2.11420,0.06154,1.57080,-3.01912,-0.09677,-0.44240,0.38258,,
4.1941,1,DESCENDING,-0.0000,1.35075,0.48194,-2.11428,0.06162,1.57080,-3.01912,-0.09677,-0.44240,0.38254,,
4.2151,1,DESCENDING,-0.0000,1.35075,0.48193,-2.11435,0.06171,1.57080,-3.01912,-0.09677,-0.44240,0.38249,,
4.2164,1,DESCENDING,-0.0000,1.35075,0.48193,-2.11437,0.06172,1.57080,-3.01912,-0.09677,-0.44240,0.38248,,
4.2221,1,DESCENDING,-0.0000,1.35075,0.48193,-2.11439,0.06175,1.57080,-3.01912,-0.09677,-0.44240,0.38247,,
4.2323,1,DESCENDING,-0.0000,1.35075,0.48192,-2.11444,0.06180,1.57080,-3.01912,-0.09677,-0.44240,0.38244,,
4.2481,1,DESCENDING,-0.0000,1.35075,0.48192,-2.11451,0.06188,1.57080,-3.01912,-0.09677,-0.44240,0.38240,,
4.2587,1,DESCENDING,-0.0000,1.35075,0.48192,-2.11457,0.06194,1.57080,-3.01912,-0.09677,-0.44240,0.38236,,
4.2620,1,DESCENDING,-0.0000,1.35075,0.48191,-2.11460,0.06197,1.57080,-3.01912,-0.09677,-0.44240,0.38235,,
4.2761,1,DESCENDING,-0.0000,1.35075,0.48191,-2.11463,0.06201,1.57080,-3.01912,-0.09677,-0.44240,0.38233,,
4.2858,1,DESCENDING,-0.0000,1.35075,0.48191,-2.11468,0.06206,1.57080,-3.01912,-0.09677,-0.44240,0.38230,,
4.2940,1,DESCENDING,-0.0000,1.35075,0.48191,-2.11470,0.06208,1.57080,-3.01912,-0.09677,-0.44240,0.38229,,
4.3042,1,DESCENDING,-0.0000,1.35075,0.48190,-2.11475,0.06213,1.57080,-3.01912,-0.09677,-0.44240,0.38226,,
4.3178,1,DESCENDING,-0.0000,1.35075,0.48190,-2.11484,0.06223,1.57080,-3.01912,-0.09677,-0.44240,0.38221,,
4.3239,1,DESCENDING,-0.0000,1.35075,0.48189,-2.11487,0.06226,1.57080,-3.01912,-0.09677,-0.44240,0.38219,,
4.3360,1,DESCENDING,-0.0000,1.35075,0.48189,-2.11490,0.06229,1.57080,-3.01912,-0.09677,-0.44240,0.38217,,
4.3429,1,DESCENDING,-0.0000,1.35075,0.48189,-2.11492,0.06231,1.57080,-3.01912,-0.09677,-0.44240,0.38216,,
4.3524,1,DESCENDING,-0.0000,1.35075,0.48189,-2.11497,0.06237,1.57080,-3.01912,-0.09677,-0.44240,0.38213,,
4.3639,1,DESCENDING,-0.0000,1.35075,0.48188,-2.11501,0.06241,1.57080,-3.01912,-0.09677,-0.44240,0.38211,,
4.3723,1,DESCENDING,-0.0000,1.35075,0.48188,-2.11507,0.06248,1.57080,-3.01912,-0.09677,-0.44240,0.38207,,
4.3823,1,DESCENDING,-0.0000,1.35075,0.48188,-2.11513,0.06254,1.57080,-3.01912,-0.09677,-0.44240,0.38203,,
4.3926,1,DESCENDING,-0.0000,1.35075,0.48187,-2.11515,0.06256,1.57080,-3.01912,-0.09677,-0.44240,0.38203,,
4.4051,1,DESCENDING,-0.0000,1.35075,0.48187,-2.11521,0.06262,1.57080,-3.01912,-0.09677,-0.44240,0.38199,,
4.4282,1,DESCENDING,-0.0000,1.35075,0.48186,-2.11531,0.06273,1.57080,-3.01912,-0.09677,-0.44240,0.38193,,
4.4332,1,DESCENDING,-0.0000,1.35075,0.48186,-2.11534,0.06276,1.57080,-3.01912,-0.09677,-0.44240,0.38192,,
4.4424,1,DESCENDING,-0.0000,1.35075,0.48186,-2.11540,0.06283,1.57080,-3.01912,-0.09677,-0.44240,0.38188,,
4.4547,1,DESCENDING,-0.0000,1.35075,0.48186,-2.11542,0.06285,1.57080,-3.01912,-0.09677,-0.44240,0.38187,,
4.4624,1,DESCENDING,-0.0000,1.35075,0.48185,-2.11547,0.06290,1.57080,-3.01912,-0.09677,-0.44240,0.38184,,
4.4719,1,DESCENDING,-0.0000,1.35075,0.48185,-2.11553,0.06296,1.57080,-3.01912,-0.09677,-0.44240,0.38180,,
4.4885,1,DESCENDING,-0.0000,1.35075,0.48184,-2.11560,0.06304,1.57080,-3.01912,-0.09677,-0.44240,0.38176,,
4.4945,1,DESCENDING,-0.0000,1.35075,0.48184,-2.11563,0.06307,1.57080,-3.01912,-0.09677,-0.44240,0.38174,,
4.5019,1,DESCENDING,-0.0000,1.35075,0.48184,-2.11569,0.06314,1.57080,-3.01912,-0.09677,-0.44240,0.38171,,
4.5237,1,DESCENDING,-0.0000,1.35075,0.48183,-2.11579,0.06324,1.57080,-3.01912,-0.09677,-0.44240,0.38165,,
4.5258,1,DESCENDING,-0.0000,1.35075,0.48183,-2.11579,0.06324,1.57080,-3.01912,-0.09677,-0.44240,0.38165,,
4.5323,1,DESCENDING,-0.0000,1.35075,0.48183,-2.11582,0.06327,1.57080,-3.01912,-0.09677,-0.44240,0.38163,,
4.5420,1,DESCENDING,-0.0000,1.35075,0.48183,-2.11584,0.06330,1.57080,-3.01912,-0.09677,-0.44240,0.38162,,
4.5587,1,DESCENDING,-0.0000,1.35075,0.48182,-2.11595,0.06341,1.57080,-3.01912,-0.09677,-0.44240,0.38156,,
4.5632,1,DESCENDING,-0.0000,1.35075,0.48182,-2.11598,0.06344,1.57080,-3.01912,-0.09677,-0.44240,0.38154,,
4.5719,1,DESCENDING,-0.0000,1.35075,0.48181,-2.11600,0.06347,1.57080,-3.01912,-0.09677,-0.44240,0.38153,,
4.5838,1,DESCENDING,-0.0000,1.35075,0.48181,-2.11607,0.06355,1.57080,-3.01912,-0.09677,-0.44240,0.38148,,
4.5923,1,DESCENDING,-0.0000,1.35075,0.48181,-2.11611,0.06358,1.57080,-3.01912,-0.09677,-0.44240,0.38146,,
4.6119,1,DESCENDING,-0.0000,1.35075,0.48180,-2.11620,0.06369,1.57080,-3.01912,-0.09677,-0.44240,0.38141,,
4.6152,1,DESCENDING,-0.0000,1.35075,0.48180,-2.11620,0.06369,1.57080,-3.01912,-0.09677,-0.44240,0.38141,,
4.6265,1,DESCENDING,-0.0000,1.35075,0.48180,-2.11627,0.06375,1.57080,-3.01912,-0.09677,-0.44240,0.38137,,
4.6325,1,DESCENDING,-0.0000,1.35075,0.48179,-2.11628,0.06378,1.57080,-3.01912,-0.09677,-0.44240,0.38136,,
4.6439,1,DESCENDING,-0.0000,1.35075,0.48179,-2.11636,0.06386,1.57080,-3.01912,-0.09677,-0.44240,0.38131,,
4.6650,1,DESCENDING,-0.0000,1.35075,0.48178,-2.11644,0.06394,1.57080,-3.01912,-0.09677,-0.44240,0.38127,,
4.6657,1,DESCENDING,-0.0000,1.35075,0.48178,-2.11644,0.06394,1.57080,-3.01912,-0.09677,-0.44240,0.38127,,
4.6752,1,DESCENDING,-0.0000,1.35075,0.48178,-2.11649,0.06400,1.57080,-3.01912,-0.09677,-0.44240,0.38124,,
4.6954,1,DESCENDING,-0.0000,1.35075,0.48177,-2.11657,0.06409,1.57080,-3.01912,-0.09677,-0.44240,0.38119,,
4.7055,1,DESCENDING,-0.0000,1.35075,0.48177,-2.11665,0.06417,1.57080,-3.01912,-0.09677,-0.44240,0.38114,,
4.7130,1,DESCENDING,-0.0000,1.35075,0.48176,-2.11668,0.06420,1.57080,-3.01912,-0.09677,-0.44240,0.38112,,
4.7248,1,DESCENDING,-0.0000,1.35075,0.48176,-2.11672,0.06425,1.57080,-3.01912,-0.09677,-0.44240,0.38110,,
4.7320,1,DESCENDING,-0.0000,1.35075,0.48176,-2.11678,0.06431,1.57080,-3.01912,-0.09677,-0.44240,0.38107,,
4.7460,1,DESCENDING,-0.0000,1.35075,0.48175,-2.11684,0.06437,1.57080,-3.01912,-0.09677,-0.44240,0.38103,,
4.7521,1,DESCENDING,-0.0000,1.35075,0.48175,-2.11686,0.06439,1.57080,-3.01912,-0.09677,-0.44240,0.38102,,
5.0101,1,DESCENDING,-0.0000,1.35075,0.48166,-2.11806,0.06568,1.57080,-3.01912,-0.09677,-0.44240,0.38032,,
5.0133,1,DESCENDING,-0.0000,1.35075,0.48166,-2.11809,0.06571,1.57080,-3.01912,-0.09677,-0.44240,0.38030,,
5.0136,1,DESCENDING,-0.0000,1.35075,0.48166,-2.11809,0.06571,1.57080,-3.01912,-0.09677,-0.44240,0.38030,,
5.0139,1,DESCENDING,-0.0000,1.35075,0.48166,-2.11809,0.06571,1.57080,-3.01912,-0.09677,-0.44240,0.38030,,
5.0288,1,DESCENDING,-0.0000,1.35075,0.48166,-2.11812,0.06574,1.57080,-3.01912,-0.09677,-0.44240,0.38028,,
5.0372,1,DESCENDING,-0.0000,1.35075,0.48166,-2.11816,0.06579,1.57080,-3.01912,-0.09677,-0.44240,0.38026,,
5.0431,1,DESCENDING,-0.0000,1.35075,0.48165,-2.11819,0.06582,1.57080,-3.01912,-0.09677,-0.44240,0.38024,,
5.0539,1,DESCENDING,-0.0000,1.35075,0.48165,-2.11821,0.06584,1.57080,-3.01912,-0.09677,-0.44240,0.38023,,
5.0725,1,DESCENDING,-0.0000,1.35075,0.48164,-2.11835,0.06599,1.57080,-3.01912,-0.09677,-0.44240,0.38014,,
5.0733,1,DESCENDING,-0.0000,1.35075,0.48164,-2.11835,0.06599,1.57080,-3.01912,-0.09677,-0.44240,0.38014,,
5.0834,1,DESCENDING,-0.0000,1.35075,0.48164,-2.11836,0.06600,1.57080,-3.01912,-0.09677,-0.44240,0.38014,,
5.0947,1,DESCENDING,-0.0000,1.35075,0.48164,-2.11842,0.06607,1.57080,-3.01912,-0.09677,-0.44240,0.38010,,
5.1037,1,DESCENDING,-0.0000,1.35075,0.48163,-2.11848,0.06613,1.57080,-3.01912,-0.09677,-0.44240,0.38007,,
5.1132,1,DESCENDING,-0.0000,1.35075,0.48163,-2.11850,0.06615,1.57080,-3.01912,-0.09677,-0.44240,0.38006,,
5.1238,1,DESCENDING,-0.0000,1.35075,0.48163,-2.11858,0.06624,1.57080,-3.01912,-0.09677,-0.44240,0.38001,,
5.1327,1,DESCENDING,-0.0000,1.35075,0.48162,-2.11864,0.06630,1.57080,-3.01912,-0.09677,-0.44240,0.37997,,
5.1420,1,DESCENDING,-0.0000,1.35075,0.48162,-2.11864,0.06631,1.57080,-3.01912,-0.09677,-0.44240,0.37997,,
5.1519,1,DESCENDING,-0.0000,1.35075,0.48162,-2.11871,0.06638,1.57080,-3.01912,-0.09677,-0.44240,0.37993,,
5.1627,1,DESCENDING,-0.0000,1.35075,0.48161,-2.11877,0.06644,1.57080,-3.01912,-0.09677,-0.44240,0.37990,,
5.1772,1,DESCENDING,-0.0000,1.35075,0.48161,-2.11881,0.06649,1.57080,-3.01912,-0.09677,-0.44240,0.37987,,
5.1820,1,DESCENDING,-0.0000,1.35075,0.48161,-2.11884,0.06651,1.57080,-3.01912,-0.09677,-0.44240,0.37986,,
5.1926,1,DESCENDING,-0.0000,1.35075,0.48160,-2.11893,0.06661,1.57080,-3.01912,-0.09677,-0.44240,0.37980,,
5.2059,1,DESCENDING,-0.0000,1.35075,0.48160,-2.11895,0.06663,1.57080,-3.01912,-0.09677,-0.44240,0.37979,,
5.2188,1,DESCENDING,-0.0000,1.35075,0.48159,-2.11903,0.06672,1.57080,-3.01912,-0.09677,-0.44240,0.37975,,
5.2240,1,DESCENDING,-0.0000,1.35075,0.48159,-2.11909,0.06678,1.57080,-3.01912,-0.09677,-0.44240,0.37971,,
5.2334,1,DESCENDING,-0.0000,1.35075,0.48159,-2.11909,0.06679,1.57080,-3.01912,-0.09677,-0.44240,0.37971,,
5.2456,1,DESCENDING,-0.0000,1.35075,0.48158,-2.11914,0.06684,1.57080,-3.01912,-0.09677,-0.44240,0.37968,,
5.2530,1,DESCENDING,-0.0000,1.35075,0.48158,-2.11919,0.06689,1.57080,-3.01912,-0.09677,-0.44240,0.37965,,
5.2645,1,DESCENDING,-0.0000,1.35075,0.48158,-2.11921,0.06692,1.57080,-3.01912,-0.09677,-0.44240,0.37964,,
5.2826,1,DESCENDING,-0.0000,1.35075,0.48157,-2.11932,0.06704,1.57080,-3.01912,-0.09677,-0.44240,0.37957,,
5.2837,1,DESCENDING,-0.0000,1.35075,0.48157,-2.11932,0.06704,1.57080,-3.01912,-0.09677,-0.44240,0.37957,,
5.3016,1,DESCENDING,-0.0000,1.35075,0.48156,-2.11939,0.06711,1.57080,-3.01912,-0.09677,-0.44240,0.37953,,
5.3096,1,DESCENDING,-0.0000,1.35075,0.48156,-2.11945,0.06717,1.57080,-3.01912,-0.09677,-0.44240,0.37950,,
5.3120,1,DESCENDING,-0.0000,1.35075,0.48156,-2.11948,0.06721,1.57080,-3.01912,-0.09677,-0.44240,0.37948,,
5.3318,1,DESCENDING,-0.0000,1.35075,0.48155,-2.11955,0.06728,1.57080,-3.01912,-0.09677,-0.44240,0.37944,,
5.3377,1,DESCENDING,-0.0000,1.35075,0.48155,-2.11958,0.06731,1.57080,-3.01912,-0.09677,-0.44240,0.37942,,
5.3434,1,DESCENDING,-0.0000,1.35075,0.48155,-2.11961,0.06735,1.57080,-3.01912,-0.09677,-0.44240,0.37940,,
5.3540,1,DESCENDING,-0.0000,1.35075,0.48154,-2.11964,0.06738,1.57080,-3.01912,-0.09677,-0.44240,0.37938,,
5.3622,1,DESCENDING,-0.0000,1.35075,0.48154,-2.11967,0.06741,1.57080,-3.01912,-0.09677,-0.44240,0.37937,,
5.3893,1,DESCENDING,-0.0000,1.35075,0.48153,-2.11978,0.06753,1.57080,-3.01912,-0.09677,-0.44240,0.37930,,
5.3897,1,DESCENDING,-0.0000,1.35075,0.48153,-2.11978,0.06753,1.57080,-3.01912,-0.09677,-0.44240,0.37930,,
5.3976,1,DESCENDING,-0.0000,1.35075,0.48153,-2.11984,0.06760,1.57080,-3.01912,-0.09677,-0.44240,0.37927,,
5.4151,1,DESCENDING,-0.0000,1.35075,0.48152,-2.11991,0.06767,1.57080,-3.01912,-0.09677,-0.44240,0.37923,,
5.4472,1,DESCENDING,-0.0000,1.35075,0.48151,-2.12003,0.06779,1.57080,-3.01912,-0.09677,-0.44240,0.37916,,
5.4522,1,DESCENDING,-0.0000,1.35075,0.48151,-2.12008,0.06785,1.57080,-3.01912,-0.09677,-0.44240,0.37913,,
5.4628,1,DESCENDING,-0.0000,1.35075,0.48151,-2.12014,0.06792,1.57080,-3.01912,-0.09677,-0.44240,0.37909,,
5.4881,1,DESCENDING,-0.0000,1.35075,0.48150,-2.12024,0.06803,1.57080,-3.01912,-0.09677,-0.44240,0.37903,,
5.4883,1,DESCENDING,-0.0000,1.35075,0.48150,-2.12024,0.06803,1.57080,-3.01912,-0.09677,-0.44240,0.37903,,
5.4927,1,DESCENDING,-0.0000,1.35075,0.48150,-2.12027,0.06806,1.57080,-3.01912,-0.09677,-0.44240,0.37901,,
5.5095,1,DESCENDING,-0.0000,1.35075,0.48149,-2.12031,0.06810,1.57080,-3.01912,-0.09677,-0.44240,0.37899,,
5.5132,1,DESCENDING,-0.0000,1.35075,0.48149,-2.12034,0.06813,1.57080,-3.01912,-0.09677,-0.44240,0.37897,,
5.5248,1,DESCENDING,-0.0000,1.35075,0.48148,-2.12043,0.06823,1.57080,-3.01912,-0.09677,-0.44240,0.37892,,
5.5324,1,DESCENDING,-0.0000,1.35075,0.48148,-2.12044,0.06824,1.57080,-3.01912,-0.09677,-0.44240,0.37892,,
5.5428,1,DESCENDING,-0.0000,1.35075,0.48148,-2.12046,0.06827,1.57080,-3.01912,-0.09677,-0.44240,0.37890,,
5.5536,1,DESCENDING,-0.0000,1.35075,0.48148,-2.12053,0.06834,1.57080,-3.01912,-0.09677,-0.44240,0.37886,,
5.5635,1,DESCENDING,-0.0000,1.35075,0.48148,-2.12054,0.06835,1.57080,-3.01912,-0.09677,-0.44240,0.37886,,
5.5726,1,DESCENDING,-0.0000,1.35075,0.48147,-2.12060,0.06842,1.57080,-3.01912,-0.09677,-0.44240,0.37882,,
5.5819,1,DESCENDING,-0.0000,1.35075,0.48147,-2.12067,0.06848,1.57080,-3.01912,-0.09677,-0.44240,0.37878,,
5.5921,1,DESCENDING,-0.0000,1.35075,0.48146,-2.12070,0.06852,1.57080,-3.01912,-0.09677,-0.44240,0.37876,,
5.6030,1,DESCENDING,-0.0000,1.35075,0.48146,-2.12073,0.06855,1.57080,-3.01912,-0.09677,-0.44240,0.37875,,
5.6165,1,DESCENDING,-0.0000,1.35075,0.48146,-2.12080,0.06863,1.57080,-3.01912,-0.09677,-0.44240,0.37870,,
5.6251,1,DESCENDING,-0.0000,1.35075,0.48145,-2.12082,0.06865,1.57080,-3.01912,-0.09677,-0.44240,0.37869,,
5.6494,1,DESCENDING,-0.0000,1.35075,0.48144,-2.12096,0.06880,1.57080,-3.01912,-0.09677,-0.44240,0.37861,,
5.6497,1,DESCENDING,-0.0000,1.35075,0.48144,-2.12096,0.06880,1.57080,-3.01912,-0.09677,-0.44240,0.37861,,
5.6538,1,DESCENDING,-0.0000,1.35075,0.48144,-2.12096,0.06881,1.57080,-3.01912,-0.09677,-0.44240,0.37861,,
5.6675,1,DESCENDING,-0.0000,1.35075,0.48144,-2.12101,0.06886,1.57080,-3.01912,-0.09677,-0.44240,0.37858,,
5.6746,1,DESCENDING,-0.0000,1.35075,0.48143,-2.12106,0.06891,1.57080,-3.01912,-0.09677,-0.44240,0.37855,,
5.6923,1,DESCENDING,-0.0000,1.35075,0.48143,-2.12113,0.06899,1.57080,-3.01912,-0.09677,-0.44240,0.37851,,
5.6926,1,DESCENDING,-0.0000,1.35075,0.48143,-2.12113,0.06899,1.57080,-3.01912,-0.09677,-0.44240,0.37851,,
5.7179,1,DESCENDING,-0.0000,1.35075,0.48142,-2.12124,0.06910,1.57080,-3.01912,-0.09677,-0.44240,0.37844,,
5.7224,1,DESCENDING,-0.0000,1.35075,0.48142,-2.12126,0.06912,1.57080,-3.01912,-0.09677,-0.44240,0.37843,,
5.7359,1,DESCENDING,-0.0000,1.35075,0.48141,-2.12133,0.06920,1.57080,-3.01912,-0.09677,-0.44240,0.37839,,
5.7432,1,DESCENDING,-0.0000,1.35075,0.48141,-2.12133,0.06920,1.57080,-3.01912,-0.09677,-0.44240,0.37839,,
5.7529,1,DESCENDING,-0.0000,1.35075,0.48141,-2.12140,0.06927,1.57080,-3.01912,-0.09677,-0.44240,0.37835,,
5.7634,1,DESCENDING,-0.0000,1.35075,0.48140,-2.12146,0.06934,1.57080,-3.01912,-0.09677,-0.44240,0.37831,,
5.7716,1,DESCENDING,-0.0000,1.35075,0.48140,-2.12149,0.06937,1.57080,-3.01912,-0.09677,-0.44240,0.37830,,
5.7866,1,DESCENDING,-0.0000,1.35075,0.48140,-2.12154,0.06943,1.57080,-3.01912,-0.09677,-0.44240,0.37827,,
5.7928,1,DESCENDING,-0.0000,1.35075,0.48139,-2.12159,0.06948,1.57080,-3.01912,-0.09677,-0.44240,0.37824,,
5.8033,1,DESCENDING,-0.0000,1.35075,0.48139,-2.12160,0.06949,1.57080,-3.01912,-0.09677,-0.44240,0.37823,,
5.8127,1,DESCENDING,-0.0000,1.35075,0.48139,-2.12166,0.06956,1.57080,-3.01912,-0.09677,-0.44240,0.37820,,
5.8224,1,DESCENDING,-0.0000,1.35075,0.48138,-2.12172,0.06962,1.57080,-3.01912,-0.09677,-0.44240,0.37816,,
5.8378,1,DESCENDING,-0.0000,1.35075,0.48138,-2.12177,0.06967,1.57080,-3.01912,-0.09677,-0.44240,0.37813,,
5.8473,1,DESCENDING,-0.0000,1.35075,0.48138,-2.12180,0.06971,1.57080,-3.01912,-0.09677,-0.44240,0.37811,,
5.8638,1,DESCENDING,-0.0000,1.35075,0.48137,-2.12186,0.06977,1.57080,-3.01912,-0.09677,-0.44240,0.37808,,
5.8719,1,DESCENDING,-0.0000,1.35075,0.48137,-2.12190,0.06981,1.57080,-3.01912,-0.09677,-0.44240,0.37806,,
5.8723,1,DESCENDING,-0.0000,1.35075,0.48137,-2.12190,0.06981,1.57080,-3.01912,-0.09677,-0.44240,0.37806,,
5.8945,1,DESCENDING,-0.0000,1.35075,0.48136,-2.12202,0.06995,1.57080,-3.01912,-0.09677,-0.44240,0.37798,,
5.8958,1,DESCENDING,-0.0000,1.35075,0.48136,-2.12202,0.06995,1.57080,-3.01912,-0.09677,-0.44240,0.37798,,
5.9361,1,DESCENDING,-0.0000,1.35075,0.48135,-2.12219,0.07013,1.57080,-3.01912,-0.09677,-0.44240,0.37788,,
5.9532,1,DESCENDING,-0.0000,1.35075,0.48134,-2.12229,0.07023,1.57080,-3.01912,-0.09677,-0.44240,0.37783,,
5.9535,1,DESCENDING,-0.0000,1.35075,0.48134,-2.12229,0.07023,1.57080,-3.01912,-0.09677,-0.44240,0.37783,,
5.9665,1,DESCENDING,-0.0000,1.35075,0.48133,-2.12233,0.07028,1.57080,-3.01912,-0.09677,-0.44240,0.37780,,
5.9766,1,DESCENDING,-0.0000,1.35075,0.48133,-2.12238,0.07034,1.57080,-3.01912,-0.09677,-0.44240,0.37777,,
5.9819,1,DESCENDING,-0.0000,1.35075,0.48133,-2.12239,0.07034,1.57080,-3.01912,-0.09677,-0.44240,0.37777,,
5.9973,1,DESCENDING,-0.0000,1.35075,0.48132,-2.12248,0.07045,1.57080,-3.01912,-0.09677,-0.44240,0.37771,,
6.0020,1,DESCENDING,-0.0000,1.35075,0.48132,-2.12252,0.07048,1.57080,-3.01912,-0.09677,-0.44240,0.37769,,
6.0170,1,DESCENDING,-0.0000,1.35075,0.48132,-2.12256,0.07053,1.57080,-3.01912,-0.09677,-0.44240,0.37767,,
6.0252,1,DESCENDING,-0.0000,1.35075,0.48131,-2.12260,0.07057,1.57080,-3.01912,-0.09677,-0.44240,0.37764,,
6.0375,1,DESCENDING,-0.0000,1.35075,0.48131,-2.12265,0.07062,1.57080,-3.01912,-0.09677,-0.44240,0.37761,,
6.0487,1,DESCENDING,-0.0000,1.35075,0.48131,-2.12269,0.07067,1.57080,-3.01912,-0.09677,-0.44240,0.37759,,
6.0535,1,DESCENDING,-0.0000,1.35075,0.48130,-2.12272,0.07070,1.57080,-3.01912,-0.09677,-0.44240,0.37757,,
6.0629,1,DESCENDING,-0.0000,1.35075,0.48130,-2.12278,0.07076,1.57080,-3.01912,-0.09677,-0.44240,0.37754,,
6.0716,1,DESCENDING,-0.0000,1.35075,0.48130,-2.12281,0.07080,1.57080,-3.01912,-0.09677,-0.44240,0.37752,,
6.0821,1,DESCENDING,-0.0000,1.35075,0.48129,-2.12284,0.07083,1.57080,-3.01912,-0.09677,-0.44240,0.37750,,
6.1052,1,DESCENDING,-0.0000,1.35075,0.48129,-2.12293,0.07093,1.57080,-3.01912,-0.09677,-0.44240,0.37745,,
6.1058,1,DESCENDING,-0.0000,1.35075,0.48129,-2.12293,0.07093,1.57080,-3.01912,-0.09677,-0.44240,0.37745,,
6.1126,1,DESCENDING,-0.0000,1.35075,0.48128,-2.12298,0.07098,1.57080,-3.01912,-0.09677,-0.44240,0.37742,,
6.1227,1,DESCENDING,-0.0000,1.35075,0.48128,-2.12304,0.07105,1.57080,-3.01912,-0.09677,-0.44240,0.37738,,
6.1507,1,DESCENDING,-0.0000,1.35075,0.48127,-2.12317,0.07119,1.57080,-3.01912,-0.09677,-0.44240,0.37730,,
6.1511,1,DESCENDING,-0.0000,1.35075,0.48127,-2.12317,0.07119,1.57080,-3.01912,-0.09677,-0.44240,0.37730,,
6.1621,1,DESCENDING,-0.0000,1.35075,0.48126,-2.12323,0.07125,1.57080,-3.01912,-0.09677,-0.44240,0.37727,,
6.1638,1,DESCENDING,-0.0000,1.35075,0.48126,-2.12323,0.07125,1.57080,-3.01912,-0.09677,-0.44240,0.37727,,
6.1716,1,DESCENDING,-0.0000,1.35075,0.48126,-2.12325,0.07127,1.57080,-3.01912,-0.09677,-0.44240,0.37726,,
6.1821,1,DESCENDING,-0.0000,1.35075,0.48126,-2.12331,0.07134,1.57080,-3.01912,-0.09677,-0.44240,0.37722,,
6.1919,1,DESCENDING,-0.0000,1.35075,0.48125,-2.12333,0.07136,1.57080,-3.01912,-0.09677,-0.44240,0.37721,,
6.2051,1,DESCENDING,-0.0000,1.35075,0.48125,-2.12340,0.07144,1.57080,-3.01912,-0.09677,-0.44240,0.37717,,
6.2130,1,DESCENDING,-0.0000,1.35075,0.48124,-2.12347,0.07151,1.57080,-3.01912,-0.09677,-0.44240,0.37713,,
6.2227,1,DESCENDING,-0.0000,1.35075,0.48124,-2.12350,0.07154,1.57080,-3.01912,-0.09677,-0.44240,0.37711,,
6.2332,1,DESCENDING,-0.0000,1.35075,0.48124,-2.12353,0.07157,1.57080,-3.01912,-0.09677,-0.44240,0.37709,,
6.2417,1,DESCENDING,-0.0000,1.35075,0.48123,-2.12357,0.07162,1.57080,-3.01912,-0.09677,-0.44240,0.37707,,
6.2592,1,DESCENDING,-0.0000,1.35075,0.48123,-2.12362,0.07167,1.57080,-3.01912,-0.09677,-0.44240,0.37704,,
6.2653,1,DESCENDING,-0.0000,1.35075,0.48123,-2.12367,0.07173,1.57080,-3.01912,-0.09677,-0.44240,0.37701,,
6.2732,1,DESCENDING,-0.0000,1.35075,0.48122,-2.12373,0.07179,1.57080,-3.01912,-0.09677,-0.44240,0.37698,,
6.2823,1,DESCENDING,-0.0000,1.35075,0.48122,-2.12376,0.07183,1.57080,-3.01912,-0.09677,-0.44240,0.37696,,
6.2987,1,DESCENDING,-0.0000,1.35075,0.48121,-2.12381,0.07188,1.57080,-3.01912,-0.09677,-0.44240,0.37693,,
6.3041,1,DESCENDING,-0.0000,1.35075,0.48121,-2.12384,0.07191,1.57080,-3.01912,-0.09677,-0.44240,0.37691,,
6.3145,1,DESCENDING,-0.0000,1.35075,0.48121,-2.12387,0.07194,1.57080,-3.01912,-0.09677,-0.44240,0.37689,,
6.3239,1,DESCENDING,-0.0000,1.35075,0.48121,-2.12390,0.07198,1.57080,-3.01912,-0.09677,-0.44240,0.37687,,
6.3336,1,DESCENDING,-0.0000,1.35075,0.48120,-2.12399,0.07208,1.57080,-3.01912,-0.09677,-0.44240,0.37682,,
6.3422,1,DESCENDING,-0.0000,1.35075,0.48120,-2.12402,0.07211,1.57080,-3.01912,-0.09677,-0.44240,0.37680,,
6.3662,1,DESCENDING,-0.0000,1.35075,0.48119,-2.12412,0.07222,1.57080,-3.01912,-0.09677,-0.44240,0.37674,,
6.3666,1,DESCENDING,-0.0000,1.35075,0.48119,-2.12412,0.07222,1.57080,-3.01912,-0.09677,-0.44240,0.37674,,
6.3748,1,DESCENDING,-0.0000,1.35075,0.48119,-2.12413,0.07223,1.57080,-3.01912,-0.09677,-0.44240,0.37674,,
6.4010,1,DESCENDING,-0.0000,1.35075,0.48117,-2.12429,0.07240,1.57080,-3.01912,-0.09677,-0.44240,0.37665,,
6.4018,1,DESCENDING,-0.0000,1.35075,0.48117,-2.12429,0.07240,1.57080,-3.01912,-0.09677,-0.44240,0.37665,,
6.4123,1,DESCENDING,-0.0000,1.35075,0.48117,-2.12430,0.07241,1.57080,-3.01912,-0.09677,-0.44240,0.37664,,
6.4280,1,DESCENDING,-0.0000,1.35075,0.48117,-2.12439,0.07251,1.57080,-3.01912,-0.09677,-0.44240,0.37659,,
6.4359,1,DESCENDING,-0.0000,1.35075,0.48117,-2.12439,0.07251,1.57080,-3.01912,-0.09677,-0.44240,0.37658,,
6.4535,1,DESCENDING,-0.0000,1.35075,0.48116,-2.12452,0.07265,1.57080,-3.01912,-0.09677,-0.44240,0.37651,,
6.4769,1,DESCENDING,-0.0000,1.35075,0.48115,-2.12462,0.07276,1.57080,-3.01912,-0.09677,-0.44240,0.37645,,
6.4776,1,DESCENDING,-0.0000,1.35075,0.48115,-2.12462,0.07276,1.57080,-3.01912,-0.09677,-0.44240,0.37645,,
6.4816,1,DESCENDING,-0.0000,1.35075,0.48114,-2.12465,0.07279,1.57080,-3.01912,-0.09677,-0.44240,0.37643,,
6.4927,1,DESCENDING,-0.0000,1.35075,0.48114,-2.12469,0.07283,1.57080,-3.01912,-0.09677,-0.44240,0.37641,,
6.5141,1,DESCENDING,-0.0000,1.35075,0.48113,-2.12481,0.07296,1.57080,-3.01912,-0.09677,-0.44240,0.37634,,
6.5147,1,DESCENDING,-0.0000,1.35075,0.48113,-2.12481,0.07296,1.57080,-3.01912,-0.09677,-0.44240,0.37634,,
6.5223,1,DESCENDING,-0.0000,1.35075,0.48113,-2.12484,0.07299,1.57080,-3.01912,-0.09677,-0.44240,0.37632,,
6.5930,1,DESCENDING,-0.0000,1.35075,0.48110,-2.12517,0.07335,1.57080,-3.01912,-0.09677,-0.44240,0.37613,,
6.5972,1,DESCENDING,-0.0000,1.35075,0.48110,-2.12519,0.07338,1.57080,-3.01912,-0.09677,-0.44240,0.37611,,
6.6178,1,DESCENDING,-0.0000,1.35075,0.48109,-2.12527,0.07347,1.57080,-3.01912,-0.09677,-0.44240,0.37606,,
6.6181,1,DESCENDING,-0.0000,1.35075,0.48109,-2.12527,0.07347,1.57080,-3.01912,-0.09677,-0.44240,0.37606,,
6.6362,1,DESCENDING,-0.0000,1.35075,0.48108,-2.12538,0.07358,1.57080,-3.01912,-0.09677,-0.44240,0.37600,,
6.6441,1,DESCENDING,-0.0000,1.35075,0.48108,-2.12541,0.07362,1.57080,-3.01912,-0.09677,-0.44240,0.37598,,
6.6448,1,DESCENDING,-0.0000,1.35075,0.48108,-2.12542,0.07362,1.57080,-3.01912,-0.09677,-0.44240,0.37598,,
6.6451,1,DESCENDING,-0.0000,1.35075,0.48108,-2.12542,0.07362,1.57080,-3.01912,-0.09677,-0.44240,0.37598,,
6.6455,1,DESCENDING,-0.0000,1.35075,0.48108,-2.12542,0.07362,1.57080,-3.01912,-0.09677,-0.44240,0.37598,,
6.6741,1,DESCENDING,-0.0000,1.35075,0.48107,-2.12555,0.07376,1.57080,-3.01912,-0.09677,-0.44240,0.37590,,
6.6754,1,DESCENDING,-0.0000,1.35075,0.48107,-2.12555,0.07376,1.57080,-3.01912,-0.09677,-0.44240,0.37590,,
6.6829,1,DESCENDING,-0.0000,1.35075,0.48107,-2.12558,0.07380,1.57080,-3.01912,-0.09677,-0.44240,0.37588,,
6.6951,1,DESCENDING,-0.0000,1.35075,0.48106,-2.12567,0.07389,1.57080,-3.01912,-0.09677,-0.44240,0.37583,,
6.7152,1,DESCENDING,-0.0000,1.35075,0.48105,-2.12574,0.07397,1.57080,-3.01912,-0.09677,-0.44240,0.37579,,
6.7156,1,DESCENDING,-0.0000,1.35075,0.48105,-2.12574,0.07397,1.57080,-3.01912,-0.09677,-0.44240,0.37579,,
6.7244,1,DESCENDING,-0.0000,1.35075,0.48105,-2.12580,0.07403,1.57080,-3.01912,-0.09677,-0.44240,0.37575,,
6.7337,1,DESCENDING,-0.0000,1.35075,0.48104,-2.12586,0.07410,1.57080,-3.01912,-0.09677,-0.44240,0.37572,,
6.7438,1,DESCENDING,-0.0000,1.35075,0.48104,-2.12587,0.07411,1.57080,-3.01912,-0.09677,-0.44240,0.37571,,
6.7539,1,DESCENDING,-0.0000,1.35075,0.48104,-2.12594,0.07418,1.57080,-3.01912,-0.09677,-0.44240,0.37567,,
6.7772,1,DESCENDING,-0.0000,1.35075,0.48103,-2.12603,0.07429,1.57080,-3.01912,-0.09677,-0.44240,0.37562,,
6.7830,1,DESCENDING,-0.0000,1.35075,0.48103,-2.12606,0.07432,1.57080,-3.01912,-0.09677,-0.44240,0.37560,,
6.7956,1,DESCENDING,-0.0000,1.35075,0.48102,-2.12612,0.07439,1.57080,-3.01912,-0.09677,-0.44240,0.37556,,
6.8180,1,DESCENDING,-0.0000,1.35075,0.48101,-2.12622,0.07449,1.57080,-3.01912,-0.09677,-0.44240,0.37550,,
6.8184,1,DESCENDING,-0.0000,1.35075,0.48101,-2.12622,0.07449,1.57080,-3.01912,-0.09677,-0.44240,0.37550,,
6.8266,1,DESCENDING,-0.0000,1.35075,0.48101,-2.12623,0.07450,1.57080,-3.01912,-0.09677,-0.44240,0.37550,,
6.8375,1,DESCENDING,-0.0000,1.35075,0.48101,-2.12629,0.07457,1.57080,-3.01912,-0.09677,-0.44240,0.37546,,
6.8461,1,DESCENDING,-0.0000,1.35075,0.48100,-2.12636,0.07464,1.57080,-3.01912,-0.09677,-0.44240,0.37542,,
6.8539,1,DESCENDING,-0.0000,1.35075,0.48100,-2.12639,0.07467,1.57080,-3.01912,-0.09677,-0.44240,0.37541,,
6.8639,1,DESCENDING,-0.0000,1.35075,0.48100,-2.12640,0.07469,1.57080,-3.01912,-0.09677,-0.44240,0.37540,,
6.8778,1,DESCENDING,-0.0000,1.35075,0.48099,-2.12649,0.07478,1.57080,-3.01912,-0.09677,-0.44240,0.37535,,
6.8848,1,DESCENDING,-0.0000,1.35075,0.48099,-2.12649,0.07479,1.57080,-3.01912,-0.09677,-0.44240,0.37534,,
6.8969,1,DESCENDING,-0.0000,1.35075,0.48098,-2.12656,0.07486,1.57080,-3.01912,-0.09677,-0.44240,0.37531,,
6.9098,1,DESCENDING,-0.0000,1.35075,0.48098,-2.12665,0.07496,1.57080,-3.01912,-0.09677,-0.44240,0.37525,,
6.9137,1,DESCENDING,-0.0000,1.35075,0.48098,-2.12665,0.07496,1.57080,-3.01912,-0.09677,-0.44240,0.37525,,
6.9227,1,DESCENDING,-0.0000,1.35075,0.48097,-2.12666,0.07497,1.57080,-3.01912,-0.09677,-0.44240,0.37524,,
6.9333,1,DESCENDING,-0.0000,1.35075,0.48097,-2.12673,0.07504,1.57080,-3.01912,-0.09677,-0.44240,0.37521,,
6.9415,1,DESCENDING,-0.0000,1.35075,0.48097,-2.12675,0.07507,1.57080,-3.01912,-0.09677,-0.44240,0.37519,,
6.9557,1,DESCENDING,-0.0000,1.35075,0.48096,-2.12679,0.07511,1.57080,-3.01912,-0.09677,-0.44240,0.37517,,
6.9651,1,DESCENDING,-0.0000,1.35075,0.48096,-2.12688,0.07521,1.57080,-3.01912,-0.09677,-0.44240,0.37511,,
6.9749,1,DESCENDING,-0.0000,1.35075,0.48095,-2.12691,0.07524,1.57080,-3.01912,-0.09677,-0.44240,0.37510,,
6.9835,1,DESCENDING,-0.0000,1.35075,0.48095,-2.12693,0.07526,1.57080,-3.01912,-0.09677,-0.44240,0.37509,,
6.9988,1,DESCENDING,-0.0000,1.35075,0.48094,-2.12701,0.07535,1.57080,-3.01912,-0.09677,-0.44240,0.37504,,
7.0070,1,DESCENDING,-0.0000,1.35075,0.48094,-2.12702,0.07536,1.57080,-3.01912,-0.09677,-0.44240,0.37503,,
7.0788,1,DESCENDING,-0.0000,1.35075,0.48092,-2.12735,0.07571,1.57080,-3.01912,-0.09677,-0.44240,0.37484,,
7.0792,1,DESCENDING,-0.0000,1.35075,0.48092,-2.12735,0.07571,1.57080,-3.01912,-0.09677,-0.44240,0.37484,,
7.0843,1,DESCENDING,-0.0000,1.35075,0.48091,-2.12738,0.07575,1.57080,-3.01912,-0.09677,-0.44240,0.37482,,
7.0850,1,DESCENDING,-0.0000,1.35075,0.48091,-2.12741,0.07578,1.57080,-3.01912,-0.09677,-0.44240,0.37480,,
7.0871,1,DESCENDING,-0.0000,1.35075,0.48091,-2.12741,0.07578,1.57080,-3.01912,-0.09677,-0.44240,0.37480,,
7.0877,1,DESCENDING,-0.0000,1.35075,0.48091,-2.12741,0.07578,1.57080,-3.01912,-0.09677,-0.44240,0.37480,,
7.0889,1,DESCENDING,-0.0000,1.35075,0.48091,-2.12744,0.07582,1.57080,-3.01912,-0.09677,-0.44240,0.37478,,
7.0927,1,DESCENDING,-0.0000,1.35075,0.48091,-2.12744,0.07582,1.57080,-3.01912,-0.09677,-0.44240,0.37478,,
7.1043,1,DESCENDING,-0.0000,1.35075,0.48091,-2.12745,0.07583,1.57080,-3.01912,-0.09677,-0.44240,0.37478,,
7.1153,1,DESCENDING,-0.0000,1.35075,0.48090,-2.12751,0.07590,1.57080,-3.01912,-0.09677,-0.44240,0.37474,,
7.1229,1,DESCENDING,-0.0000,1.35075,0.48090,-2.12754,0.07592,1.57080,-3.01912,-0.09677,-0.44240,0.37472,,
7.1331,1,DESCENDING,-0.0000,1.35075,0.48090,-2.12758,0.07597,1.57080,-3.01912,-0.09677,-0.44240,0.37470,,
7.1457,1,DESCENDING,-0.0000,1.35075,0.48089,-2.12767,0.07607,1.57080,-3.01912,-0.09677,-0.44240,0.37465,,
7.1522,1,DESCENDING,-0.0000,1.35075,0.48088,-2.12770,0.07610,1.57080,-3.01912,-0.09677,-0.44240,0.37463,,
7.1644,1,DESCENDING,-0.0000,1.35075,0.48088,-2.12772,0.07612,1.57080,-3.01912,-0.09677,-0.44240,0.37462,,
7.1954,1,DESCENDING,-0.0000,1.35075,0.48087,-2.12788,0.07629,1.57080,-3.01912,-0.09677,-0.44240,0.37453,,
7.2169,1,DESCENDING,-0.0000,1.35075,0.48086,-2.12797,0.07639,1.57080,-3.01912,-0.09677,-0.44240,0.37447,,
7.2436,1,DESCENDING,-0.0000,1.35075,0.48085,-2.12813,0.07656,1.57080,-3.01912,-0.09677,-0.44240,0.37438,,
7.2567,1,DESCENDING,-0.0000,1.35075,0.48085,-2.12816,0.07659,1.57080,-3.01912,-0.09677,-0.44240,0.37436,,
7.2982,1,DESCENDING,-0.0000,1.35075,0.48083,-2.12836,0.07681,1.57080,-3.01912,-0.09677,-0.44240,0.37424,,
7.3096,1,DESCENDING,-0.0000,1.35075,0.48082,-2.12839,0.07685,1.57080,-3.01912,-0.09677,-0.44240,0.37422,,
7.3099,1,DESCENDING,-0.0000,1.35075,0.48082,-2.12839,0.07685,1.57080,-3.01912,-0.09677,-0.44240,0.37422,,
7.3135,1,DESCENDING,-0.0000,1.35075,0.48082,-2.12840,0.07686,1.57080,-3.01912,-0.09677,-0.44240,0.37421,,
7.3612,1,DESCENDING,-0.0000,1.35075,0.48080,-2.12865,0.07713,1.57080,-3.01912,-0.09677,-0.44240,0.37407,,
7.3892,1,DESCENDING,-0.0000,1.35075,0.48079,-2.12875,0.07724,1.57080,-3.01912,-0.09677,-0.44240,0.37401,,
7.4047,1,DESCENDING,-0.0000,1.35075,0.48079,-2.12880,0.07729,1.57080,-3.01912,-0.09677,-0.44240,0.37398,,
7.4218,1,DESCENDING,-0.0000,1.35075,0.48078,-2.12892,0.07742,1.57080,-3.01912,-0.09677,-0.44240,0.37391,,
7.4222,1,DESCENDING,-0.0000,1.35075,0.48078,-2.12892,0.07742,1.57080,-3.01912,-0.09677,-0.44240,0.37391,,
7.5591,1,DESCENDING,-0.0000,1.35075,0.48073,-2.12947,0.07802,1.57080,-3.01912,-0.09677,-0.44240,0.37358,,
7.5739,1,DESCENDING,-0.0000,1.35075,0.48072,-2.12954,0.07810,1.57080,-3.01912,-0.09677,-0.44240,0.37354,,
7.5989,1,DESCENDING,-0.0000,1.35075,0.48071,-2.12967,0.07825,1.57080,-3.01912,-0.09677,-0.44240,0.37346,,
7.5994,1,DESCENDING,-0.0000,1.35075,0.48071,-2.12967,0.07825,1.57080,-3.01912,-0.09677,-0.44240,0.37346,,
7.6195,1,DESCENDING,-0.0000,1.35075,0.48070,-2.12975,0.07832,1.57080,-3.01912,-0.09677,-0.44240,0.37342,,
7.6200,1,DESCENDING,-0.0000,1.35075,0.48070,-2.12975,0.07832,1.57080,-3.01912,-0.09677,-0.44240,0.37342,,
7.6420,1,DESCENDING,-0.0000,1.35075,0.48069,-2.12985,0.07844,1.57080,-3.01912,-0.09677,-0.44240,0.37336,,
7.6604,1,DESCENDING,-0.0000,1.35075,0.48068,-2.12996,0.07856,1.57080,-3.01912,-0.09677,-0.44240,0.37329,,
7.6609,1,DESCENDING,-0.0000,1.35075,0.48068,-2.12996,0.07856,1.57080,-3.01912,-0.09677,-0.44240,0.37329,,
7.6887,1,DESCENDING,-0.0000,1.35075,0.48067,-2.13012,0.07873,1.57080,-3.01912,-0.09677,-0.44240,0.37320,,
7.7015,1,DESCENDING,-0.0000,1.35075,0.48067,-2.13015,0.07877,1.57080,-3.01912,-0.09677,-0.44240,0.37318,,
7.7019,1,DESCENDING,-0.0000,1.35075,0.48067,-2.13015,0.07877,1.57080,-3.01912,-0.09677,-0.44240,0.37318,,
7.7214,1,DESCENDING,-0.0000,1.35075,0.48066,-2.13025,0.07887,1.57080,-3.01912,-0.09677,-0.44240,0.37312,,
7.7392,1,DESCENDING,-0.0000,1.35075,0.48065,-2.13029,0.07892,1.57080,-3.01912,-0.09677,-0.44240,0.37310,,
7.7462,1,DESCENDING,-0.0000,1.35075,0.48065,-2.13035,0.07898,1.57080,-3.01912,-0.09677,-0.44240,0.37306,,
7.7510,1,DESCENDING,-0.0000,1.35075,0.48065,-2.13038,0.07902,1.57080,-3.01912,-0.09677,-0.44240,0.37304,,
7.7619,1,DESCENDING,-0.0000,1.35075,0.48064,-2.13042,0.07905,1.57080,-3.01912,-0.09677,-0.44240,0.37302,,
7.7666,1,DESCENDING,-0.0000,1.35075,0.48064,-2.13043,0.07907,1.57080,-3.01912,-0.09677,-0.44240,0.37302,,
7.7866,1,DESCENDING,-0.0000,1.35075,0.48063,-2.13051,0.07916,1.57080,-3.01912,-0.09677,-0.44240,0.37297,,
7.7929,1,DESCENDING,-0.0000,1.35075,0.48063,-2.13053,0.07918,1.57080,-3.01912,-0.09677,-0.44240,0.37295,,
7.8348,1,DESCENDING,-0.0000,1.35075,0.48062,-2.13073,0.07939,1.57080,-3.01912,-0.09677,-0.44240,0.37284,,
7.8634,1,DESCENDING,-0.0000,1.35075,0.48060,-2.13085,0.07952,1.57080,-3.01912,-0.09677,-0.44240,0.37277,,
7.8737,1,DESCENDING,-0.0000,1.35075,0.48060,-2.13094,0.07962,1.57080,-3.01912,-0.09677,-0.44240,0.37271,,
7.8866,1,DESCENDING,-0.0000,1.35075,0.48059,-2.13095,0.07964,1.57080,-3.01912,-0.09677,-0.44240,0.37271,,
7.9014,1,DESCENDING,-0.0000,1.35075,0.48059,-2.13104,0.07973,1.57080,-3.01911,-0.09677,-0.44240,0.37265,,
7.9066,1,DESCENDING,-0.0000,1.35075,0.48059,-2.13104,0.07973,1.57080,-3.01911,-0.09677,-0.44240,0.37265,,
7.9708,1,DESCENDING,-0.0000,1.35075,0.48056,-2.13131,0.08003,1.57080,-3.01911,-0.09677,-0.44240,0.37250,,
7.9922,1,DESCENDING,-0.0000,1.35075,0.48055,-2.13143,0.08016,1.57080,-3.01911,-0.09677,-0.44240,0.37242,,
8.0093,1,DESCENDING,-0.0000,1.35075,0.48054,-2.13149,0.08023,1.57080,-3.01911,-0.09677,-0.44240,0.37239,,
8.0154,1,DESCENDING,-0.0000,1.35075,0.48054,-2.13151,0.08025,1.57080,-3.01911,-0.09677,-0.44240,0.37237,,
8.0210,1,DESCENDING,-0.0000,1.35075,0.48054,-2.13156,0.08031,1.57080,-3.01911,-0.09677,-0.44240,0.37234,,
8.0264,1,DESCENDING,-0.0000,1.35075,0.48054,-2.13156,0.08031,1.57080,-3.01911,-0.09677,-0.44240,0.37234,,
8.0364,1,DESCENDING,-0.0000,1.35075,0.48054,-2.13158,0.08033,1.57080,-3.01911,-0.09677,-0.44240,0.37233,,
8.0655,1,DESCENDING,-0.0000,1.35075,0.48052,-2.13174,0.08050,1.57080,-3.01911,-0.09677,-0.44240,0.37224,,
8.0697,1,DESCENDING,-0.0000,1.35075,0.48052,-2.13176,0.08052,1.57080,-3.01911,-0.09677,-0.44240,0.37223,,
8.0701,1,DESCENDING,-0.0000,1.35075,0.48052,-2.13176,0.08052,1.57080,-3.01911,-0.09677,-0.44240,0.37223,,
8.0849,1,DESCENDING,-0.0000,1.35075,0.48051,-2.13183,0.08059,1.57080,-3.01911,-0.09677,-0.44240,0.37219,,
8.0910,1,DESCENDING,-0.0000,1.35075,0.48051,-2.13183,0.08060,1.57080,-3.01911,-0.09677,-0.44240,0.37218,,
8.0971,1,DESCENDING,-0.0000,1.35075,0.48051,-2.13187,0.08064,1.57080,-3.01911,-0.09677,-0.44240,0.37216,,
8.1093,1,DESCENDING,-0.0000,1.35075,0.48050,-2.13196,0.08074,1.57080,-3.01911,-0.09677,-0.44240,0.37211,,
8.1143,1,DESCENDING,-0.0000,1.35075,0.48050,-2.13199,0.08077,1.57080,-3.01911,-0.09677,-0.44240,0.37209,,
8.1192,1,DESCENDING,-0.0000,1.35075,0.48050,-2.13199,0.08077,1.57080,-3.01911,-0.09677,-0.44240,0.37209,,
8.1480,1,DESCENDING,-0.0000,1.35075,0.48049,-2.13209,0.08088,1.57080,-3.01911,-0.09677,-0.44240,0.37203,,
8.2288,1,DESCENDING,-0.0000,1.35075,0.48045,-2.13251,0.08134,1.57080,-3.01911,-0.09677,-0.44240,0.37178,,
8.2300,1,DESCENDING,-0.0000,1.35075,0.48045,-2.13251,0.08134,1.57080,-3.01911,-0.09677,-0.44240,0.37178,,
8.2511,1,DESCENDING,-0.0000,1.35075,0.48044,-2.13258,0.08142,1.57080,-3.01911,-0.09677,-0.44240,0.37174,,
8.2571,1,DESCENDING,-0.0000,1.35075,0.48044,-2.13263,0.08148,1.57080,-3.01911,-0.09677,-0.44240,0.37171,,
8.2794,1,DESCENDING,-0.0000,1.35075,0.48043,-2.13271,0.08156,1.57080,-3.01911,-0.09677,-0.44240,0.37167,,
8.2827,1,DESCENDING,-0.0000,1.35075,0.48043,-2.13273,0.08159,1.57080,-3.01911,-0.09677,-0.44240,0.37165,,
8.2959,1,DESCENDING,-0.0000,1.35075,0.48042,-2.13282,0.08168,1.57080,-3.01911,-0.09677,-0.44240,0.37160,,
8.3036,1,DESCENDING,-0.0000,1.35075,0.48042,-2.13283,0.08169,1.57080,-3.01911,-0.09677,-0.44240,0.37159,,
8.3158,1,DESCENDING,-0.0000,1.35075,0.48041,-2.13289,0.08176,1.57080,-3.01911,-0.09677,-0.44240,0.37156,,
8.3243,1,DESCENDING,-0.0000,1.35075,0.48041,-2.13295,0.08182,1.57080,-3.01911,-0.09677,-0.44240,0.37152,,
8.3330,1,DESCENDING,-0.0000,1.35075,0.48041,-2.13298,0.08186,1.57080,-3.01911,-0.09677,-0.44240,0.37150,,
8.3559,1,DESCENDING,-0.0000,1.35075,0.48040,-2.13308,0.08197,1.57080,-3.01911,-0.09677,-0.44240,0.37144,,
8.3574,1,DESCENDING,-0.0000,1.35075,0.48040,-2.13308,0.08197,1.57080,-3.01911,-0.09677,-0.44240,0.37144,,
8.3633,1,DESCENDING,-0.0000,1.35075,0.48040,-2.13309,0.08197,1.57080,-3.01911,-0.09677,-0.44240,0.37144,,
8.3732,1,DESCENDING,-0.0000,1.35075,0.48039,-2.13315,0.08204,1.57080,-3.01911,-0.09677,-0.44240,0.37140,,
8.3865,1,DESCENDING,-0.0000,1.35075,0.48038,-2.13324,0.08214,1.57080,-3.01911,-0.09677,-0.44240,0.37135,,
8.3978,1,DESCENDING,-0.0000,1.35075,0.48038,-2.13326,0.08216,1.57080,-3.01911,-0.09677,-0.44240,0.37134,,
8.4036,1,DESCENDING,-0.0000,1.35075,0.48038,-2.13327,0.08218,1.57080,-3.01911,-0.09677,-0.44240,0.37133,,
8.4177,1,DESCENDING,-0.0000,1.35075,0.48037,-2.13334,0.08225,1.57080,-3.01911,-0.09677,-0.44240,0.37129,,
8.4230,1,DESCENDING,-0.0000,1.35075,0.48037,-2.13335,0.08226,1.57080,-3.01911,-0.09677,-0.44240,0.37128,,
8.4322,1,DESCENDING,-0.0000,1.35075,0.48037,-2.13339,0.08230,1.57080,-3.01911,-0.09677,-0.44240,0.37126,,
8.5290,1,DESCENDING,-0.0000,1.35075,0.48032,-2.13384,0.08280,1.57080,-3.01911,-0.09677,-0.44240,0.37099,,
8.5344,1,DESCENDING,-0.0000,1.35075,0.48032,-2.13387,0.08283,1.57080,-3.01911,-0.09677,-0.44240,0.37098,,
8.5349,1,DESCENDING,-0.0000,1.35075,0.48032,-2.13387,0.08283,1.57080,-3.01911,-0.09677,-0.44240,0.37098,,
8.5386,1,DESCENDING,-0.0000,1.35075,0.48032,-2.13387,0.08283,1.57080,-3.01911,-0.09677,-0.44240,0.37098,,
8.5392,1,DESCENDING,-0.0000,1.35075,0.48032,-2.13387,0.08283,1.57080,-3.01911,-0.09677,-0.44240,0.37098,,
8.5596,1,DESCENDING,-0.0000,1.35075,0.48031,-2.13397,0.08294,1.57080,-3.01911,-0.09677,-0.44240,0.37092,,
8.5624,1,DESCENDING,-0.0000,1.35075,0.48031,-2.13400,0.08297,1.57080,-3.01911,-0.09677,-0.44240,0.37090,,
8.5646,1,DESCENDING,-0.0000,1.35075,0.48031,-2.13403,0.08301,1.57080,-3.01911,-0.09677,-0.44240,0.37088,,
8.5649,1,DESCENDING,-0.0000,1.35075,0.48031,-2.13403,0.08301,1.57080,-3.01911,-0.09677,-0.44240,0.37088,,
8.5768,1,DESCENDING,-0.0000,1.35075,0.48030,-2.13405,0.08302,1.57080,-3.01911,-0.09677,-0.44240,0.37087,,
8.5864,1,DESCENDING,-0.0000,1.35075,0.48030,-2.13408,0.08306,1.57080,-3.01911,-0.09677,-0.44240,0.37085,,
8.6057,1,DESCENDING,-0.0000,1.35075,0.48029,-2.13415,0.08314,1.57080,-3.01911,-0.09677,-0.44240,0.37081,,
8.6084,1,DESCENDING,-0.0000,1.35075,0.48029,-2.13415,0.08314,1.57080,-3.01911,-0.09677,-0.44240,0.37081,,
8.6139,1,DESCENDING,-0.0000,1.35075,0.48029,-2.13420,0.08319,1.57080,-3.01911,-0.09677,-0.44240,0.37078,,
8.6220,1,DESCENDING,-0.0000,1.35075,0.48028,-2.13426,0.08326,1.57080,-3.01911,-0.09677,-0.44240,0.37074,,
8.6318,1,DESCENDING,-0.0000,1.35075,0.48028,-2.13429,0.08329,1.57080,-3.01911,-0.09677,-0.44240,0.37072,,
8.6437,1,DESCENDING,-0.0000,1.35075,0.48028,-2.13432,0.08333,1.57080,-3.01911,-0.09677,-0.44240,0.37071,,
8.6537,1,DESCENDING,-0.0000,1.35075,0.48027,-2.13439,0.08340,1.57080,-3.01911,-0.09677,-0.44240,0.37067,,
8.6655,1,DESCENDING,-0.0000,1.35075,0.48027,-2.13441,0.08343,1.57080,-3.01911,-0.09677,-0.44240,0.37065,,
8.6731,1,DESCENDING,-0.0000,1.35075,0.48026,-2.13446,0.08348,1.57080,-3.01911,-0.09677,-0.44240,0.37062,,
8.6838,1,DESCENDING,-0.0000,1.35075,0.48026,-2.13453,0.08355,1.57080,-3.01911,-0.09677,-0.44240,0.37059,,
8.6920,1,DESCENDING,-0.0000,1.35075,0.48026,-2.13456,0.08358,1.57080,-3.01911,-0.09677,-0.44240,0.37057,,
8.7109,1,DESCENDING,-0.0000,1.35075,0.48025,-2.13463,0.08366,1.57080,-3.01911,-0.09677,-0.44240,0.37053,,
8.7135,1,DESCENDING,-0.0000,1.35075,0.48025,-2.13466,0.08369,1.57080,-3.01911,-0.09677,-0.44240,0.37051,,
8.7239,1,DESCENDING,-0.0000,1.35075,0.48025,-2.13466,0.08370,1.57080,-3.01911,-0.09677,-0.44240,0.37051,,
8.7355,1,DESCENDING,-0.0000,1.35075,0.48024,-2.13473,0.08377,1.57080,-3.01911,-0.09677,-0.44240,0.37047,,
8.7418,1,DESCENDING,-0.0000,1.35075,0.48023,-2.13479,0.08384,1.57080,-3.01911,-0.09677,-0.44240,0.37043,,
8.7553,1,DESCENDING,-0.0000,1.35075,0.48023,-2.13482,0.08387,1.57080,-3.01911,-0.09677,-0.44240,0.37041,,
8.7624,1,DESCENDING,-0.0000,1.35075,0.48023,-2.13485,0.08390,1.57080,-3.01911,-0.09677,-0.44240,0.37040,,
8.7820,1,DESCENDING,-0.0000,1.35075,0.48022,-2.13492,0.08398,1.57080,-3.01911,-0.09677,-0.44240,0.37035,,
8.7863,1,DESCENDING,-0.0000,1.35075,0.48022,-2.13494,0.08400,1.57080,-3.01911,-0.09677,-0.44240,0.37034,,
8.7920,1,DESCENDING,-0.0000,1.35075,0.48022,-2.13496,0.08402,1.57080,-3.01911,-0.09677,-0.44240,0.37033,,
8.8246,1,DESCENDING,-0.0000,1.35075,0.48020,-2.13511,0.08419,1.57080,-3.01911,-0.09677,-0.44240,0.37024,,
8.8252,1,DESCENDING,-0.0000,1.35075,0.48020,-2.13511,0.08419,1.57080,-3.01911,-0.09677,-0.44240,0.37024,,
8.8255,1,DESCENDING,-0.0000,1.35075,0.48020,-2.13511,0.08419,1.57080,-3.01911,-0.09677,-0.44240,0.37024,,
8.8327,1,DESCENDING,-0.0000,1.35075,0.48020,-2.13515,0.08424,1.57080,-3.01911,-0.09677,-0.44240,0.37021,,
8.8424,1,DESCENDING,-0.0000,1.35075,0.48019,-2.13518,0.08427,1.57080,-3.01911,-0.09677,-0.44240,0.37020,,
8.8600,1,DESCENDING,-0.0000,1.35075,0.48019,-2.13528,0.08438,1.57080,-3.01911,-0.09677,-0.44240,0.37014,,
8.8635,1,DESCENDING,-0.0000,1.35075,0.48018,-2.13531,0.08441,1.57080,-3.01911,-0.09677,-0.44240,0.37012,,
8.8726,1,DESCENDING,-0.0000,1.35075,0.48018,-2.13534,0.08444,1.57080,-3.01911,-0.09677,-0.44240,0.37010,,
8.8843,1,DESCENDING,-0.0000,1.35075,0.48018,-2.13537,0.08448,1.57080,-3.01911,-0.09677,-0.44240,0.37008,,
8.8926,1,DESCENDING,-0.0000,1.35075,0.48017,-2.13542,0.08452,1.57080,-3.01911,-0.09677,-0.44240,0.37006,,
8.9053,1,DESCENDING,-0.0000,1.35075,0.48017,-2.13545,0.08456,1.57080,-3.01911,-0.09677,-0.44240,0.37004,,
8.9127,1,DESCENDING,-0.0000,1.35075,0.48017,-2.13548,0.08460,1.57080,-3.01911,-0.09677,-0.44240,0.37002,,
8.9294,1,DESCENDING,-0.0000,1.35075,0.48015,-2.13560,0.08473,1.57080,-3.01911,-0.09677,-0.44240,0.36995,,
8.9363,1,DESCENDING,-0.0000,1.35075,0.48015,-2.13561,0.08474,1.57080,-3.01911,-0.09677,-0.44240,0.36994,,
8.9444,1,DESCENDING,-0.0000,1.35075,0.48015,-2.13563,0.08476,1.57080,-3.01911,-0.09677,-0.44240,0.36993,,
8.9711,1,DESCENDING,-0.0000,1.35075,0.48014,-2.13575,0.08489,1.57080,-3.01911,-0.09677,-0.44240,0.36986,,
8.9744,1,DESCENDING,-0.0000,1.35075,0.48014,-2.13577,0.08492,1.57080,-3.01911,-0.09677,-0.44240,0.36985,,
8.9980,1,DESCENDING,-0.0000,1.35075,0.48013,-2.13588,0.08503,1.57080,-3.01911,-0.09677,-0.44240,0.36978,,
8.9984,1,DESCENDING,-0.0000,1.35075,0.48013,-2.13588,0.08503,1.57080,-3.01911,-0.09677,-0.44240,0.36978,,
9.0038,1,DESCENDING,-0.0000,1.35075,0.48013,-2.13590,0.08505,1.57080,-3.01911,-0.09677,-0.44240,0.36977,,
9.0139,1,DESCENDING,-0.0000,1.35075,0.48012,-2.13597,0.08513,1.57080,-3.01911,-0.09677,-0.44240,0.36973,,
9.0699,1,DESCENDING,-0.0000,1.35075,0.48010,-2.13620,0.08539,1.57080,-3.01911,-0.09677,-0.44240,0.36959,,
9.0740,1,DESCENDING,-0.0000,1.35075,0.48009,-2.13623,0.08542,1.57080,-3.01911,-0.09677,-0.44240,0.36958,,
9.0823,1,DESCENDING,-0.0000,1.35075,0.48009,-2.13623,0.08542,1.57080,-3.01911,-0.09677,-0.44240,0.36957,,
9.0917,1,DESCENDING,-0.0000,1.35075,0.48009,-2.13627,0.08546,1.57080,-3.01911,-0.09677,-0.44240,0.36955,,
9.1098,1,DESCENDING,-0.0000,1.35075,0.48008,-2.13639,0.08559,1.57080,-3.01911,-0.09677,-0.44240,0.36948,,
9.1169,1,DESCENDING,-0.0000,1.35075,0.48008,-2.13639,0.08560,1.57080,-3.01911,-0.09677,-0.44240,0.36948,,
9.1310,1,DESCENDING,-0.0000,1.35075,0.48007,-2.13646,0.08568,1.57080,-3.01911,-0.09677,-0.44240,0.36944,,
9.1315,1,DESCENDING,-0.0000,1.35075,0.48007,-2.13646,0.08568,1.57080,-3.01911,-0.09677,-0.44240,0.36944,,
9.1450,1,DESCENDING,-0.0000,1.35075,0.48007,-2.13649,0.08571,1.57080,-3.01911,-0.09677,-0.44240,0.36942,,
9.1515,1,DESCENDING,-0.0000,1.35075,0.48006,-2.13653,0.08575,1.57080,-3.01911,-0.09677,-0.44240,0.36940,,
9.1658,1,DESCENDING,-0.0000,1.35075,0.48005,-2.13665,0.08588,1.57080,-3.01911,-0.09677,-0.44240,0.36932,,
9.1722,1,DESCENDING,-0.0000,1.35075,0.48005,-2.13665,0.08588,1.57080,-3.01911,-0.09677,-0.44240,0.36932,,
9.1861,1,DESCENDING,-0.0000,1.35075,0.48005,-2.13670,0.08594,1.57080,-3.01911,-0.09677,-0.44240,0.36929,,
9.1946,1,DESCENDING,-0.0000,1.35075,0.48004,-2.13675,0.08599,1.57080,-3.01911,-0.09677,-0.44240,0.36927,,
9.2019,1,DESCENDING,-0.0000,1.35075,0.48004,-2.13676,0.08600,1.57080,-3.01911,-0.09677,-0.44240,0.36926,,
9.2116,1,DESCENDING,-0.0000,1.35075,0.48004,-2.13679,0.08604,1.57080,-3.01911,-0.09677,-0.44240,0.36924,,
9.2285,1,DESCENDING,-0.0000,1.35075,0.48002,-2.13691,0.08617,1.57080,-3.01911,-0.09677,-0.44240,0.36917,,
9.2327,1,DESCENDING,-0.0000,1.35075,0.48002,-2.13691,0.08617,1.57080,-3.01911,-0.09677,-0.44240,0.36917,,
9.2460,1,DESCENDING,-0.0000,1.35075,0.48002,-2.13698,0.08624,1.57080,-3.01911,-0.09677,-0.44240,0.36913,,
9.2531,1,DESCENDING,-0.0000,1.35075,0.48001,-2.13701,0.08628,1.57080,-3.01911,-0.09677,-0.44240,0.36911,,
9.2660,1,DESCENDING,-0.0000,1.35075,0.48001,-2.13706,0.08633,1.57080,-3.01911,-0.09677,-0.44240,0.36908,,
9.2759,1,DESCENDING,-0.0000,1.35075,0.48000,-2.13711,0.08638,1.57080,-3.01911,-0.09677,-0.44240,0.36905,,
9.2846,1,DESCENDING,-0.0000,1.35075,0.48000,-2.13717,0.08645,1.57080,-3.01911,-0.09677,-0.44240,0.36902,,
9.2943,1,DESCENDING,-0.0000,1.35075,0.48000,-2.13720,0.08649,1.57080,-3.01911,-0.09677,-0.44240,0.36900,,
9.3048,1,DESCENDING,-0.0000,1.35075,0.47999,-2.13724,0.08653,1.57080,-3.01911,-0.09677,-0.44240,0.36897,,
9.3145,1,DESCENDING,-0.0000,1.35075,0.47998,-2.13733,0.08662,1.57080,-3.01911,-0.09677,-0.44240,0.36892,,
9.3361,1,DESCENDING,-0.0000,1.35075,0.47998,-2.13739,0.08670,1.57080,-3.01911,-0.09677,-0.44240,0.36888,,
9.3366,1,DESCENDING,-0.0000,1.35075,0.47998,-2.13739,0.08670,1.57080,-3.01911,-0.09677,-0.44240,0.36888,,
9.3471,1,DESCENDING,-0.0000,1.35075,0.47997,-2.13748,0.08680,1.57080,-3.01911,-0.09677,-0.44240,0.36883,,
9.3518,1,DESCENDING,-0.0000,1.35075,0.47997,-2.13748,0.08680,1.57080,-3.01911,-0.09677,-0.44240,0.36883,,
9.3703,1,DESCENDING,-0.0000,1.35075,0.47996,-2.13758,0.08690,1.57080,-3.01911,-0.09677,-0.44240,0.36877,,
9.3755,1,DESCENDING,-0.0000,1.35075,0.47995,-2.13761,0.08694,1.57080,-3.01911,-0.09677,-0.44240,0.36875,,
9.3819,1,DESCENDING,-0.0000,1.35075,0.47995,-2.13762,0.08694,1.57080,-3.01911,-0.09677,-0.44240,0.36875,,
9.3954,1,DESCENDING,-0.0000,1.35075,0.47995,-2.13768,0.08701,1.57080,-3.01911,-0.09677,-0.44240,0.36871,,
9.4040,1,DESCENDING,-0.0000,1.35075,0.47994,-2.13774,0.08708,1.57080,-3.01911,-0.09677,-0.44240,0.36868,,
9.4142,1,DESCENDING,-0.0000,1.35075,0.47994,-2.13777,0.08712,1.57080,-3.01911,-0.09677,-0.44240,0.36866,,
9.4231,1,DESCENDING,-0.0000,1.35075,0.47993,-2.13781,0.08716,1.57080,-3.01911,-0.09677,-0.44240,0.36864,,
9.4337,1,DESCENDING,-0.0000,1.35075,0.47993,-2.13790,0.08725,1.57080,-3.01911,-0.09677,-0.44240,0.36858,,
9.4420,1,DESCENDING,-0.0000,1.35075,0.47992,-2.13793,0.08729,1.57080,-3.01911,-0.09677,-0.44240,0.36857,,
9.4517,1,DESCENDING,-0.0000,1.35075,0.47992,-2.13794,0.08730,1.57080,-3.01911,-0.09677,-0.44240,0.36856,,
9.4644,1,DESCENDING,-0.0000,1.35075,0.47992,-2.13800,0.08737,1.57080,-3.01911,-0.09677,-0.44240,0.36852,,
9.4740,1,DESCENDING,-0.0000,1.35075,0.47991,-2.13803,0.08740,1.57080,-3.01911,-0.09677,-0.44240,0.36850,,
9.4824,1,DESCENDING,-0.0000,1.35075,0.47991,-2.13807,0.08744,1.57080,-3.01911,-0.09677,-0.44240,0.36848,,
9.4916,1,DESCENDING,-0.0000,1.35075,0.47990,-2.13813,0.08751,1.57080,-3.01911,-0.09677,-0.44240,0.36845,,
9.5033,1,DESCENDING,-0.0000,1.35075,0.47990,-2.13819,0.08757,1.57080,-3.01911,-0.09677,-0.44240,0.36841,,
9.5122,1,DESCENDING,-0.0000,1.35075,0.47989,-2.13820,0.08759,1.57080,-3.01911,-0.09677,-0.44240,0.36840,,
9.5246,1,DESCENDING,-0.0000,1.35075,0.47989,-2.13826,0.08766,1.57080,-3.01911,-0.09677,-0.44240,0.36837,,
9.5417,1,DESCENDING,-0.0000,1.35075,0.47988,-2.13831,0.08771,1.57080,-3.01911,-0.09677,-0.44240,0.36834,,
9.5461,1,DESCENDING,-0.0000,1.35075,0.47988,-2.13836,0.08776,1.57080,-3.01911,-0.09677,-0.44240,0.36831,,
9.5526,1,DESCENDING,-0.0000,1.35075,0.47988,-2.13839,0.08779,1.57080,-3.01911,-0.09677,-0.44240,0.36829,,
9.5624,1,DESCENDING,-0.0000,1.35075,0.47987,-2.13845,0.08786,1.57080,-3.01911,-0.09677,-0.44240,0.36825,,
9.5750,1,DESCENDING,-0.0000,1.35075,0.47987,-2.13848,0.08790,1.57080,-3.01911,-0.09677,-0.44240,0.36824,,
9.5821,1,DESCENDING,-0.0000,1.35075,0.47986,-2.13852,0.08794,1.57080,-3.01911,-0.09677,-0.44240,0.36821,,
9.5925,1,DESCENDING,-0.0000,1.35075,0.47986,-2.13855,0.08797,1.57080,-3.01911,-0.09677,-0.44240,0.36820,,
9.6019,1,DESCENDING,-0.0000,1.35075,0.47985,-2.13859,0.08802,1.57080,-3.01911,-0.09677,-0.44240,0.36817,,
9.6122,1,DESCENDING,-0.0000,1.35075,0.47985,-2.13865,0.08808,1.57080,-3.01911,-0.09677,-0.44240,0.36814,,
9.6228,1,DESCENDING,-0.0000,1.35075,0.47984,-2.13871,0.08815,1.57080,-3.01911,-0.09677,-0.44240,0.36810,,
9.6372,1,DESCENDING,-0.0000,1.35075,0.47984,-2.13874,0.08818,1.57080,-3.01911,-0.09677,-0.44240,0.36808,,
9.6460,1,DESCENDING,-0.0000,1.35075,0.47983,-2.13881,0.08826,1.57080,-3.01911,-0.09677,-0.44240,0.36804,,
9.6515,1,DESCENDING,-0.0000,1.35075,0.47983,-2.13881,0.08826,1.57080,-3.01911,-0.09677,-0.44240,0.36804,,
9.6650,1,DESCENDING,-0.0000,1.35075,0.47983,-2.13885,0.08831,1.57080,-3.01911,-0.09677,-0.44240,0.36801,,
9.6779,1,DESCENDING,-0.0000,1.35075,0.47982,-2.13897,0.08844,1.57080,-3.01911,-0.09677,-0.44240,0.36794,,
9.6831,1,DESCENDING,-0.0000,1.35075,0.47982,-2.13897,0.08844,1.57080,-3.01911,-0.09677,-0.44240,0.36794,,
9.6961,1,DESCENDING,-0.0000,1.35075,0.47981,-2.13900,0.08847,1.57080,-3.01911,-0.09677,-0.44240,0.36793,,
9.7033,1,DESCENDING,-0.0000,1.35075,0.47981,-2.13905,0.08852,1.57080,-3.01911,-0.09677,-0.44240,0.36790,,
9.7116,1,DESCENDING,-0.0000,1.35075,0.47981,-2.13907,0.08855,1.57080,-3.01911,-0.09677,-0.44240,0.36788,,
9.7238,1,DESCENDING,-0.0000,1.35075,0.47980,-2.13912,0.08860,1.57080,-3.01911,-0.09677,-0.44240,0.36786,,
9.7347,1,DESCENDING,-0.0000,1.35075,0.47979,-2.13920,0.08869,1.57080,-3.01911,-0.09677,-0.44240,0.36781,,
9.7488,1,DESCENDING,-0.0000,1.35075,0.47979,-2.13924,0.08873,1.57080,-3.01911,-0.09677,-0.44240,0.36778,,
9.7555,1,DESCENDING,-0.0000,1.35075,0.47978,-2.13928,0.08877,1.57080,-3.01911,-0.09677,-0.44240,0.36776,,
9.7636,1,DESCENDING,-0.0000,1.35075,0.47978,-2.13933,0.08883,1.57080,-3.01911,-0.09677,-0.44240,0.36773,,
9.7866,1,DESCENDING,-0.0000,1.35075,0.47977,-2.13943,0.08894,1.57080,-3.01911,-0.09677,-0.44240,0.36767,,
9.7870,1,DESCENDING,-0.0000,1.35075,0.47977,-2.13943,0.08894,1.57080,-3.01911,-0.09677,-0.44240,0.36767,,
9.7929,1,DESCENDING,-0.0000,1.35075,0.47977,-2.13946,0.08897,1.57080,-3.01911,-0.09677,-0.44240,0.36765,,
9.8061,1,DESCENDING,-0.0000,1.35075,0.47976,-2.13952,0.08904,1.57080,-3.01911,-0.09677,-0.44240,0.36762,,
9.8138,1,DESCENDING,-0.0000,1.35075,0.47976,-2.13955,0.08907,1.57080,-3.01911,-0.09677,-0.44240,0.36760,,
9.8263,1,DESCENDING,-0.0000,1.35075,0.47975,-2.13962,0.08915,1.57080,-3.01911,-0.09677,-0.44240,0.36756,,
9.8345,1,DESCENDING,-0.0000,1.35075,0.47975,-2.13965,0.08918,1.57080,-3.01911,-0.09677,-0.44240,0.36754,,
9.8442,1,DESCENDING,-0.0000,1.35075,0.47974,-2.13966,0.08920,1.57080,-3.01911,-0.09677,-0.44240,0.36753,,
9.8541,1,DESCENDING,-0.0000,1.35075,0.47974,-2.13973,0.08927,1.57080,-3.01911,-0.09677,-0.44240,0.36749,,
9.8635,1,DESCENDING,-0.0000,1.35075,0.47974,-2.13975,0.08930,1.57080,-3.01911,-0.09677,-0.44240,0.36748,,
9.8739,1,DESCENDING,-0.0000,1.35075,0.47973,-2.13980,0.08935,1.57080,-3.01911,-0.09677,-0.44240,0.36745,,
9.8824,1,DESCENDING,-0.0000,1.35075,0.47972,-2.13985,0.08941,1.57080,-3.01911,-0.09677,-0.44240,0.36742,,
9.8942,1,DESCENDING,-0.0000,1.35075,0.47972,-2.13991,0.08948,1.57080,-3.01911,-0.09677,-0.44240,0.36738,,
9.9029,1,DESCENDING,-0.0000,1.35075,0.47972,-2.13993,0.08949,1.57080,-3.01911,-0.09677,-0.44240,0.36737,,
9.9121,1,DESCENDING,-0.0000,1.35075,0.47971,-2.13997,0.08953,1.57080,-3.01911,-0.09677,-0.44240,0.36735,,
9.9221,1,DESCENDING,-0.0000,1.35075,0.47971,-2.14001,0.08959,1.57080,-3.01911,-0.09677,-0.44240,0.36732,,
9.9333,1,DESCENDING,-0.0000,1.35075,0.47971,-2.14004,0.08961,1.57080,-3.01911,-0.09677,-0.44240,0.36731,,
9.9494,1,DESCENDING,-0.0000,1.35075,0.47969,-2.14015,0.08973,1.57080,-3.01911,-0.09677,-0.44240,0.36725,,
9.9533,1,DESCENDING,-0.0000,1.35075,0.47969,-2.14018,0.08977,1.57080,-3.01911,-0.09677,-0.44240,0.36723,,
9.9705,1,DESCENDING,-0.0000,1.35075,0.47969,-2.14023,0.08982,1.57080,-3.01911,-0.09677,-0.44240,0.36720,,
9.9853,1,DESCENDING,-0.0000,1.35075,0.47968,-2.14028,0.08988,1.57080,-3.01911,-0.09677,-0.44240,0.36717,,
9.9980,1,DESCENDING,-0.0000,1.35075,0.47967,-2.14035,0.08995,1.57080,-3.01911,-0.09677,-0.44240,0.36713,,
10.0134,1,DESCENDING,-0.0000,1.35075,0.47966,-2.14044,0.09005,1.57080,-3.01911,-0.09677,-0.44240,0.36707,,
10.0311,1,DESCENDING,-0.0000,1.35075,0.47966,-2.14049,0.09011,1.57080,-3.01911,-0.09677,-0.44240,0.36704,,
10.0362,1,DESCENDING,-0.0000,1.35075,0.47966,-2.14051,0.09014,1.57080,-3.01911,-0.09677,-0.44240,0.36703,,
10.0576,1,DESCENDING,-0.0000,1.35075,0.47965,-2.14058,0.09021,1.57080,-3.01911,-0.09677,-0.44240,0.36699,,
10.0636,1,DESCENDING,-0.0000,1.35075,0.47964,-2.14064,0.09028,1.57080,-3.01911,-0.09677,-0.44240,0.36695,,
10.0640,1,DESCENDING,-0.0000,1.35075,0.47964,-2.14064,0.09028,1.57080,-3.01911,-0.09677,-0.44240,0.36695,,
10.0722,1,DESCENDING,-0.0000,1.35075,0.47964,-2.14070,0.09034,1.57080,-3.01911,-0.09677,-0.44240,0.36692,,
10.0952,1,DESCENDING,-0.0000,1.35075,0.47963,-2.14077,0.09042,1.57080,-3.01911,-0.09677,-0.44240,0.36687,,
10.0956,1,DESCENDING,-0.0000,1.35075,0.47963,-2.14077,0.09042,1.57080,-3.01911,-0.09677,-0.44240,0.36687,,
10.1035,1,DESCENDING,-0.0000,1.35075,0.47963,-2.14080,0.09045,1.57080,-3.01911,-0.09677,-0.44240,0.36686,,
10.1132,1,DESCENDING,-0.0000,1.35075,0.47962,-2.14082,0.09048,1.57080,-3.01911,-0.09677,-0.44240,0.36684,,
10.1221,1,DESCENDING,-0.0000,1.35075,0.47962,-2.14087,0.09053,1.57080,-3.01911,-0.09677,-0.44240,0.36681,,
10.1347,1,DESCENDING,-0.0000,1.35075,0.47961,-2.14096,0.09063,1.57080,-3.01911,-0.09677,-0.44240,0.36676,,
10.1443,1,DESCENDING,-0.0000,1.35075,0.47961,-2.14097,0.09065,1.57080,-3.01911,-0.09677,-0.44240,0.36675,,
10.1557,1,DESCENDING,-0.0000,1.35075,0.47960,-2.14103,0.09071,1.57080,-3.01911,-0.09677,-0.44240,0.36672,,
10.1620,1,DESCENDING,-0.0000,1.35075,0.47960,-2.14106,0.09074,1.57080,-3.01911,-0.09677,-0.44240,0.36670,,
10.1733,1,DESCENDING,-0.0000,1.35075,0.47960,-2.14108,0.09076,1.57080,-3.01911,-0.09677,-0.44240,0.36669,,
10.1875,1,DESCENDING,-0.0000,1.35075,0.47958,-2.14119,0.09089,1.57080,-3.01911,-0.09677,-0.44240,0.36662,,
10.1953,1,DESCENDING,-0.0000,1.35075,0.47958,-2.14122,0.09092,1.57080,-3.01911,-0.09677,-0.44240,0.36660,,
10.2026,1,DESCENDING,-0.0000,1.35075,0.47958,-2.14124,0.09094,1.57080,-3.01911,-0.09677,-0.44240,0.36660,,
10.2153,1,DESCENDING,-0.0000,1.35075,0.47957,-2.14130,0.09100,1.57080,-3.01911,-0.09677,-0.44240,0.36656,,
10.2239,1,DESCENDING,-0.0000,1.35075,0.47957,-2.14132,0.09103,1.57080,-3.01911,-0.09677,-0.44240,0.36655,,
10.2330,1,DESCENDING,-0.0000,1.35075,0.47957,-2.14134,0.09105,1.57080,-3.01911,-0.09677,-0.44240,0.36653,,
10.2430,1,DESCENDING,-0.0000,1.35075,0.47956,-2.14142,0.09114,1.57080,-3.01911,-0.09677,-0.44240,0.36649,,
10.2537,1,DESCENDING,-0.0000,1.35075,0.47955,-2.14148,0.09121,1.57080,-3.01911,-0.09677,-0.44240,0.36645,,
10.2618,1,DESCENDING,-0.0000,1.35075,0.47955,-2.14149,0.09121,1.57080,-3.01911,-0.09677,-0.44240,0.36645,,
10.2720,1,DESCENDING,-0.0000,1.35075,0.47955,-2.14153,0.09126,1.57080,-3.01911,-0.09677,-0.44240,0.36642,,
10.2890,1,DESCENDING,-0.0000,1.35075,0.47954,-2.14159,0.09133,1.57080,-3.01911,-0.09677,-0.44240,0.36639,,
10.2942,1,DESCENDING,-0.0000,1.35075,0.47954,-2.14160,0.09134,1.57080,-3.01911,-0.09677,-0.44240,0.36638,,
10.3029,1,DESCENDING,-0.0000,1.35075,0.47953,-2.14168,0.09143,1.57080,-3.01911,-0.09677,-0.44240,0.36633,,
10.3121,1,DESCENDING,-0.0000,1.35075,0.47953,-2.14174,0.09150,1.57080,-3.01911,-0.09677,-0.44240,0.36629,,
10.3260,1,DESCENDING,-0.0000,1.35075,0.47952,-2.14176,0.09151,1.57080,-3.01911,-0.09677,-0.44240,0.36629,,
10.3383,1,DESCENDING,-0.0000,1.35075,0.47952,-2.14182,0.09158,1.57080,-3.01911,-0.09677,-0.44240,0.36625,,
10.3445,1,DESCENDING,-0.0000,1.35075,0.47952,-2.14184,0.09161,1.57080,-3.01911,-0.09677,-0.44240,0.36623,,
10.3541,1,DESCENDING,-0.0000,1.35075,0.47951,-2.14186,0.09163,1.57080,-3.01911,-0.09677,-0.44240,0.36622,,
10.3635,1,DESCENDING,-0.0000,1.35075,0.47950,-2.14194,0.09172,1.57080,-3.01911,-0.09677,-0.44240,0.36617,,
10.3836,1,DESCENDING,-0.0000,1.35075,0.47950,-2.14202,0.09180,1.57080,-3.01911,-0.09677,-0.44240,0.36613,,
10.3842,1,DESCENDING,-0.0000,1.35075,0.47950,-2.14202,0.09180,1.57080,-3.01911,-0.09677,-0.44240,0.36613,,
10.3952,1,DESCENDING,-0.0000,1.35075,0.47949,-2.14208,0.09187,1.57080,-3.01911,-0.09677,-0.44240,0.36609,,
10.4032,1,DESCENDING,-0.0000,1.35075,0.47949,-2.14210,0.09190,1.57080,-3.01911,-0.09677,-0.44240,0.36608,,
10.4124,1,DESCENDING,-0.0000,1.35075,0.47949,-2.14212,0.09192,1.57080,-3.01911,-0.09677,-0.44240,0.36607,,
10.4217,1,DESCENDING,-0.0000,1.35075,0.47948,-2.14217,0.09197,1.57080,-3.01911,-0.09677,-0.44240,0.36604,,
10.4488,1,DESCENDING,-0.0000,1.35075,0.47947,-2.14230,0.09211,1.57080,-3.01911,-0.09677,-0.44240,0.36596,,
10.4590,1,DESCENDING,-0.0000,1.35075,0.47946,-2.14234,0.09216,1.57080,-3.01911,-0.09677,-0.44240,0.36594,,
10.4643,1,DESCENDING,-0.0000,1.35075,0.47946,-2.14236,0.09219,1.57080,-3.01911,-0.09677,-0.44240,0.36592,,
10.4719,1,DESCENDING,-0.0000,1.35075,0.47946,-2.14239,0.09221,1.57080,-3.01911,-0.09677,-0.44240,0.36591,,
10.4822,1,DESCENDING,-0.0000,1.35075,0.47945,-2.14243,0.09226,1.57080,-3.01911,-0.09677,-0.44240,0.36588,,
10.4970,1,DESCENDING,-0.0000,1.35075,0.47944,-2.14253,0.09236,1.57080,-3.01911,-0.09677,-0.44240,0.36583,,
10.5045,1,DESCENDING,-0.0000,1.35075,0.47944,-2.14254,0.09238,1.57080,-3.01911,-0.09677,-0.44240,0.36582,,
10.5138,1,DESCENDING,-0.0000,1.35075,0.47944,-2.14258,0.09242,1.57080,-3.01911,-0.09677,-0.44240,0.36580,,
10.5258,1,DESCENDING,-0.0000,1.35075,0.47943,-2.14263,0.09247,1.57080,-3.01911,-0.09677,-0.44240,0.36577,,
10.5338,1,DESCENDING,-0.0000,1.35075,0.47943,-2.14265,0.09250,1.57080,-3.01911,-0.09677,-0.44240,0.36576,,
10.5431,1,DESCENDING,-0.0000,1.35075,0.47942,-2.14270,0.09255,1.57080,-3.01911,-0.09677,-0.44240,0.36573,,
10.5545,1,DESCENDING,-0.0000,1.35075,0.47941,-2.14279,0.09265,1.57080,-3.01911,-0.09677,-0.44240,0.36567,,
10.5676,1,DESCENDING,-0.0000,1.35075,0.47941,-2.14282,0.09269,1.57080,-3.01911,-0.09677,-0.44240,0.36565,,
10.5738,1,DESCENDING,-0.0000,1.35075,0.47941,-2.14284,0.09271,1.57080,-3.01911,-0.09677,-0.44240,0.36564,,
10.5868,1,DESCENDING,-0.0000,1.35075,0.47940,-2.14289,0.09276,1.57080,-3.01911,-0.09677,-0.44240,0.36561,,
10.6047,1,DESCENDING,-0.0000,1.35075,0.47939,-2.14299,0.09287,1.57080,-3.01911,-0.09677,-0.44240,0.36555,,
10.6052,1,DESCENDING,-0.0000,1.35075,0.47939,-2.14299,0.09287,1.57080,-3.01911,-0.09677,-0.44240,0.36555,,
10.6128,1,DESCENDING,-0.0000,1.35075,0.47939,-2.14305,0.09294,1.57080,-3.01911,-0.09677,-0.44240,0.36552,,
10.6245,1,DESCENDING,-0.0000,1.35075,0.47938,-2.14306,0.09296,1.57080,-3.01911,-0.09677,-0.44240,0.36551,,
10.6339,1,DESCENDING,-0.0000,1.35075,0.47938,-2.14310,0.09300,1.57080,-3.01911,-0.09677,-0.44240,0.36549,,
10.6428,1,DESCENDING,-0.0000,1.35075,0.47938,-2.14315,0.09305,1.57080,-3.01911,-0.09677,-0.44240,0.36546,,
10.6525,1,DESCENDING,-0.0000,1.35075,0.47937,-2.14317,0.09308,1.57080,-3.01911,-0.09677,-0.44240,0.36544,,
10.6628,1,DESCENDING,-0.0000,1.35075,0.47937,-2.14322,0.09313,1.57080,-3.01911,-0.09677,-0.44240,0.36541,,
10.6800,1,DESCENDING,-0.0000,1.35075,0.47936,-2.14331,0.09324,1.57080,-3.01911,-0.09677,-0.44240,0.36536,,
10.7249,1,DESCENDING,-0.0000,1.35075,0.47934,-2.14351,0.09345,1.57080,-3.01911,-0.09677,-0.44240,0.36524,,
10.7414,1,DESCENDING,-0.0000,1.35075,0.47933,-2.14357,0.09352,1.57080,-3.01911,-0.09677,-0.44240,0.36520,,
10.7419,1,DESCENDING,-0.0000,1.35075,0.47933,-2.14357,0.09352,1.57080,-3.01911,-0.09677,-0.44240,0.36520,,
10.7487,1,DESCENDING,-0.0000,1.35075,0.47933,-2.14360,0.09355,1.57080,-3.01911,-0.09677,-0.44240,0.36519,,
10.7491,1,DESCENDING,-0.0000,1.35075,0.47933,-2.14360,0.09355,1.57080,-3.01911,-0.09677,-0.44240,0.36519,,
10.7562,1,DESCENDING,-0.0000,1.35075,0.47932,-2.14364,0.09360,1.57080,-3.01911,-0.09677,-0.44240,0.36516,,
10.7694,1,DESCENDING,-0.0000,1.35075,0.47932,-2.14367,0.09364,1.57080,-3.01911,-0.09677,-0.44240,0.36514,,
10.7752,1,DESCENDING,-0.0000,1.35075,0.47932,-2.14369,0.09365,1.57080,-3.01911,-0.09677,-0.44240,0.36513,,
10.7880,1,DESCENDING,-0.0000,1.35075,0.47930,-2.14380,0.09378,1.57080,-3.01911,-0.09677,-0.44240,0.36507,,
10.7927,1,DESCENDING,-0.0000,1.35075,0.47930,-2.14383,0.09381,1.57080,-3.01911,-0.09677,-0.44240,0.36505,,
10.8136,1,DESCENDING,-0.0000,1.35075,0.47929,-2.14390,0.09388,1.57080,-3.01911,-0.09677,-0.44240,0.36501,,
10.8240,1,DESCENDING,-0.0000,1.35075,0.47929,-2.14396,0.09395,1.57080,-3.01911,-0.09677,-0.44240,0.36497,,
10.8333,1,DESCENDING,-0.0000,1.35075,0.47928,-2.14398,0.09397,1.57080,-3.01911,-0.09677,-0.44240,0.36496,,
10.8419,1,DESCENDING,-0.0000,1.35075,0.47928,-2.14402,0.09403,1.57080,-3.01911,-0.09677,-0.44240,0.36493,,
10.8559,1,DESCENDING,-0.0000,1.35075,0.47927,-2.14411,0.09412,1.57080,-3.01911,-0.09677,-0.44240,0.36488,,
10.8640,1,DESCENDING,-0.0000,1.35075,0.47927,-2.14413,0.09415,1.57080,-3.01911,-0.09677,-0.44240,0.36487,,
10.9152,1,DESCENDING,-0.0000,1.35075,0.47924,-2.14440,0.09444,1.57080,-3.01911,-0.09677,-0.44240,0.36471,,
10.9223,1,DESCENDING,-0.0000,1.35075,0.47924,-2.14440,0.09445,1.57080,-3.01911,-0.09677,-0.44240,0.36471,,
10.9227,1,DESCENDING,-0.0000,1.35075,0.47924,-2.14440,0.09445,1.57080,-3.01911,-0.09677,-0.44240,0.36471,,
10.9230,1,DESCENDING,-0.0000,1.35075,0.47924,-2.14440,0.09445,1.57080,-3.01911,-0.09677,-0.44240,0.36471,,
10.9320,1,DESCENDING,-0.0000,1.35075,0.47923,-2.14447,0.09452,1.57080,-3.01911,-0.09677,-0.44240,0.36467,,
10.9427,1,DESCENDING,-0.0000,1.35075,0.47922,-2.14453,0.09458,1.57080,-3.01911,-0.09677,-0.44240,0.36463,,
10.9581,1,DESCENDING,-0.0000,1.35075,0.47922,-2.14457,0.09463,1.57080,-3.01911,-0.09677,-0.44240,0.36461,,
10.9761,1,DESCENDING,-0.0000,1.35075,0.47921,-2.14466,0.09473,1.57080,-3.01911,-0.09677,-0.44240,0.36456,,
10.9766,1,DESCENDING,-0.0000,1.35075,0.47921,-2.14466,0.09473,1.57080,-3.01911,-0.09677,-0.44240,0.36456,,
10.9812,1,DESCENDING,-0.0000,1.35075,0.47921,-2.14466,0.09473,1.57080,-3.01911,-0.09677,-0.44240,0.36455,,
10.9937,1,DESCENDING,-0.0000,1.35075,0.47920,-2.14473,0.09480,1.57080,-3.01911,-0.09677,-0.44240,0.36451,,
11.0061,1,DESCENDING,-0.0000,1.35075,0.47919,-2.14482,0.09491,1.57080,-3.01911,-0.09677,-0.44240,0.36446,,
11.0140,1,DESCENDING,-0.0000,1.35075,0.47919,-2.14482,0.09491,1.57080,-3.01911,-0.09677,-0.44240,0.36446,,
11.0606,1,DESCENDING,-0.0000,1.35075,0.47917,-2.14505,0.09516,1.57080,-3.01911,-0.09677,-0.44240,0.36432,,
