Martins-Lucaas/RoboticArm/sensors/Data/20260621_170454__samples.csv
t_rel_s,cycle,phase,force_net_n,q1,q2,q3,q4,q5,q6,tcp_x,tcp_y,tcp_z,touch_value,touch_age_ms
0.0561,1,HOME,0.0000,1.35075,0.48284,-2.09928,0.04573,1.57080,-3.01912,-0.09677,-0.44240,0.39130,,
0.0628,1,HOME,0.0000,1.35075,0.48284,-2.09928,0.04573,1.57080,-3.01912,-0.09677,-0.44240,0.39130,,
0.0635,1,HOME,0.0000,1.35075,0.48284,-2.09928,0.04573,1.57080,-3.01912,-0.09677,-0.44240,0.39130,,
0.1537,1,HOME,0.0000,1.35075,0.48284,-2.09928,0.04573,1.57080,-3.01912,-0.09677,-0.44240,0.39130,,
0.1591,1,HOME,0.0000,1.35075,0.48284,-2.09928,0.04573,1.57080,-3.01912,-0.09677,-0.44240,0.39130,,
0.2559,1,HOME,0.0000,1.35075,0.48284,-2.09928,0.04573,1.57080,-3.01912,-0.09677,-0.44240,0.39130,,
0.3585,1,HOME,0.0000,1.35075,0.48284,-2.09928,0.04573,1.57080,-3.01912,-0.09677,-0.44240,0.39130,,
0.3592,1,HOME,0.0000,1.35075,0.48284,-2.09928,0.04573,1.57080,-3.01912,-0.09677,-0.44240,0.39130,,
0.3595,1,HOME,0.0000,1.35075,0.48284,-2.09928,0.04573,1.57080,-3.01912,-0.09677,-0.44240,0.39130,,
0.3599,1,HOME,0.0000,1.35075,0.48284,-2.09928,0.04573,1.57080,-3.01912,-0.09677,-0.44240,0.39130,,
0.3602,1,HOME,0.0000,1.35075,0.48284,-2.09928,0.04573,1.57080,-3.01912,-0.09677,-0.44240,0.39130,,
0.4636,1,HOME,0.0000,1.35075,0.48284,-2.09928,0.04573,1.57080,-3.01912,-0.09677,-0.44240,0.39130,,
0.4639,1,HOME,0.0000,1.35075,0.48284,-2.09928,0.04573,1.57080,-3.01912,-0.09677,-0.44240,0.39130,,
0.4642,1,HOME,0.0000,1.35075,0.48284,-2.09928,0.04573,1.57080,-3.01912,-0.09677,-0.44240,0.39130,,
0.4666,1,HOME,0.0000,1.35075,0.48284,-2.09928,0.04573,1.57080,-3.01912,-0.09677,-0.44240,0.39130,,
0.4671,1,HOME,0.0000,1.35075,0.48284,-2.09928,0.04573,1.57080,-3.01912,-0.09677,-0.44240,0.39130,,
0.4674,1,HOME,0.0000,1.35075,0.48284,-2.09928,0.04573,1.57080,-3.01912,-0.09677,-0.44240,0.39130,,
0.4677,1,HOME,0.0000,1.35075,0.48284,-2.09928,0.04573,1.57080,-3.01912,-0.09677,-0.44240,0.39130,,
0.5684,1,HOME,0.0000,1.35075,0.48284,-2.09928,0.04573,1.57080,-3.01912,-0.09677,-0.44240,0.39130,,
0.5688,1,HOME,0.0000,1.35075,0.48284,-2.09928,0.04573,1.57080,-3.01912,-0.09677,-0.44240,0.39130,,
0.5691,1,HOME,0.0000,1.35075,0.48284,-2.09928,0.04573,1.57080,-3.01912,-0.09677,-0.44240,0.39130,,
0.5694,1,HOME,0.0000,1.35075,0.48284,-2.09928,0.04573,1.57080,-3.01912,-0.09677,-0.44240,0.39130,,
0.5696,1,HOME,0.0000,1.35075,0.48284,-2.09928,0.04573,1.57080,-3.01912,-0.09677,-0.44240,0.39130,,
0.6656,1,DESCENDING,0.0000,1.35075,0.48284,-2.09928,0.04573,1.57080,-3.01912,-0.09677,-0.44240,0.39130,,
0.6661,1,DESCENDING,0.0000,1.35075,0.48284,-2.09928,0.04573,1.57080,-3.01912,-0.09677,-0.44240,0.39130,,
0.7679,1,DESCENDING,0.0000,1.35075,0.48284,-2.09928,0.04573,1.57080,-3.01912,-0.09677,-0.44240,0.39130,,
0.7682,1,DESCENDING,0.0000,1.35075,0.48284,-2.09928,0.04573,1.57080,-3.01912,-0.09677,-0.44240,0.39130,,
0.7716,1,DESCENDING,0.0000,1.35075,0.48284,-2.09928,0.04573,1.57080,-3.01912,-0.09677,-0.44240,0.39130,,
0.7720,1,DESCENDING,0.0000,1.35075,0.48284,-2.09928,0.04573,1.57080,-3.01912,-0.09677,-0.44240,0.39130,,
0.7725,1,DESCENDING,0.0000,1.35075,0.48284,-2.09928,0.04573,1.57080,-3.01912,-0.09677,-0.44240,0.39130,,
0.8731,1,DESCENDING,0.0000,1.35075,0.48283,-2.09935,0.04580,1.57080,-3.01912,-0.09677,-0.44240,0.39126,,
0.8736,1,DESCENDING,0.0000,1.35075,0.48283,-2.09935,0.04580,1.57080,-3.01912,-0.09677,-0.44240,0.39126,,
0.8740,1,DESCENDING,0.0000,1.35075,0.48283,-2.09935,0.04580,1.57080,-3.01912,-0.09677,-0.44240,0.39126,,
0.8743,1,DESCENDING,0.0000,1.35075,0.48283,-2.09936,0.04581,1.57080,-3.01912,-0.09677,-0.44240,0.39125,,
0.8748,1,DESCENDING,0.0000,1.35075,0.48283,-2.09936,0.04581,1.57080,-3.01912,-0.09677,-0.44240,0.39125,,
0.9730,1,DESCENDING,0.0000,1.35075,0.48282,-2.09958,0.04604,1.57080,-3.01912,-0.09677,-0.44240,0.39113,,
0.9736,1,DESCENDING,0.0000,1.35075,0.48282,-2.09958,0.04604,1.57080,-3.01912,-0.09677,-0.44240,0.39113,,
0.9740,1,DESCENDING,0.0000,1.35075,0.48282,-2.09958,0.04604,1.57080,-3.01912,-0.09677,-0.44240,0.39113,,
0.9745,1,DESCENDING,0.0000,1.35075,0.48282,-2.09958,0.04604,1.57080,-3.01912,-0.09677,-0.44240,0.39113,,
0.9754,1,DESCENDING,0.0000,1.35075,0.48282,-2.09958,0.04604,1.57080,-3.01912,-0.09677,-0.44240,0.39113,,
1.0751,1,DESCENDING,0.0000,1.35075,0.48281,-2.09978,0.04626,1.57080,-3.01912,-0.09677,-0.44240,0.39101,,
1.0810,1,DESCENDING,0.0000,1.35075,0.48281,-2.09980,0.04628,1.57080,-3.01912,-0.09677,-0.44240,0.39100,,
1.0815,1,DESCENDING,0.0000,1.35075,0.48281,-2.09980,0.04628,1.57080,-3.01912,-0.09677,-0.44240,0.39100,,
1.0819,1,DESCENDING,0.0000,1.35075,0.48281,-2.09980,0.04628,1.57080,-3.01912,-0.09677,-0.44240,0.39100,,
1.0824,1,DESCENDING,0.0000,1.35075,0.48281,-2.09981,0.04629,1.57080,-3.01912,-0.09677,-0.44240,0.39099,,
1.0829,1,DESCENDING,0.0000,1.35075,0.48281,-2.09981,0.04629,1.57080,-3.01912,-0.09677,-0.44240,0.39099,,
1.1788,1,DESCENDING,0.0000,1.35075,0.48280,-2.10004,0.04653,1.57080,-3.01912,-0.09677,-0.44240,0.39086,,
1.1800,1,DESCENDING,0.0000,1.35075,0.48280,-2.10006,0.04655,1.57080,-3.01912,-0.09677,-0.44240,0.39085,,
1.1825,1,DESCENDING,0.0000,1.35075,0.48280,-2.10007,0.04656,1.57080,-3.01912,-0.09677,-0.44240,0.39084,,
1.1831,1,DESCENDING,0.0000,1.35075,0.48280,-2.10007,0.04656,1.57080,-3.01912,-0.09677,-0.44240,0.39084,,
1.2798,1,DESCENDING,0.0000,1.35075,0.48279,-2.10027,0.04677,1.57080,-3.01912,-0.09677,-0.44240,0.39072,,
1.2801,1,DESCENDING,0.0000,1.35075,0.48279,-2.10027,0.04677,1.57080,-3.01912,-0.09677,-0.44240,0.39072,,
1.2805,1,DESCENDING,0.0000,1.35075,0.48279,-2.10027,0.04677,1.57080,-3.01912,-0.09677,-0.44240,0.39072,,
1.2809,1,DESCENDING,0.0000,1.35075,0.48279,-2.10027,0.04677,1.57080,-3.01912,-0.09677,-0.44240,0.39072,,
1.3825,1,DESCENDING,0.0000,1.35075,0.48277,-2.10051,0.04702,1.57080,-3.01912,-0.09677,-0.44240,0.39058,,
1.3829,1,DESCENDING,0.0000,1.35075,0.48277,-2.10051,0.04702,1.57080,-3.01912,-0.09677,-0.44240,0.39058,,
1.3833,1,DESCENDING,0.0000,1.35075,0.48277,-2.10051,0.04702,1.57080,-3.01912,-0.09677,-0.44240,0.39058,,
1.3837,1,DESCENDING,0.0000,1.35075,0.48277,-2.10051,0.04702,1.57080,-3.01912,-0.09677,-0.44240,0.39058,,
1.3841,1,DESCENDING,0.0000,1.35075,0.48277,-2.10051,0.04702,1.57080,-3.01912,-0.09677,-0.44240,0.39058,,
1.3849,1,DESCENDING,0.0000,1.35075,0.48277,-2.10051,0.04702,1.57080,-3.01912,-0.09677,-0.44240,0.39058,,
1.4848,1,DESCENDING,0.0000,1.35075,0.48276,-2.10075,0.04728,1.57080,-3.01912,-0.09677,-0.44240,0.39044,,
1.4851,1,DESCENDING,0.0000,1.35075,0.48276,-2.10075,0.04728,1.57080,-3.01912,-0.09677,-0.44240,0.39044,,
1.4855,1,DESCENDING,0.0000,1.35075,0.48276,-2.10075,0.04728,1.57080,-3.01912,-0.09677,-0.44240,0.39044,,
1.4861,1,DESCENDING,0.0000,1.35075,0.48276,-2.10075,0.04728,1.57080,-3.01912,-0.09677,-0.44240,0.39044,,
1.5895,1,DESCENDING,0.0000,1.35075,0.48275,-2.10097,0.04751,1.57080,-3.01912,-0.09677,-0.44240,0.39032,,
1.5900,1,DESCENDING,0.0000,1.35075,0.48275,-2.10097,0.04751,1.57080,-3.01912,-0.09677,-0.44240,0.39032,,
1.5929,1,DESCENDING,0.0000,1.35075,0.48275,-2.10099,0.04752,1.57080,-3.01912,-0.09677,-0.44240,0.39031,,
1.5933,1,DESCENDING,0.0000,1.35075,0.48275,-2.10099,0.04752,1.57080,-3.01912,-0.09677,-0.44240,0.39031,,
1.5936,1,DESCENDING,0.0000,1.35075,0.48275,-2.10099,0.04752,1.57080,-3.01912,-0.09677,-0.44240,0.39031,,
1.5939,1,DESCENDING,0.0000,1.35075,0.48275,-2.10099,0.04752,1.57080,-3.01912,-0.09677,-0.44240,0.39031,,
1.6896,1,DESCENDING,0.0000,1.35075,0.48273,-2.10123,0.04778,1.57080,-3.01912,-0.09677,-0.44240,0.39017,,
1.6903,1,DESCENDING,0.0000,1.35075,0.48273,-2.10124,0.04780,1.57080,-3.01912,-0.09677,-0.44240,0.39016,,
1.6910,1,DESCENDING,0.0000,1.35075,0.48273,-2.10124,0.04780,1.57080,-3.01912,-0.09677,-0.44240,0.39016,,
1.6916,1,DESCENDING,0.0000,1.35075,0.48273,-2.10124,0.04780,1.57080,-3.01912,-0.09677,-0.44240,0.39016,,
1.6921,1,DESCENDING,0.0000,1.35075,0.48273,-2.10124,0.04780,1.57080,-3.01912,-0.09677,-0.44240,0.39016,,
1.6927,1,DESCENDING,0.0000,1.35075,0.48273,-2.10124,0.04780,1.57080,-3.01912,-0.09677,-0.44240,0.39016,,
1.6943,1,DESCENDING,0.0000,1.35075,0.48273,-2.10124,0.04780,1.57080,-3.01912,-0.09677,-0.44240,0.39016,,
1.6946,1,DESCENDING,0.0000,1.35075,0.48273,-2.10124,0.04780,1.57080,-3.01912,-0.09677,-0.44240,0.39016,,
1.6950,1,DESCENDING,0.0000,1.35075,0.48273,-2.10124,0.04780,1.57080,-3.01912,-0.09677,-0.44240,0.39016,,
1.7919,1,DESCENDING,0.0000,1.35075,0.48272,-2.10147,0.04804,1.57080,-3.01912,-0.09677,-0.44240,0.39002,,
1.7923,1,DESCENDING,0.0000,1.35075,0.48272,-2.10147,0.04804,1.57080,-3.01912,-0.09677,-0.44240,0.39002,,
1.7926,1,DESCENDING,0.0000,1.35075,0.48272,-2.10147,0.04804,1.57080,-3.01912,-0.09677,-0.44240,0.39002,,
1.8947,1,DESCENDING,0.0000,1.35075,0.48271,-2.10172,0.04830,1.57080,-3.01912,-0.09677,-0.44240,0.38988,,
1.8950,1,DESCENDING,0.0000,1.35075,0.48271,-2.10172,0.04830,1.57080,-3.01912,-0.09677,-0.44240,0.38988,,
1.8954,1,DESCENDING,0.0000,1.35075,0.48271,-2.10172,0.04830,1.57080,-3.01912,-0.09677,-0.44240,0.38988,,
1.8956,1,DESCENDING,0.0000,1.35075,0.48271,-2.10172,0.04830,1.57080,-3.01912,-0.09677,-0.44240,0.38988,,
1.8960,1,DESCENDING,0.0000,1.35075,0.48271,-2.10172,0.04830,1.57080,-3.01912,-0.09677,-0.44240,0.38988,,
1.8964,1,DESCENDING,0.0000,1.35075,0.48271,-2.10172,0.04830,1.57080,-3.01912,-0.09677,-0.44240,0.38988,,
1.8968,1,DESCENDING,0.0000,1.35075,0.48271,-2.10172,0.04830,1.57080,-3.01912,-0.09677,-0.44240,0.38988,,
1.8970,1,DESCENDING,0.0000,1.35075,0.48271,-2.10172,0.04830,1.57080,-3.01912,-0.09677,-0.44240,0.38988,,
1.9968,1,DESCENDING,0.0000,1.35075,0.48270,-2.10196,0.04855,1.57080,-3.01912,-0.09677,-0.44240,0.38974,,
1.9974,1,DESCENDING,0.0000,1.35075,0.48270,-2.10196,0.04855,1.57080,-3.01912,-0.09677,-0.44240,0.38974,,
1.9977,1,DESCENDING,0.0000,1.35075,0.48270,-2.10196,0.04855,1.57080,-3.01912,-0.09677,-0.44240,0.38974,,
1.9981,1,DESCENDING,0.0000,1.35075,0.48270,-2.10196,0.04855,1.57080,-3.01912,-0.09677,-0.44240,0.38974,,
1.9991,1,DESCENDING,0.0000,1.35075,0.48270,-2.10196,0.04855,1.57080,-3.01912,-0.09677,-0.44240,0.38974,,
2.0048,1,DESCENDING,0.0000,1.35075,0.48270,-2.10197,0.04856,1.57080,-3.01912,-0.09677,-0.44240,0.38973,,
2.0052,1,DESCENDING,0.0000,1.35075,0.48270,-2.10197,0.04856,1.57080,-3.01912,-0.09677,-0.44240,0.38973,,
2.0056,1,DESCENDING,0.0000,1.35075,0.48270,-2.10197,0.04856,1.57080,-3.01912,-0.09677,-0.44240,0.38973,,
2.0993,1,DESCENDING,0.0000,1.35075,0.48268,-2.10221,0.04881,1.57080,-3.01912,-0.09677,-0.44240,0.38960,,
2.2015,1,DESCENDING,0.0000,1.35075,0.48267,-2.10245,0.04906,1.57080,-3.01912,-0.09677,-0.44240,0.38946,,
2.2020,1,DESCENDING,0.0000,1.35075,0.48267,-2.10245,0.04906,1.57080,-3.01912,-0.09677,-0.44240,0.38946,,
2.2024,1,DESCENDING,0.0000,1.35075,0.48267,-2.10245,0.04906,1.57080,-3.01912,-0.09677,-0.44240,0.38946,,
2.2028,1,DESCENDING,0.0000,1.35075,0.48267,-2.10245,0.04906,1.57080,-3.01912,-0.09677,-0.44240,0.38946,,
2.2032,1,DESCENDING,0.0000,1.35075,0.48267,-2.10246,0.04908,1.57080,-3.01912,-0.09677,-0.44240,0.38945,,
2.3038,1,DESCENDING,0.0000,1.35075,0.48266,-2.10268,0.04931,1.57080,-3.01912,-0.09677,-0.44240,0.38932,,
2.3043,1,DESCENDING,0.0000,1.35075,0.48266,-2.10268,0.04931,1.57080,-3.01912,-0.09677,-0.44240,0.38932,,
2.3048,1,DESCENDING,0.0000,1.35075,0.48266,-2.10268,0.04931,1.57080,-3.01912,-0.09677,-0.44240,0.38932,,
2.3051,1,DESCENDING,0.0000,1.35075,0.48266,-2.10268,0.04931,1.57080,-3.01912,-0.09677,-0.44240,0.38932,,
2.3055,1,DESCENDING,0.0000,1.35075,0.48266,-2.10268,0.04931,1.57080,-3.01912,-0.09677,-0.44240,0.38932,,
2.3060,1,DESCENDING,0.0000,1.35075,0.48266,-2.10268,0.04931,1.57080,-3.01912,-0.09677,-0.44240,0.38932,,
2.3064,1,DESCENDING,0.0000,1.35075,0.48266,-2.10268,0.04931,1.57080,-3.01912,-0.09677,-0.44240,0.38932,,
2.4072,1,DESCENDING,0.0000,1.35075,0.48264,-2.10291,0.04956,1.57080,-3.01912,-0.09677,-0.44240,0.38918,,
2.4077,1,DESCENDING,0.0000,1.35075,0.48264,-2.10291,0.04956,1.57080,-3.01912,-0.09677,-0.44240,0.38918,,
2.4080,1,DESCENDING,0.0000,1.35075,0.48264,-2.10291,0.04956,1.57080,-3.01912,-0.09677,-0.44240,0.38918,,
2.5088,1,DESCENDING,0.0000,1.35075,0.48263,-2.10313,0.04978,1.57080,-3.01912,-0.09677,-0.44240,0.38906,,
2.5093,1,DESCENDING,0.0000,1.35075,0.48263,-2.10313,0.04978,1.57080,-3.01912,-0.09677,-0.44240,0.38906,,
2.5096,1,DESCENDING,0.0000,1.35075,0.48263,-2.10313,0.04978,1.57080,-3.01912,-0.09677,-0.44240,0.38906,,
2.5099,1,DESCENDING,0.0000,1.35075,0.48263,-2.10313,0.04978,1.57080,-3.01912,-0.09677,-0.44240,0.38906,,
2.5102,1,DESCENDING,0.0000,1.35075,0.48263,-2.10313,0.04978,1.57080,-3.01912,-0.09677,-0.44240,0.38906,,
2.6113,1,DESCENDING,0.0000,1.35075,0.48262,-2.10336,0.05003,1.57080,-3.01912,-0.09677,-0.44240,0.38892,,
2.6135,1,DESCENDING,0.0000,1.35075,0.48262,-2.10336,0.05003,1.57080,-3.01912,-0.09677,-0.44240,0.38892,,
2.6140,1,DESCENDING,0.0000,1.35075,0.48262,-2.10336,0.05003,1.57080,-3.01912,-0.09677,-0.44240,0.38892,,
2.6144,1,DESCENDING,0.0000,1.35075,0.48262,-2.10336,0.05003,1.57080,-3.01912,-0.09677,-0.44240,0.38892,,
2.6147,1,DESCENDING,0.0000,1.35075,0.48262,-2.10336,0.05003,1.57080,-3.01912,-0.09677,-0.44240,0.38892,,
2.6152,1,DESCENDING,0.0000,1.35075,0.48262,-2.10337,0.05004,1.57080,-3.01912,-0.09677,-0.44240,0.38892,,
2.6156,1,DESCENDING,0.0000,1.35075,0.48262,-2.10337,0.05004,1.57080,-3.01912,-0.09677,-0.44240,0.38892,,
2.7140,1,DESCENDING,0.0000,1.35075,0.48260,-2.10361,0.05029,1.57080,-3.01912,-0.09677,-0.44240,0.38878,,
2.7144,1,DESCENDING,0.0000,1.35075,0.48260,-2.10361,0.05029,1.57080,-3.01912,-0.09677,-0.44240,0.38878,,
2.7155,1,DESCENDING,0.0000,1.35075,0.48260,-2.10362,0.05031,1.57080,-3.01912,-0.09677,-0.44240,0.38877,,
2.7158,1,DESCENDING,0.0000,1.35075,0.48260,-2.10362,0.05031,1.57080,-3.01912,-0.09677,-0.44240,0.38877,,
2.7162,1,DESCENDING,0.0000,1.35075,0.48260,-2.10362,0.05031,1.57080,-3.01912,-0.09677,-0.44240,0.38877,,
2.7168,1,DESCENDING,0.0000,1.35075,0.48260,-2.10362,0.05031,1.57080,-3.01912,-0.09677,-0.44240,0.38877,,
2.8159,1,DESCENDING,0.0000,1.35075,0.48259,-2.10384,0.05054,1.57080,-3.01912,-0.09677,-0.44240,0.38864,,
2.8162,1,DESCENDING,0.0000,1.35075,0.48259,-2.10384,0.05054,1.57080,-3.01912,-0.09677,-0.44240,0.38864,,
2.8166,1,DESCENDING,0.0000,1.35075,0.48259,-2.10384,0.05054,1.57080,-3.01912,-0.09677,-0.44240,0.38864,,
2.9183,1,DESCENDING,0.0000,1.35075,0.48258,-2.10409,0.05080,1.57080,-3.01912,-0.09677,-0.44240,0.38850,,
2.9187,1,DESCENDING,0.0000,1.35075,0.48258,-2.10409,0.05080,1.57080,-3.01912,-0.09677,-0.44240,0.38850,,
2.9191,1,DESCENDING,0.0000,1.35075,0.48258,-2.10409,0.05080,1.57080,-3.01912,-0.09677,-0.44240,0.38850,,
3.0206,1,DESCENDING,0.0000,1.35075,0.48256,-2.10435,0.05107,1.57080,-3.01912,-0.09677,-0.44240,0.38835,,
3.0218,1,DESCENDING,0.0000,1.35075,0.48256,-2.10435,0.05107,1.57080,-3.01912,-0.09677,-0.44240,0.38835,,
3.0223,1,DESCENDING,0.0000,1.35075,0.48256,-2.10435,0.05107,1.57080,-3.01912,-0.09677,-0.44240,0.38835,,
3.0282,1,DESCENDING,0.0000,1.35075,0.48256,-2.10436,0.05108,1.57080,-3.01912,-0.09677,-0.44240,0.38834,,
3.0286,1,DESCENDING,0.0000,1.35075,0.48256,-2.10436,0.05108,1.57080,-3.01912,-0.09677,-0.44240,0.38834,,
3.1233,1,DESCENDING,0.0000,1.35075,0.48255,-2.10458,0.05132,1.57080,-3.01912,-0.09677,-0.44240,0.38821,,
3.1247,1,DESCENDING,0.0000,1.35075,0.48255,-2.10459,0.05133,1.57080,-3.01912,-0.09677,-0.44240,0.38820,,
3.1306,1,DESCENDING,0.0000,1.35075,0.48255,-2.10460,0.05134,1.57080,-3.01912,-0.09677,-0.44240,0.38820,,
3.1320,1,DESCENDING,0.0000,1.35075,0.48255,-2.10461,0.05135,1.57080,-3.01912,-0.09677,-0.44240,0.38819,,
3.1336,1,DESCENDING,0.0000,1.35075,0.48255,-2.10461,0.05135,1.57080,-3.01912,-0.09677,-0.44240,0.38819,,
3.2260,1,DESCENDING,0.0000,1.35075,0.48253,-2.10484,0.05159,1.57080,-3.01912,-0.09677,-0.44240,0.38806,,
3.2264,1,DESCENDING,0.0000,1.35075,0.48253,-2.10484,0.05159,1.57080,-3.01912,-0.09677,-0.44240,0.38806,,
3.2271,1,DESCENDING,0.0000,1.35075,0.48253,-2.10484,0.05159,1.57080,-3.01912,-0.09677,-0.44240,0.38806,,
3.2276,1,DESCENDING,0.0000,1.35075,0.48253,-2.10484,0.05159,1.57080,-3.01912,-0.09677,-0.44240,0.38806,,
3.2281,1,DESCENDING,0.0000,1.35075,0.48253,-2.10485,0.05161,1.57080,-3.01912,-0.09677,-0.44240,0.38805,,
3.2285,1,DESCENDING,0.0000,1.35075,0.48253,-2.10485,0.05161,1.57080,-3.01912,-0.09677,-0.44240,0.38805,,
3.3283,1,DESCENDING,0.0000,1.35075,0.48252,-2.10505,0.05181,1.57080,-3.01912,-0.09677,-0.44240,0.38794,,
3.3289,1,DESCENDING,0.0000,1.35075,0.48252,-2.10505,0.05181,1.57080,-3.01912,-0.09677,-0.44240,0.38794,,
3.3296,1,DESCENDING,0.0000,1.35075,0.48252,-2.10505,0.05181,1.57080,-3.01912,-0.09677,-0.44240,0.38794,,
3.3299,1,DESCENDING,0.0000,1.35075,0.48252,-2.10505,0.05181,1.57080,-3.01912,-0.09677,-0.44240,0.38794,,
3.3304,1,DESCENDING,0.0000,1.35075,0.48252,-2.10505,0.05181,1.57080,-3.01912,-0.09677,-0.44240,0.38794,,
3.3308,1,DESCENDING,0.0000,1.35075,0.48252,-2.10505,0.05181,1.57080,-3.01912,-0.09677,-0.44240,0.38794,,
3.4303,1,DESCENDING,0.0000,1.35075,0.48251,-2.10528,0.05206,1.57080,-3.01912,-0.09677,-0.44240,0.38780,,
3.4317,1,DESCENDING,0.0000,1.35075,0.48251,-2.10528,0.05206,1.57080,-3.01912,-0.09677,-0.44240,0.38780,,
3.4323,1,DESCENDING,0.0000,1.35075,0.48251,-2.10529,0.05207,1.57080,-3.01912,-0.09677,-0.44240,0.38780,,
3.4325,1,DESCENDING,0.0000,1.35075,0.48251,-2.10529,0.05207,1.57080,-3.01912,-0.09677,-0.44240,0.38780,,
3.4329,1,DESCENDING,0.0000,1.35075,0.48251,-2.10529,0.05207,1.57080,-3.01912,-0.09677,-0.44240,0.38780,,
3.5337,1,DESCENDING,0.0000,1.35075,0.48250,-2.10552,0.05231,1.57080,-3.01912,-0.09677,-0.44240,0.38766,,
3.5355,1,DESCENDING,0.0000,1.35075,0.48250,-2.10552,0.05231,1.57080,-3.01912,-0.09677,-0.44240,0.38766,,
3.5366,1,DESCENDING,0.0000,1.35075,0.48250,-2.10552,0.05231,1.57080,-3.01912,-0.09677,-0.44240,0.38766,,
3.6364,1,DESCENDING,0.0000,1.35075,0.48248,-2.10574,0.05254,1.57080,-3.01912,-0.09677,-0.44240,0.38753,,
3.6369,1,DESCENDING,0.0000,1.35075,0.48248,-2.10574,0.05254,1.57080,-3.01912,-0.09677,-0.44240,0.38753,,
3.6371,1,DESCENDING,0.0000,1.35075,0.48248,-2.10574,0.05254,1.57080,-3.01912,-0.09677,-0.44240,0.38753,,
3.6374,1,DESCENDING,0.0000,1.35075,0.48248,-2.10574,0.05254,1.57080,-3.01912,-0.09677,-0.44240,0.38753,,
3.7382,1,DESCENDING,0.0000,1.35075,0.48247,-2.10599,0.05280,1.57080,-3.01912,-0.09677,-0.44240,0.38739,,
3.7386,1,DESCENDING,0.0000,1.35075,0.48247,-2.10599,0.05280,1.57080,-3.01912,-0.09677,-0.44240,0.38739,,
3.7389,1,DESCENDING,0.0000,1.35075,0.48247,-2.10599,0.05280,1.57080,-3.01912,-0.09677,-0.44240,0.38739,,
3.7401,1,DESCENDING,0.0000,1.35075,0.48247,-2.10599,0.05280,1.57080,-3.01912,-0.09677,-0.44240,0.38739,,
3.8403,1,DESCENDING,0.0000,1.35075,0.48245,-2.10622,0.05305,1.57080,-3.01912,-0.09677,-0.44240,0.38725,,
3.8407,1,DESCENDING,0.0000,1.35075,0.48245,-2.10622,0.05305,1.57080,-3.01912,-0.09677,-0.44240,0.38725,,
3.8411,1,DESCENDING,0.0000,1.35075,0.48245,-2.10622,0.05305,1.57080,-3.01912,-0.09677,-0.44240,0.38725,,
3.9423,1,DESCENDING,0.0000,1.35075,0.48244,-2.10645,0.05330,1.57080,-3.01912,-0.09677,-0.44240,0.38712,,
3.9427,1,DESCENDING,0.0000,1.35075,0.48244,-2.10645,0.05330,1.57080,-3.01912,-0.09677,-0.44240,0.38712,,
3.9429,1,DESCENDING,0.0000,1.35075,0.48244,-2.10645,0.05330,1.57080,-3.01912,-0.09677,-0.44240,0.38712,,
3.9432,1,DESCENDING,0.0000,1.35075,0.48244,-2.10645,0.05330,1.57080,-3.01912,-0.09677,-0.44240,0.38712,,
3.9437,1,DESCENDING,0.0000,1.35075,0.48244,-2.10645,0.05330,1.57080,-3.01912,-0.09677,-0.44240,0.38712,,
3.9442,1,DESCENDING,0.0000,1.35075,0.48244,-2.10646,0.05331,1.57080,-3.01912,-0.09677,-0.44240,0.38711,,
3.9445,1,DESCENDING,0.0000,1.35075,0.48244,-2.10646,0.05331,1.57080,-3.01912,-0.09677,-0.44240,0.38711,,
4.0450,1,DESCENDING,0.0000,1.35075,0.48243,-2.10669,0.05355,1.57080,-3.01912,-0.09677,-0.44240,0.38698,,
4.0455,1,DESCENDING,0.0000,1.35075,0.48243,-2.10669,0.05355,1.57080,-3.01912,-0.09677,-0.44240,0.38698,,
4.0525,1,DESCENDING,0.0000,1.35075,0.48243,-2.10670,0.05356,1.57080,-3.01912,-0.09677,-0.44240,0.38697,,
4.0530,1,DESCENDING,0.0000,1.35075,0.48243,-2.10670,0.05356,1.57080,-3.01912,-0.09677,-0.44240,0.38697,,
4.0533,1,DESCENDING,0.0000,1.35075,0.48243,-2.10670,0.05356,1.57080,-3.01912,-0.09677,-0.44240,0.38697,,
4.0537,1,DESCENDING,0.0000,1.35075,0.48243,-2.10670,0.05356,1.57080,-3.01912,-0.09677,-0.44240,0.38697,,
4.1470,1,DESCENDING,0.0000,1.35075,0.48241,-2.10690,0.05377,1.57080,-3.01912,-0.09677,-0.44240,0.38686,,
4.1475,1,DESCENDING,0.0000,1.35075,0.48241,-2.10690,0.05377,1.57080,-3.01912,-0.09677,-0.44240,0.38686,,
4.1477,1,DESCENDING,0.0000,1.35075,0.48241,-2.10690,0.05377,1.57080,-3.01912,-0.09677,-0.44240,0.38686,,
4.1485,1,DESCENDING,0.0000,1.35075,0.48241,-2.10691,0.05378,1.57080,-3.01912,-0.09677,-0.44240,0.38685,,
4.2494,1,DESCENDING,0.0000,1.35075,0.48240,-2.10714,0.05403,1.57080,-3.01912,-0.09677,-0.44240,0.38672,,
4.2498,1,DESCENDING,0.0000,1.35075,0.48240,-2.10714,0.05403,1.57080,-3.01912,-0.09677,-0.44240,0.38672,,
4.2501,1,DESCENDING,0.0000,1.35075,0.48240,-2.10714,0.05403,1.57080,-3.01912,-0.09677,-0.44240,0.38672,,
4.2505,1,DESCENDING,0.0000,1.35075,0.48240,-2.10714,0.05403,1.57080,-3.01912,-0.09677,-0.44240,0.38672,,
4.2509,1,DESCENDING,0.0000,1.35075,0.48240,-2.10714,0.05403,1.57080,-3.01912,-0.09677,-0.44240,0.38672,,
4.2512,1,DESCENDING,0.0000,1.35075,0.48240,-2.10714,0.05403,1.57080,-3.01912,-0.09677,-0.44240,0.38672,,
4.2516,1,DESCENDING,0.0000,1.35075,0.48240,-2.10714,0.05403,1.57080,-3.01912,-0.09677,-0.44240,0.38672,,
4.2519,1,DESCENDING,0.0000,1.35075,0.48240,-2.10714,0.05403,1.57080,-3.01912,-0.09677,-0.44240,0.38672,,
4.3520,1,DESCENDING,0.0000,1.35075,0.48239,-2.10736,0.05426,1.57080,-3.01912,-0.09677,-0.44240,0.38659,,
4.3524,1,DESCENDING,0.0000,1.35075,0.48239,-2.10736,0.05426,1.57080,-3.01912,-0.09677,-0.44240,0.38659,,
4.3528,1,DESCENDING,0.0000,1.35075,0.48239,-2.10737,0.05427,1.57080,-3.01912,-0.09677,-0.44240,0.38658,,
4.3531,1,DESCENDING,0.0000,1.35075,0.48239,-2.10737,0.05427,1.57080,-3.01912,-0.09677,-0.44240,0.38658,,
4.3534,1,DESCENDING,0.0000,1.35075,0.48239,-2.10737,0.05427,1.57080,-3.01912,-0.09677,-0.44240,0.38658,,
4.3539,1,DESCENDING,0.0000,1.35075,0.48239,-2.10737,0.05427,1.57080,-3.01912,-0.09677,-0.44240,0.38658,,
4.3544,1,DESCENDING,0.0000,1.35075,0.48239,-2.10737,0.05427,1.57080,-3.01912,-0.09677,-0.44240,0.38658,,
4.4542,1,DESCENDING,0.0000,1.35075,0.48237,-2.10760,0.05452,1.57080,-3.01912,-0.09677,-0.44240,0.38645,,
4.4546,1,DESCENDING,0.0000,1.35075,0.48237,-2.10760,0.05452,1.57080,-3.01912,-0.09677,-0.44240,0.38645,,
4.4550,1,DESCENDING,0.0000,1.35075,0.48237,-2.10760,0.05452,1.57080,-3.01912,-0.09677,-0.44240,0.38645,,
4.4553,1,DESCENDING,0.0000,1.35075,0.48237,-2.10760,0.05452,1.57080,-3.01912,-0.09677,-0.44240,0.38645,,
4.4557,1,DESCENDING,0.0000,1.35075,0.48237,-2.10760,0.05452,1.57080,-3.01912,-0.09677,-0.44240,0.38645,,
4.4560,1,DESCENDING,0.0000,1.35075,0.48237,-2.10760,0.05452,1.57080,-3.01912,-0.09677,-0.44240,0.38645,,
4.4567,1,DESCENDING,0.0000,1.35075,0.48237,-2.10762,0.05454,1.57080,-3.01912,-0.09677,-0.44240,0.38644,,
4.5572,1,DESCENDING,0.0000,1.35075,0.48236,-2.10785,0.05478,1.57080,-3.01912,-0.09677,-0.44240,0.38630,,
4.5577,1,DESCENDING,0.0000,1.35075,0.48236,-2.10785,0.05478,1.57080,-3.01912,-0.09677,-0.44240,0.38630,,
4.5579,1,DESCENDING,0.0000,1.35075,0.48236,-2.10785,0.05478,1.57080,-3.01912,-0.09677,-0.44240,0.38630,,
4.5582,1,DESCENDING,0.0000,1.35075,0.48236,-2.10785,0.05478,1.57080,-3.01912,-0.09677,-0.44240,0.38630,,
4.5585,1,DESCENDING,0.0000,1.35075,0.48236,-2.10785,0.05478,1.57080,-3.01912,-0.09677,-0.44240,0.38630,,
4.6591,1,DESCENDING,0.0000,1.35075,0.48234,-2.10808,0.05502,1.57080,-3.01912,-0.09677,-0.44240,0.38617,,
4.6595,1,DESCENDING,0.0000,1.35075,0.48234,-2.10808,0.05502,1.57080,-3.01912,-0.09677,-0.44240,0.38617,,
4.6598,1,DESCENDING,0.0000,1.35075,0.48234,-2.10808,0.05502,1.57080,-3.01912,-0.09677,-0.44240,0.38617,,
4.6600,1,DESCENDING,0.0000,1.35075,0.48234,-2.10808,0.05502,1.57080,-3.01912,-0.09677,-0.44240,0.38617,,
4.6609,1,DESCENDING,0.0000,1.35075,0.48234,-2.10809,0.05504,1.57080,-3.01912,-0.09677,-0.44240,0.38616,,
4.6614,1,DESCENDING,0.0000,1.35075,0.48234,-2.10809,0.05504,1.57080,-3.01912,-0.09677,-0.44240,0.38616,,
4.6617,1,DESCENDING,0.0000,1.35075,0.48234,-2.10809,0.05504,1.57080,-3.01912,-0.09677,-0.44240,0.38616,,
4.6621,1,DESCENDING,0.0000,1.35075,0.48234,-2.10809,0.05504,1.57080,-3.01912,-0.09677,-0.44240,0.38616,,
4.7614,1,DESCENDING,0.0000,1.35075,0.48233,-2.10832,0.05528,1.57080,-3.01912,-0.09677,-0.44240,0.38603,,
4.7618,1,DESCENDING,0.0000,1.35075,0.48233,-2.10832,0.05528,1.57080,-3.01912,-0.09677,-0.44240,0.38603,,
4.7620,1,DESCENDING,0.0000,1.35075,0.48233,-2.10832,0.05528,1.57080,-3.01912,-0.09677,-0.44240,0.38603,,
4.7624,1,DESCENDING,0.0000,1.35075,0.48233,-2.10832,0.05528,1.57080,-3.01912,-0.09677,-0.44240,0.38603,,
4.7629,1,DESCENDING,0.0000,1.35075,0.48233,-2.10832,0.05528,1.57080,-3.01912,-0.09677,-0.44240,0.38603,,
4.7631,1,DESCENDING,0.0000,1.35075,0.48233,-2.10832,0.05528,1.57080,-3.01912,-0.09677,-0.44240,0.38603,,
4.7636,1,DESCENDING,0.0000,1.35075,0.48233,-2.10832,0.05528,1.57080,-3.01912,-0.09677,-0.44240,0.38603,,
4.8639,1,DESCENDING,0.0000,1.35075,0.48231,-2.10854,0.05551,1.57080,-3.01912,-0.09677,-0.44240,0.38590,,
4.8643,1,DESCENDING,0.0000,1.35075,0.48231,-2.10854,0.05551,1.57080,-3.01912,-0.09677,-0.44240,0.38590,,
4.8646,1,DESCENDING,0.0000,1.35075,0.48231,-2.10854,0.05551,1.57080,-3.01912,-0.09677,-0.44240,0.38590,,
4.8651,1,DESCENDING,0.0000,1.35075,0.48231,-2.10855,0.05552,1.57080,-3.01912,-0.09677,-0.44240,0.38589,,
4.8657,1,DESCENDING,0.0000,1.35075,0.48231,-2.10855,0.05552,1.57080,-3.01912,-0.09677,-0.44240,0.38589,,
4.8661,1,DESCENDING,0.0000,1.35075,0.48231,-2.10855,0.05552,1.57080,-3.01912,-0.09677,-0.44240,0.38589,,
4.8664,1,DESCENDING,0.0000,1.35075,0.48231,-2.10855,0.05552,1.57080,-3.01912,-0.09677,-0.44240,0.38589,,
4.9662,1,DESCENDING,0.0000,1.35075,0.48230,-2.10877,0.05576,1.57080,-3.01912,-0.09677,-0.44240,0.38576,,
4.9665,1,DESCENDING,0.0000,1.35075,0.48230,-2.10877,0.05576,1.57080,-3.01912,-0.09677,-0.44240,0.38576,,
5.0702,1,DESCENDING,0.0000,1.35075,0.48228,-2.10899,0.05599,1.57080,-3.01912,-0.09677,-0.44240,0.38563,,
5.0743,1,DESCENDING,0.0000,1.35075,0.48228,-2.10900,0.05600,1.57080,-3.01912,-0.09677,-0.44240,0.38563,,
5.0746,1,DESCENDING,0.0000,1.35075,0.48228,-2.10900,0.05600,1.57080,-3.01912,-0.09677,-0.44240,0.38563,,
5.1717,1,DESCENDING,0.0000,1.35075,0.48227,-2.10923,0.05625,1.57080,-3.01912,-0.09677,-0.44240,0.38549,,
5.1721,1,DESCENDING,0.0000,1.35075,0.48227,-2.10923,0.05625,1.57080,-3.01912,-0.09677,-0.44240,0.38549,,
5.1725,1,DESCENDING,0.0000,1.35075,0.48227,-2.10923,0.05625,1.57080,-3.01912,-0.09677,-0.44240,0.38549,,
5.1732,1,DESCENDING,0.0000,1.35075,0.48227,-2.10924,0.05626,1.57080,-3.01912,-0.09677,-0.44240,0.38549,,
5.1736,1,DESCENDING,0.0000,1.35075,0.48227,-2.10924,0.05626,1.57080,-3.01912,-0.09677,-0.44240,0.38549,,
5.1739,1,DESCENDING,0.0000,1.35075,0.48227,-2.10924,0.05626,1.57080,-3.01912,-0.09677,-0.44240,0.38549,,
5.2736,1,DESCENDING,0.0000,1.35075,0.48225,-2.10947,0.05650,1.57080,-3.01912,-0.09677,-0.44240,0.38536,,
5.2741,1,DESCENDING,0.0000,1.35075,0.48225,-2.10947,0.05650,1.57080,-3.01912,-0.09677,-0.44240,0.38536,,
5.2744,1,DESCENDING,0.0000,1.35075,0.48225,-2.10947,0.05650,1.57080,-3.01912,-0.09677,-0.44240,0.38536,,
5.2749,1,DESCENDING,0.0000,1.35075,0.48225,-2.10947,0.05650,1.57080,-3.01912,-0.09677,-0.44240,0.38536,,
5.2753,1,DESCENDING,0.0000,1.35075,0.48225,-2.10947,0.05650,1.57080,-3.01912,-0.09677,-0.44240,0.38536,,
5.3760,1,DESCENDING,0.0000,1.35075,0.48224,-2.10968,0.05673,1.57080,-3.01912,-0.09677,-0.44240,0.38523,,
5.3764,1,DESCENDING,0.0000,1.35075,0.48224,-2.10968,0.05673,1.57080,-3.01912,-0.09677,-0.44240,0.38523,,
5.3768,1,DESCENDING,0.0000,1.35075,0.48224,-2.10968,0.05673,1.57080,-3.01912,-0.09677,-0.44240,0.38523,,
5.3772,1,DESCENDING,0.0000,1.35075,0.48224,-2.10969,0.05673,1.57080,-3.01912,-0.09677,-0.44240,0.38523,,
5.3775,1,DESCENDING,0.0000,1.35075,0.48224,-2.10969,0.05673,1.57080,-3.01912,-0.09677,-0.44240,0.38523,,
5.3785,1,DESCENDING,0.0000,1.35075,0.48224,-2.10969,0.05673,1.57080,-3.01912,-0.09677,-0.44240,0.38523,,
5.4785,1,DESCENDING,0.0000,1.35075,0.48223,-2.10992,0.05698,1.57080,-3.01912,-0.09677,-0.44240,0.38509,,
5.4789,1,DESCENDING,0.0000,1.35075,0.48223,-2.10992,0.05698,1.57080,-3.01912,-0.09677,-0.44240,0.38509,,
5.4793,1,DESCENDING,0.0000,1.35075,0.48223,-2.10992,0.05698,1.57080,-3.01912,-0.09677,-0.44240,0.38509,,
5.4797,1,DESCENDING,0.0000,1.35075,0.48223,-2.10992,0.05698,1.57080,-3.01912,-0.09677,-0.44240,0.38509,,
5.4799,1,DESCENDING,0.0000,1.35075,0.48223,-2.10992,0.05698,1.57080,-3.01912,-0.09677,-0.44240,0.38509,,
5.4802,1,DESCENDING,0.0000,1.35075,0.48223,-2.10992,0.05698,1.57080,-3.01912,-0.09677,-0.44240,0.38509,,
5.4807,1,DESCENDING,0.0000,1.35075,0.48223,-2.10992,0.05698,1.57080,-3.01912,-0.09677,-0.44240,0.38509,,
5.4812,1,DESCENDING,0.0000,1.35075,0.48223,-2.10993,0.05699,1.57080,-3.01912,-0.09677,-0.44240,0.38508,,
5.5812,1,DESCENDING,0.0000,1.35075,0.48221,-2.11013,0.05721,1.57080,-3.01912,-0.09677,-0.44240,0.38497,,
5.5818,1,DESCENDING,0.0000,1.35075,0.48221,-2.11013,0.05721,1.57080,-3.01912,-0.09677,-0.44240,0.38497,,
5.5851,1,DESCENDING,0.0000,1.35075,0.48221,-2.11013,0.05721,1.57080,-3.01912,-0.09677,-0.44240,0.38497,,
5.6832,1,DESCENDING,0.0000,1.35075,0.48220,-2.11038,0.05747,1.57080,-3.01912,-0.09677,-0.44240,0.38482,,
5.6836,1,DESCENDING,0.0000,1.35075,0.48220,-2.11038,0.05747,1.57080,-3.01912,-0.09677,-0.44240,0.38482,,
5.7857,1,DESCENDING,0.0000,1.35075,0.48218,-2.11061,0.05772,1.57080,-3.01912,-0.09677,-0.44240,0.38468,,
5.7861,1,DESCENDING,0.0000,1.35075,0.48218,-2.11061,0.05772,1.57080,-3.01912,-0.09677,-0.44240,0.38468,,
5.7865,1,DESCENDING,0.0000,1.35075,0.48218,-2.11061,0.05772,1.57080,-3.01912,-0.09677,-0.44240,0.38468,,
5.7869,1,DESCENDING,0.0000,1.35075,0.48218,-2.11061,0.05772,1.57080,-3.01912,-0.09677,-0.44240,0.38468,,
5.7873,1,DESCENDING,0.0000,1.35075,0.48218,-2.11061,0.05772,1.57080,-3.01912,-0.09677,-0.44240,0.38468,,
5.7877,1,DESCENDING,0.0000,1.35075,0.48218,-2.11061,0.05772,1.57080,-3.01912,-0.09677,-0.44240,0.38468,,
5.7881,1,DESCENDING,0.0000,1.35075,0.48218,-2.11061,0.05772,1.57080,-3.01912,-0.09677,-0.44240,0.38468,,
5.7884,1,DESCENDING,0.0000,1.35075,0.48218,-2.11061,0.05772,1.57080,-3.01912,-0.09677,-0.44240,0.38468,,
5.7890,1,DESCENDING,0.0000,1.35075,0.48218,-2.11061,0.05772,1.57080,-3.01912,-0.09677,-0.44240,0.38468,,
5.7894,1,DESCENDING,0.0000,1.35075,0.48218,-2.11061,0.05772,1.57080,-3.01912,-0.09677,-0.44240,0.38468,,
5.8879,1,DESCENDING,0.0000,1.35075,0.48217,-2.11083,0.05795,1.57080,-3.01912,-0.09677,-0.44240,0.38456,,
5.8882,1,DESCENDING,0.0000,1.35075,0.48217,-2.11083,0.05795,1.57080,-3.01912,-0.09677,-0.44240,0.38456,,
5.8889,1,DESCENDING,0.0000,1.35075,0.48217,-2.11083,0.05795,1.57080,-3.01912,-0.09677,-0.44240,0.38455,,
5.8891,1,DESCENDING,0.0000,1.35075,0.48217,-2.11083,0.05795,1.57080,-3.01912,-0.09677,-0.44240,0.38455,,
5.8894,1,DESCENDING,0.0000,1.35075,0.48217,-2.11083,0.05795,1.57080,-3.01912,-0.09677,-0.44240,0.38455,,
5.8899,1,DESCENDING,0.0000,1.35075,0.48217,-2.11083,0.05795,1.57080,-3.01912,-0.09677,-0.44240,0.38455,,
5.8902,1,DESCENDING,0.0000,1.35075,0.48217,-2.11083,0.05795,1.57080,-3.01912,-0.09677,-0.44240,0.38455,,
5.8905,1,DESCENDING,0.0000,1.35075,0.48217,-2.11083,0.05795,1.57080,-3.01912,-0.09677,-0.44240,0.38455,,
5.8908,1,DESCENDING,0.0000,1.35075,0.48217,-2.11083,0.05795,1.57080,-3.01912,-0.09677,-0.44240,0.38455,,
5.8911,1,DESCENDING,0.0000,1.35075,0.48217,-2.11083,0.05795,1.57080,-3.01912,-0.09677,-0.44240,0.38455,,
5.8915,1,DESCENDING,0.0000,1.35075,0.48217,-2.11083,0.05795,1.57080,-3.01912,-0.09677,-0.44240,0.38455,,
5.8918,1,DESCENDING,0.0000,1.35075,0.48217,-2.11083,0.05795,1.57080,-3.01912,-0.09677,-0.44240,0.38455,,
5.8922,1,DESCENDING,0.0000,1.35075,0.48217,-2.11083,0.05795,1.57080,-3.01912,-0.09677,-0.44240,0.38455,,
5.8936,1,DESCENDING,0.0000,1.35075,0.48217,-2.11084,0.05796,1.57080,-3.01912,-0.09677,-0.44240,0.38455,,
5.9909,1,DESCENDING,0.0000,1.35075,0.48215,-2.11106,0.05820,1.57080,-3.01912,-0.09677,-0.44240,0.38442,,
5.9913,1,DESCENDING,0.0000,1.35075,0.48215,-2.11106,0.05820,1.57080,-3.01912,-0.09677,-0.44240,0.38442,,
5.9917,1,DESCENDING,0.0000,1.35075,0.48215,-2.11106,0.05820,1.57080,-3.01912,-0.09677,-0.44240,0.38442,,
5.9919,1,DESCENDING,0.0000,1.35075,0.48215,-2.11106,0.05820,1.57080,-3.01912,-0.09677,-0.44240,0.38442,,
5.9931,1,DESCENDING,0.0000,1.35075,0.48215,-2.11108,0.05821,1.57080,-3.01912,-0.09677,-0.44240,0.38441,,
5.9937,1,DESCENDING,0.0000,1.35075,0.48215,-2.11108,0.05821,1.57080,-3.01912,-0.09677,-0.44240,0.38441,,
5.9940,1,DESCENDING,0.0000,1.35075,0.48215,-2.11108,0.05821,1.57080,-3.01912,-0.09677,-0.44240,0.38441,,
5.9944,1,DESCENDING,0.0000,1.35075,0.48215,-2.11108,0.05821,1.57080,-3.01912,-0.09677,-0.44240,0.38441,,
5.9947,1,DESCENDING,0.0000,1.35075,0.48215,-2.11108,0.05821,1.57080,-3.01912,-0.09677,-0.44240,0.38441,,
6.0989,1,DESCENDING,0.0000,1.35075,0.48214,-2.11129,0.05843,1.57080,-3.01912,-0.09677,-0.44240,0.38429,,
6.1951,1,DESCENDING,0.0000,1.35075,0.48212,-2.11152,0.05869,1.57080,-3.01912,-0.09677,-0.44240,0.38415,,
6.1960,1,DESCENDING,0.0000,1.35075,0.48212,-2.11152,0.05869,1.57080,-3.01912,-0.09677,-0.44240,0.38415,,
6.1963,1,DESCENDING,0.0000,1.35075,0.48212,-2.11152,0.05869,1.57080,-3.01912,-0.09677,-0.44240,0.38415,,
6.1972,1,DESCENDING,0.0000,1.35075,0.48212,-2.11154,0.05870,1.57080,-3.01912,-0.09677,-0.44240,0.38414,,
6.1976,1,DESCENDING,0.0000,1.35075,0.48212,-2.11154,0.05870,1.57080,-3.01912,-0.09677,-0.44240,0.38414,,
6.1984,1,DESCENDING,0.0000,1.35075,0.48212,-2.11154,0.05870,1.57080,-3.01912,-0.09677,-0.44240,0.38414,,
6.2975,1,DESCENDING,0.0000,1.35075,0.48210,-2.11179,0.05897,1.57080,-3.01912,-0.09677,-0.44240,0.38399,,
6.2978,1,DESCENDING,0.0000,1.35075,0.48210,-2.11179,0.05897,1.57080,-3.01912,-0.09677,-0.44240,0.38399,,
6.3001,1,DESCENDING,0.0000,1.35075,0.48210,-2.11179,0.05897,1.57080,-3.01912,-0.09677,-0.44240,0.38399,,
6.3012,1,DESCENDING,0.0000,1.35075,0.48210,-2.11179,0.05897,1.57080,-3.01912,-0.09677,-0.44240,0.38399,,
6.3016,1,DESCENDING,0.0000,1.35075,0.48210,-2.11179,0.05897,1.57080,-3.01912,-0.09677,-0.44240,0.38399,,
6.3018,1,DESCENDING,0.0000,1.35075,0.48210,-2.11179,0.05897,1.57080,-3.01912,-0.09677,-0.44240,0.38399,,
6.3021,1,DESCENDING,0.0000,1.35075,0.48210,-2.11179,0.05897,1.57080,-3.01912,-0.09677,-0.44240,0.38399,,
6.3024,1,DESCENDING,0.0000,1.35075,0.48210,-2.11179,0.05897,1.57080,-3.01912,-0.09677,-0.44240,0.38399,,
6.3244,1,DESCENDING,0.0000,1.35075,0.48210,-2.11184,0.05903,1.57080,-3.01912,-0.09677,-0.44240,0.38396,,
6.4000,1,DESCENDING,0.0000,1.35075,0.48209,-2.11201,0.05920,1.57080,-3.01912,-0.09677,-0.44240,0.38387,,
6.4007,1,DESCENDING,0.0000,1.35075,0.48209,-2.11201,0.05920,1.57080,-3.01912,-0.09677,-0.44240,0.38387,,
6.4012,1,DESCENDING,0.0000,1.35075,0.48209,-2.11201,0.05921,1.57080,-3.01912,-0.09677,-0.44240,0.38386,,
6.5023,1,DESCENDING,0.0000,1.35075,0.48207,-2.11224,0.05945,1.57080,-3.01912,-0.09677,-0.44240,0.38373,,
6.5027,1,DESCENDING,0.0000,1.35075,0.48207,-2.11224,0.05945,1.57080,-3.01912,-0.09677,-0.44240,0.38373,,
6.5030,1,DESCENDING,0.0000,1.35075,0.48207,-2.11224,0.05945,1.57080,-3.01912,-0.09677,-0.44240,0.38373,,
6.5033,1,DESCENDING,0.0000,1.35075,0.48207,-2.11224,0.05945,1.57080,-3.01912,-0.09677,-0.44240,0.38373,,
6.5037,1,DESCENDING,0.0000,1.35075,0.48207,-2.11224,0.05945,1.57080,-3.01912,-0.09677,-0.44240,0.38373,,
6.5040,1,DESCENDING,0.0000,1.35075,0.48207,-2.11224,0.05945,1.57080,-3.01912,-0.09677,-0.44240,0.38373,,
6.5044,1,DESCENDING,0.0000,1.35075,0.48207,-2.11224,0.05945,1.57080,-3.01912,-0.09677,-0.44240,0.38373,,
6.6049,1,DESCENDING,0.0000,1.35075,0.48206,-2.11246,0.05968,1.57080,-3.01912,-0.09677,-0.44240,0.38361,,
6.6075,1,DESCENDING,0.0000,1.35075,0.48206,-2.11246,0.05968,1.57080,-3.01912,-0.09677,-0.44240,0.38360,,
6.6078,1,DESCENDING,0.0000,1.35075,0.48206,-2.11246,0.05968,1.57080,-3.01912,-0.09677,-0.44240,0.38360,,
6.6084,1,DESCENDING,0.0000,1.35075,0.48206,-2.11246,0.05968,1.57080,-3.01912,-0.09677,-0.44240,0.38360,,
6.6087,1,DESCENDING,0.0000,1.35075,0.48206,-2.11246,0.05968,1.57080,-3.01912,-0.09677,-0.44240,0.38360,,
6.7073,1,DESCENDING,0.0000,1.35075,0.48204,-2.11269,0.05993,1.57080,-3.01912,-0.09677,-0.44240,0.38347,,
6.7078,1,DESCENDING,0.0000,1.35075,0.48204,-2.11269,0.05993,1.57080,-3.01912,-0.09677,-0.44240,0.38347,,
6.7081,1,DESCENDING,0.0000,1.35075,0.48204,-2.11269,0.05993,1.57080,-3.01912,-0.09677,-0.44240,0.38347,,
6.7085,1,DESCENDING,0.0000,1.35075,0.48204,-2.11269,0.05993,1.57080,-3.01912,-0.09677,-0.44240,0.38347,,
6.7088,1,DESCENDING,0.0000,1.35075,0.48204,-2.11269,0.05993,1.57080,-3.01912,-0.09677,-0.44240,0.38347,,
6.7093,1,DESCENDING,0.0000,1.35075,0.48204,-2.11269,0.05993,1.57080,-3.01912,-0.09677,-0.44240,0.38347,,
6.7096,1,DESCENDING,0.0000,1.35075,0.48204,-2.11269,0.05993,1.57080,-3.01912,-0.09677,-0.44240,0.38347,,
6.7100,1,DESCENDING,0.0000,1.35075,0.48204,-2.11270,0.05994,1.57080,-3.01912,-0.09677,-0.44240,0.38346,,
6.8102,1,DESCENDING,0.0000,1.35075,0.48203,-2.11294,0.06019,1.57080,-3.01912,-0.09677,-0.44240,0.38332,,
6.8105,1,DESCENDING,0.0000,1.35075,0.48203,-2.11294,0.06019,1.57080,-3.01912,-0.09677,-0.44240,0.38332,,
6.8107,1,DESCENDING,0.0000,1.35075,0.48203,-2.11294,0.06019,1.57080,-3.01912,-0.09677,-0.44240,0.38332,,
6.8110,1,DESCENDING,0.0000,1.35075,0.48203,-2.11294,0.06019,1.57080,-3.01912,-0.09677,-0.44240,0.38332,,
6.8113,1,DESCENDING,0.0000,1.35075,0.48203,-2.11294,0.06019,1.57080,-3.01912,-0.09677,-0.44240,0.38332,,
6.8117,1,DESCENDING,0.0000,1.35075,0.48203,-2.11294,0.06019,1.57080,-3.01912,-0.09677,-0.44240,0.38332,,
6.8120,1,DESCENDING,0.0000,1.35075,0.48203,-2.11294,0.06019,1.57080,-3.01912,-0.09677,-0.44240,0.38332,,
6.8124,1,DESCENDING,0.0000,1.35075,0.48203,-2.11294,0.06019,1.57080,-3.01912,-0.09677,-0.44240,0.38332,,
6.9118,1,DESCENDING,0.0000,1.35075,0.48201,-2.11313,0.06040,1.57080,-3.01912,-0.09677,-0.44240,0.38321,,
6.9122,1,DESCENDING,0.0000,1.35075,0.48201,-2.11313,0.06040,1.57080,-3.01912,-0.09677,-0.44240,0.38321,,
6.9125,1,DESCENDING,0.0000,1.35075,0.48201,-2.11313,0.06040,1.57080,-3.01912,-0.09677,-0.44240,0.38321,,
6.9129,1,DESCENDING,0.0000,1.35075,0.48201,-2.11313,0.06040,1.57080,-3.01912,-0.09677,-0.44240,0.38321,,
6.9133,1,DESCENDING,0.0000,1.35075,0.48201,-2.11313,0.06040,1.57080,-3.01912,-0.09677,-0.44240,0.38321,,
6.9139,1,DESCENDING,0.0000,1.35075,0.48201,-2.11314,0.06041,1.57080,-3.01912,-0.09677,-0.44240,0.38320,,
7.0142,1,DESCENDING,0.0000,1.35075,0.48200,-2.11337,0.06066,1.57080,-3.01912,-0.09677,-0.44240,0.38307,,
7.0145,1,DESCENDING,0.0000,1.35075,0.48200,-2.11337,0.06066,1.57080,-3.01912,-0.09677,-0.44240,0.38307,,
7.0159,1,DESCENDING,0.0000,1.35075,0.48200,-2.11337,0.06066,1.57080,-3.01912,-0.09677,-0.44240,0.38307,,
7.0164,1,DESCENDING,0.0000,1.35075,0.48200,-2.11337,0.06066,1.57080,-3.01912,-0.09677,-0.44240,0.38307,,
7.0229,1,DESCENDING,0.0000,1.35075,0.48200,-2.11338,0.06067,1.57080,-3.01912,-0.09677,-0.44240,0.38306,,
7.0236,1,DESCENDING,0.0000,1.35075,0.48200,-2.11338,0.06067,1.57080,-3.01912,-0.09677,-0.44240,0.38306,,
7.1171,1,DESCENDING,0.0000,1.35075,0.48198,-2.11360,0.06090,1.57080,-3.01912,-0.09677,-0.44240,0.38293,,
7.1178,1,DESCENDING,0.0000,1.35075,0.48198,-2.11360,0.06090,1.57080,-3.01912,-0.09677,-0.44240,0.38293,,
7.1188,1,DESCENDING,0.0000,1.35075,0.48198,-2.11360,0.06090,1.57080,-3.01912,-0.09677,-0.44240,0.38293,,
7.1193,1,DESCENDING,0.0000,1.35075,0.48198,-2.11360,0.06090,1.57080,-3.01912,-0.09677,-0.44240,0.38293,,
7.1199,1,DESCENDING,0.0000,1.35075,0.48198,-2.11360,0.06090,1.57080,-3.01912,-0.09677,-0.44240,0.38293,,
7.2191,1,DESCENDING,0.0000,1.35075,0.48197,-2.11384,0.06116,1.57080,-3.01912,-0.09677,-0.44240,0.38279,,
7.2194,1,DESCENDING,0.0000,1.35075,0.48197,-2.11384,0.06116,1.57080,-3.01912,-0.09677,-0.44240,0.38279,,
7.2196,1,DESCENDING,0.0000,1.35075,0.48197,-2.11384,0.06116,1.57080,-3.01912,-0.09677,-0.44240,0.38279,,
7.2200,1,DESCENDING,0.0000,1.35075,0.48197,-2.11384,0.06116,1.57080,-3.01912,-0.09677,-0.44240,0.38279,,
7.3216,1,DESCENDING,0.0000,1.35075,0.48195,-2.11407,0.06141,1.57080,-3.01912,-0.09677,-0.44240,0.38266,,
7.3221,1,DESCENDING,0.0000,1.35075,0.48195,-2.11409,0.06143,1.57080,-3.01912,-0.09677,-0.44240,0.38265,,
7.3224,1,DESCENDING,0.0000,1.35075,0.48195,-2.11409,0.06143,1.57080,-3.01912,-0.09677,-0.44240,0.38265,,
7.3227,1,DESCENDING,0.0000,1.35075,0.48195,-2.11409,0.06143,1.57080,-3.01912,-0.09677,-0.44240,0.38265,,
7.3230,1,DESCENDING,0.0000,1.35075,0.48195,-2.11409,0.06143,1.57080,-3.01912,-0.09677,-0.44240,0.38265,,
7.3235,1,DESCENDING,0.0000,1.35075,0.48195,-2.11409,0.06143,1.57080,-3.01912,-0.09677,-0.44240,0.38265,,
7.3238,1,DESCENDING,0.0000,1.35075,0.48195,-2.11409,0.06143,1.57080,-3.01912,-0.09677,-0.44240,0.38265,,
7.3244,1,DESCENDING,0.0000,1.35075,0.48195,-2.11409,0.06143,1.57080,-3.01912,-0.09677,-0.44240,0.38265,,
7.3250,1,DESCENDING,0.0000,1.35075,0.48195,-2.11409,0.06143,1.57080,-3.01912,-0.09677,-0.44240,0.38265,,
7.4242,1,DESCENDING,0.0000,1.35075,0.48193,-2.11428,0.06163,1.57080,-3.01912,-0.09677,-0.44240,0.38253,,
7.4246,1,DESCENDING,0.0000,1.35075,0.48193,-2.11428,0.06163,1.57080,-3.01912,-0.09677,-0.44240,0.38253,,
7.4249,1,DESCENDING,0.0000,1.35075,0.48193,-2.11428,0.06163,1.57080,-3.01912,-0.09677,-0.44240,0.38253,,
7.4251,1,DESCENDING,0.0000,1.35075,0.48193,-2.11428,0.06163,1.57080,-3.01912,-0.09677,-0.44240,0.38253,,
7.5264,1,DESCENDING,0.0000,1.35075,0.48192,-2.11452,0.06189,1.57080,-3.01912,-0.09677,-0.44240,0.38239,,
7.5268,1,DESCENDING,0.0000,1.35075,0.48192,-2.11452,0.06189,1.57080,-3.01912,-0.09677,-0.44240,0.38239,,
7.5273,1,DESCENDING,0.0000,1.35075,0.48192,-2.11452,0.06189,1.57080,-3.01912,-0.09677,-0.44240,0.38239,,
7.5276,1,DESCENDING,0.0000,1.35075,0.48192,-2.11452,0.06189,1.57080,-3.01912,-0.09677,-0.44240,0.38239,,
7.5280,1,DESCENDING,0.0000,1.35075,0.48192,-2.11452,0.06189,1.57080,-3.01912,-0.09677,-0.44240,0.38239,,
7.5284,1,DESCENDING,0.0000,1.35075,0.48192,-2.11452,0.06189,1.57080,-3.01912,-0.09677,-0.44240,0.38239,,
7.6315,1,DESCENDING,0.0000,1.35075,0.48190,-2.11475,0.06214,1.57080,-3.01912,-0.09677,-0.44240,0.38226,,
7.6318,1,DESCENDING,0.0000,1.35075,0.48190,-2.11475,0.06214,1.57080,-3.01912,-0.09677,-0.44240,0.38226,,
7.6321,1,DESCENDING,0.0000,1.35075,0.48190,-2.11475,0.06214,1.57080,-3.01912,-0.09677,-0.44240,0.38226,,
7.6326,1,DESCENDING,0.0000,1.35075,0.48190,-2.11475,0.06214,1.57080,-3.01912,-0.09677,-0.44240,0.38226,,
7.6331,1,DESCENDING,0.0000,1.35075,0.48190,-2.11475,0.06214,1.57080,-3.01912,-0.09677,-0.44240,0.38226,,
7.6334,1,DESCENDING,0.0000,1.35075,0.48190,-2.11475,0.06214,1.57080,-3.01912,-0.09677,-0.44240,0.38226,,
7.6344,1,DESCENDING,0.0000,1.35075,0.48190,-2.11476,0.06214,1.57080,-3.01912,-0.09677,-0.44240,0.38225,,
7.7310,1,DESCENDING,0.0000,1.35075,0.48189,-2.11498,0.06238,1.57080,-3.01912,-0.09677,-0.44240,0.38212,,
7.7314,1,DESCENDING,0.0000,1.35075,0.48189,-2.11498,0.06238,1.57080,-3.01912,-0.09677,-0.44240,0.38212,,
7.7317,1,DESCENDING,0.0000,1.35075,0.48189,-2.11498,0.06238,1.57080,-3.01912,-0.09677,-0.44240,0.38212,,
7.7322,1,DESCENDING,0.0000,1.35075,0.48189,-2.11498,0.06238,1.57080,-3.01912,-0.09677,-0.44240,0.38212,,
7.7324,1,DESCENDING,0.0000,1.35075,0.48189,-2.11498,0.06238,1.57080,-3.01912,-0.09677,-0.44240,0.38212,,
7.7329,1,DESCENDING,0.0000,1.35075,0.48189,-2.11498,0.06238,1.57080,-3.01912,-0.09677,-0.44240,0.38212,,
7.8336,1,DESCENDING,0.0000,1.35075,0.48187,-2.11521,0.06263,1.57080,-3.01912,-0.09677,-0.44240,0.38199,,
7.8342,1,DESCENDING,-0.0001,1.35075,0.48187,-2.11521,0.06263,1.57080,-3.01912,-0.09677,-0.44240,0.38199,,
7.8348,1,DESCENDING,-0.0002,1.35075,0.48187,-2.11523,0.06265,1.57080,-3.01912,-0.09677,-0.44240,0.38198,,
7.8353,1,DESCENDING,-0.0003,1.35075,0.48187,-2.11523,0.06265,1.57080,-3.01912,-0.09677,-0.44240,0.38198,,
7.8359,1,DESCENDING,-0.0005,1.35075,0.48187,-2.11523,0.06265,1.57080,-3.01912,-0.09677,-0.44240,0.38198,,
7.8373,1,DESCENDING,-0.0007,1.35075,0.48187,-2.11523,0.06265,1.57080,-3.01912,-0.09677,-0.44240,0.38198,,
7.9359,1,DESCENDING,-0.0010,1.35075,0.48185,-2.11542,0.06285,1.57080,-3.01912,-0.09677,-0.44240,0.38186,,
7.9363,1,DESCENDING,-0.0016,1.35075,0.48185,-2.11542,0.06285,1.57080,-3.01912,-0.09677,-0.44240,0.38186,,
7.9366,1,DESCENDING,-0.0024,1.35075,0.48185,-2.11542,0.06285,1.57080,-3.01912,-0.09677,-0.44240,0.38186,,
7.9369,1,DESCENDING,-0.0033,1.35075,0.48185,-2.11542,0.06285,1.57080,-3.01912,-0.09677,-0.44240,0.38186,,
7.9373,1,DESCENDING,-0.0039,1.35075,0.48185,-2.11542,0.06285,1.57080,-3.01912,-0.09677,-0.44240,0.38186,,
7.9377,1,DESCENDING,-0.0051,1.35075,0.48185,-2.11542,0.06285,1.57080,-3.01912,-0.09677,-0.44240,0.38186,,
8.0391,1,DESCENDING,-0.0080,1.35075,0.48184,-2.11566,0.06311,1.57080,-3.01912,-0.09677,-0.44240,0.38172,,
8.0481,1,DESCENDING,-0.0088,1.35075,0.48184,-2.11568,0.06313,1.57080,-3.01912,-0.09677,-0.44240,0.38171,,
8.0484,1,DESCENDING,-0.0098,1.35075,0.48184,-2.11568,0.06313,1.57080,-3.01912,-0.09677,-0.44240,0.38171,,
8.0488,1,DESCENDING,-0.0107,1.35075,0.48184,-2.11568,0.06313,1.57080,-3.01912,-0.09677,-0.44240,0.38171,,
8.1410,1,DESCENDING,-0.0117,1.35075,0.48182,-2.11589,0.06336,1.57080,-3.01912,-0.09677,-0.44240,0.38159,,
8.1418,1,DESCENDING,-0.0128,1.35075,0.48182,-2.11589,0.06336,1.57080,-3.01912,-0.09677,-0.44240,0.38159,,
8.1421,1,DESCENDING,-0.0139,1.35075,0.48182,-2.11589,0.06336,1.57080,-3.01912,-0.09677,-0.44240,0.38159,,
8.1424,1,DESCENDING,-0.0166,1.35075,0.48182,-2.11589,0.06336,1.57080,-3.01912,-0.09677,-0.44240,0.38159,,
8.1431,1,DESCENDING,-0.0200,1.35075,0.48182,-2.11589,0.06336,1.57080,-3.01912,-0.09677,-0.44240,0.38159,,
8.2433,1,DESCENDING,-0.0242,1.35075,0.48180,-2.11613,0.06361,1.57080,-3.01912,-0.09677,-0.44240,0.38145,,
8.2437,1,DESCENDING,-0.0266,1.35075,0.48180,-2.11613,0.06361,1.57080,-3.01912,-0.09677,-0.44240,0.38145,,
8.2441,1,DESCENDING,-0.0293,1.35075,0.48180,-2.11613,0.06361,1.57080,-3.01912,-0.09677,-0.44240,0.38145,,
8.2445,1,DESCENDING,-0.0322,1.35075,0.48180,-2.11613,0.06361,1.57080,-3.01912,-0.09677,-0.44240,0.38145,,
8.2448,1,DESCENDING,-0.0357,1.35075,0.48180,-2.11613,0.06361,1.57080,-3.01912,-0.09677,-0.44240,0.38145,,
8.2451,1,DESCENDING,-0.0399,1.35075,0.48180,-2.11613,0.06361,1.57080,-3.01912,-0.09677,-0.44240,0.38145,,
8.3455,1,DESCENDING,-0.0503,1.35075,0.48179,-2.11637,0.06386,1.57080,-3.01912,-0.09677,-0.44240,0.38131,,
8.3458,1,DESCENDING,-0.0565,1.35075,0.48179,-2.11637,0.06386,1.57080,-3.01912,-0.09677,-0.44240,0.38131,,
8.3461,1,DESCENDING,-0.0635,1.35075,0.48179,-2.11637,0.06386,1.57080,-3.01912,-0.09677,-0.44240,0.38131,,
8.3465,1,DESCENDING,-0.0794,1.35075,0.48179,-2.11637,0.06386,1.57080,-3.01912,-0.09677,-0.44240,0.38131,,
8.3470,1,DESCENDING,-0.0981,1.35075,0.48179,-2.11638,0.06388,1.57080,-3.01912,-0.09677,-0.44240,0.38130,,
8.3473,1,DESCENDING,-0.1085,1.35075,0.48179,-2.11638,0.06388,1.57080,-3.01912,-0.09677,-0.44240,0.38130,,
8.3483,1,DESCENDING,-0.1315,1.35075,0.48179,-2.11638,0.06388,1.57080,-3.01912,-0.09677,-0.44240,0.38130,,
8.4479,1,DESCENDING,-0.1445,1.35075,0.48177,-2.11657,0.06409,1.57080,-3.01912,-0.09677,-0.44240,0.38119,,
8.4483,1,DESCENDING,-0.1585,1.35075,0.48177,-2.11657,0.06409,1.57080,-3.01912,-0.09677,-0.44240,0.38119,,
8.4485,1,DESCENDING,-0.1737,1.35075,0.48177,-2.11657,0.06409,1.57080,-3.01912,-0.09677,-0.44240,0.38119,,
8.4491,1,DESCENDING,-0.2073,1.35075,0.48177,-2.11657,0.06409,1.57080,-3.01912,-0.09677,-0.44240,0.38119,,
8.4493,1,DESCENDING,-0.2258,1.35075,0.48177,-2.11657,0.06409,1.57080,-3.01912,-0.09677,-0.44240,0.38119,,
8.4496,1,DESCENDING,-0.2661,1.35075,0.48177,-2.11657,0.06409,1.57080,-3.01912,-0.09677,-0.44240,0.38119,,
8.4501,1,DESCENDING,-0.3105,1.35075,0.48177,-2.11657,0.06409,1.57080,-3.01912,-0.09677,-0.44240,0.38119,,
8.4505,1,DESCENDING,-0.3342,1.35075,0.48177,-2.11657,0.06409,1.57080,-3.01912,-0.09677,-0.44240,0.38119,,
8.4509,1,DESCENDING,-0.4104,1.35075,0.48177,-2.11659,0.06410,1.57080,-3.01912,-0.09677,-0.44240,0.38118,,
8.5503,1,DESCENDING,-0.4376,1.35075,0.48176,-2.11680,0.06433,1.57080,-3.01912,-0.09677,-0.44240,0.38105,,
8.5510,1,DESCENDING,-0.4655,1.35075,0.48175,-2.11682,0.06435,1.57080,-3.01912,-0.09677,-0.44240,0.38105,,
8.5513,1,DESCENDING,-0.5240,1.35075,0.48175,-2.11682,0.06435,1.57080,-3.01912,-0.09677,-0.44240,0.38105,,
8.5516,1,DESCENDING,-0.5861,1.35075,0.48175,-2.11682,0.06435,1.57080,-3.01912,-0.09677,-0.44240,0.38105,,
8.5520,1,DESCENDING,-0.6519,1.35075,0.48175,-2.11682,0.06435,1.57080,-3.01912,-0.09677,-0.44240,0.38105,,
8.5526,1,DESCENDING,-0.7201,1.35075,0.48175,-2.11682,0.06435,1.57080,-3.01912,-0.09677,-0.44240,0.38105,,
8.5530,1,DESCENDING,-0.7904,1.35075,0.48175,-2.11682,0.06435,1.57080,-3.01912,-0.09677,-0.44240,0.38105,,
8.6538,1,DESCENDING,-0.8263,1.35075,0.48174,-2.11706,0.06460,1.57080,-3.01912,-0.09677,-0.44240,0.38091,,
8.6543,1,DESCENDING,-0.9359,1.35075,0.48174,-2.11706,0.06460,1.57080,-3.01912,-0.09677,-0.44240,0.38091,,
8.6546,1,DESCENDING,-1.1298,1.35075,0.48174,-2.11706,0.06460,1.57080,-3.01912,-0.09677,-0.44240,0.38091,,
8.6551,1,DESCENDING,-1.2131,1.35075,0.48174,-2.11706,0.06461,1.57080,-3.01912,-0.09677,-0.44240,0.38090,,
8.6554,1,DESCENDING,-1.2560,1.35075,0.48174,-2.11706,0.06461,1.57080,-3.01912,-0.09677,-0.44240,0.38090,,
8.6557,1,DESCENDING,-1.3441,1.35075,0.48174,-2.11706,0.06461,1.57080,-3.01912,-0.09677,-0.44240,0.38090,,
8.7552,1,DESCENDING,-1.3892,1.35075,0.48172,-2.11728,0.06485,1.57080,-3.01912,-0.09677,-0.44240,0.38077,,
8.7556,1,DESCENDING,-1.4812,1.35075,0.48172,-2.11728,0.06485,1.57080,-3.01912,-0.09677,-0.44240,0.38077,,
8.7560,1,DESCENDING,-1.5754,1.35075,0.48172,-2.11728,0.06485,1.57080,-3.01912,-0.09677,-0.44240,0.38077,,
8.7564,1,DESCENDING,-1.6233,1.35075,0.48172,-2.11728,0.06485,1.57080,-3.01912,-0.09677,-0.44240,0.38077,,
8.7569,1,DESCENDING,-1.7204,1.35075,0.48172,-2.11728,0.06485,1.57080,-3.01912,-0.09677,-0.44240,0.38077,,
8.7575,1,DESCENDING,-1.9189,1.35075,0.48172,-2.11728,0.06485,1.57080,-3.01912,-0.09677,-0.44240,0.38077,,
8.8577,1,DESCENDING,-1.9685,1.35075,0.48170,-2.11752,0.06510,1.57080,-3.01912,-0.09677,-0.44240,0.38063,,
8.8580,1,DESCENDING,-2.0664,1.35075,0.48170,-2.11752,0.06510,1.57080,-3.01912,-0.09677,-0.44240,0.38063,,
8.8583,1,DESCENDING,-2.1147,1.35075,0.48170,-2.11752,0.06510,1.57080,-3.01912,-0.09677,-0.44240,0.38063,,
8.8586,1,DESCENDING,-2.2102,1.35075,0.48170,-2.11752,0.06510,1.57080,-3.01912,-0.09677,-0.44240,0.38063,,
8.8590,1,DESCENDING,-2.2575,1.35075,0.48170,-2.11753,0.06511,1.57080,-3.01912,-0.09677,-0.44240,0.38062,,
8.8592,1,DESCENDING,-2.3046,1.35075,0.48170,-2.11753,0.06511,1.57080,-3.01912,-0.09677,-0.44240,0.38062,,
8.8595,1,DESCENDING,-2.3987,1.35075,0.48170,-2.11753,0.06511,1.57080,-3.01912,-0.09677,-0.44240,0.38062,,
8.8599,1,DESCENDING,-2.4455,1.35075,0.48170,-2.11753,0.06511,1.57080,-3.01912,-0.09677,-0.44240,0.38062,,
8.9602,1,DESCENDING,-2.5858,1.35075,0.48169,-2.11773,0.06532,1.57080,-3.01912,-0.09677,-0.44240,0.38051,,
8.9606,1,DESCENDING,-2.6324,1.35075,0.48169,-2.11773,0.06532,1.57080,-3.01912,-0.09677,-0.44240,0.38051,,
8.9610,1,DESCENDING,-2.6789,1.35075,0.48169,-2.11773,0.06532,1.57080,-3.01912,-0.09677,-0.44240,0.38051,,
8.9613,1,DESCENDING,-2.7253,1.35075,0.48169,-2.11773,0.06532,1.57080,-3.01912,-0.09677,-0.44240,0.38051,,
8.9617,1,DESCENDING,-2.7716,1.35075,0.48169,-2.11773,0.06532,1.57080,-3.01912,-0.09677,-0.44240,0.38051,,
8.9619,1,DESCENDING,-2.8178,1.35075,0.48169,-2.11773,0.06532,1.57080,-3.01912,-0.09677,-0.44240,0.38051,,
9.0633,1,DESCENDING,-2.8638,1.35075,0.48167,-2.11797,0.06558,1.57080,-3.01912,-0.09677,-0.44240,0.38037,,
9.0691,1,DESCENDING,-2.9096,1.35075,0.48167,-2.11798,0.06560,1.57080,-3.01912,-0.09677,-0.44240,0.38036,,
9.0695,1,DESCENDING,-2.9552,1.35075,0.48167,-2.11798,0.06560,1.57080,-3.01912,-0.09677,-0.44240,0.38036,,
9.0698,1,DESCENDING,-3.0006,1.35075,0.48167,-2.11798,0.06560,1.57080,-3.01912,-0.09677,-0.44240,0.38036,,
9.0703,1,DESCENDING,-3.0911,1.35075,0.48167,-2.11798,0.06560,1.57080,-3.01912,-0.09677,-0.44240,0.38036,,
9.1648,1,DESCENDING,-3.1361,1.35075,0.48165,-2.11821,0.06584,1.57080,-3.01912,-0.09677,-0.44240,0.38023,,
9.1652,1,DESCENDING,-3.1810,1.35075,0.48165,-2.11821,0.06584,1.57080,-3.01912,-0.09677,-0.44240,0.38023,,
9.1655,1,DESCENDING,-3.3157,1.35075,0.48165,-2.11821,0.06584,1.57080,-3.01912,-0.09677,-0.44240,0.38023,,
9.1658,1,DESCENDING,-3.4975,1.35075,0.48165,-2.11821,0.06584,1.57080,-3.01912,-0.09677,-0.44240,0.38023,,
9.1662,1,DESCENDING,-3.5437,1.35075,0.48165,-2.11821,0.06584,1.57080,-3.01912,-0.09677,-0.44240,0.38023,,
9.1674,1,DESCENDING,-3.5906,1.35075,0.48165,-2.11821,0.06584,1.57080,-3.01912,-0.09677,-0.44240,0.38023,,
9.1680,1,DESCENDING,-3.6866,1.35075,0.48165,-2.11821,0.06584,1.57080,-3.01912,-0.09677,-0.44240,0.38023,,
9.1684,1,DESCENDING,-3.7868,1.35075,0.48165,-2.11821,0.06584,1.57080,-3.01912,-0.09677,-0.44240,0.38023,,
9.2690,1,DESCENDING,-3.8384,1.35075,0.48163,-2.11845,0.06610,1.57080,-3.01912,-0.09677,-0.44240,0.38009,,
9.2694,1,DESCENDING,-3.8908,1.35075,0.48163,-2.11845,0.06610,1.57080,-3.01912,-0.09677,-0.44240,0.38009,,
9.2696,1,DESCENDING,-3.9441,1.35075,0.48163,-2.11845,0.06610,1.57080,-3.01912,-0.09677,-0.44240,0.38009,,
9.2700,1,DESCENDING,-4.0528,1.35075,0.48163,-2.11845,0.06610,1.57080,-3.01912,-0.09677,-0.44240,0.38009,,
9.2705,1,DESCENDING,-4.1642,1.35075,0.48163,-2.11845,0.06610,1.57080,-3.01912,-0.09677,-0.44240,0.38009,,
9.2713,1,DESCENDING,-4.2207,1.35075,0.48163,-2.11846,0.06612,1.57080,-3.01912,-0.09677,-0.44240,0.38008,,
9.2717,1,DESCENDING,-4.2783,1.35075,0.48163,-2.11846,0.06612,1.57080,-3.01912,-0.09677,-0.44240,0.38008,,
9.3695,1,DESCENDING,-4.3968,1.35075,0.48161,-2.11870,0.06637,1.57080,-3.01912,-0.09677,-0.44240,0.37994,,
9.3698,1,DESCENDING,-4.5203,1.35075,0.48161,-2.11870,0.06637,1.57080,-3.01912,-0.09677,-0.44240,0.37994,,
9.3701,1,DESCENDING,-4.5840,1.35075,0.48161,-2.11870,0.06637,1.57080,-3.01912,-0.09677,-0.44240,0.37994,,
9.3705,1,DESCENDING,-4.6490,1.35075,0.48161,-2.11870,0.06637,1.57080,-3.01912,-0.09677,-0.44240,0.37994,,
9.3709,1,DESCENDING,-4.7153,1.35075,0.48161,-2.11870,0.06637,1.57080,-3.01912,-0.09677,-0.44240,0.37994,,
9.3714,1,DESCENDING,-4.7829,1.35075,0.48161,-2.11870,0.06637,1.57080,-3.01912,-0.09677,-0.44240,0.37994,,
9.3718,1,DESCENDING,-4.8517,1.35075,0.48161,-2.11870,0.06637,1.57080,-3.01912,-0.09677,-0.44240,0.37994,,
9.3721,1,DESCENDING,-4.9217,1.35075,0.48161,-2.11870,0.06637,1.57080,-3.01912,-0.09677,-0.44240,0.37994,,
9.3725,1,DESCENDING,-5.0651,1.35075,0.48161,-2.11870,0.06637,1.57080,-3.01912,-0.09677,-0.44240,0.37994,,
9.3729,1,DESCENDING,-5.2133,1.35075,0.48161,-2.11870,0.06637,1.57080,-3.01912,-0.09677,-0.44240,0.37994,,
9.3733,1,DESCENDING,-5.3655,1.35075,0.48161,-2.11870,0.06637,1.57080,-3.01912,-0.09677,-0.44240,0.37994,,
9.4719,1,DESCENDING,-5.4432,1.35075,0.48160,-2.11894,0.06662,1.57080,-3.01912,-0.09677,-0.44240,0.37980,,
9.4723,1,DESCENDING,-5.5229,1.35075,0.48160,-2.11894,0.06662,1.57080,-3.01912,-0.09677,-0.44240,0.37980,,
9.4726,1,DESCENDING,-5.7731,1.35075,0.48160,-2.11894,0.06662,1.57080,-3.01912,-0.09677,-0.44240,0.37980,,
9.4729,1,DESCENDING,-5.8598,1.35075,0.48160,-2.11894,0.06662,1.57080,-3.01912,-0.09677,-0.44240,0.37980,,
9.4733,1,DESCENDING,-5.9480,1.35075,0.48160,-2.11894,0.06662,1.57080,-3.01912,-0.09677,-0.44240,0.37980,,
9.5750,1,DESCENDING,-6.3134,1.35075,0.48158,-2.11918,0.06688,1.57080,-3.01912,-0.09677,-0.44240,0.37966,,
9.5753,1,DESCENDING,-6.5025,1.35075,0.48158,-2.11918,0.06688,1.57080,-3.01912,-0.09677,-0.44240,0.37966,,
9.5780,1,DESCENDING,-6.6955,1.35075,0.48158,-2.11918,0.06688,1.57080,-3.01912,-0.09677,-0.44240,0.37966,,
9.5790,1,DESCENDING,-6.8922,1.35075,0.48158,-2.11919,0.06690,1.57080,-3.01912,-0.09677,-0.44240,0.37965,,
9.5794,1,DESCENDING,-7.0922,1.35075,0.48158,-2.11919,0.06690,1.57080,-3.01912,-0.09677,-0.44240,0.37965,,
9.5798,1,DESCENDING,-7.1932,1.35075,0.48158,-2.11919,0.06690,1.57080,-3.01912,-0.09677,-0.44240,0.37965,,
9.6769,1,DESCENDING,-7.2950,1.35075,0.48156,-2.11940,0.06713,1.57080,-3.01912,-0.09677,-0.44240,0.37952,,
9.6774,1,DESCENDING,-7.3974,1.35075,0.48156,-2.11940,0.06713,1.57080,-3.01912,-0.09677,-0.44240,0.37952,,
9.6776,1,DESCENDING,-7.5003,1.35075,0.48156,-2.11940,0.06713,1.57080,-3.01912,-0.09677,-0.44240,0.37952,,
9.6779,1,DESCENDING,-7.6035,1.35075,0.48156,-2.11940,0.06713,1.57080,-3.01912,-0.09677,-0.44240,0.37952,,
9.6782,1,DESCENDING,-7.7072,1.35075,0.48156,-2.11940,0.06713,1.57080,-3.01912,-0.09677,-0.44240,0.37952,,
9.6790,1,DESCENDING,-7.8112,1.35075,0.48156,-2.11941,0.06713,1.57080,-3.01912,-0.09677,-0.44240,0.37952,,
9.6793,1,DESCENDING,-8.0202,1.35075,0.48156,-2.11941,0.06713,1.57080,-3.01912,-0.09677,-0.44240,0.37952,,
9.6797,1,DESCENDING,-8.1250,1.35075,0.48156,-2.11941,0.06713,1.57080,-3.01912,-0.09677,-0.44240,0.37952,,
9.6800,1,DESCENDING,-8.3355,1.35075,0.48156,-2.11941,0.06713,1.57080,-3.01912,-0.09677,-0.44240,0.37952,,
9.7793,1,DESCENDING,-8.5487,1.35075,0.48154,-2.11962,0.06736,1.57080,-3.01912,-0.09677,-0.44240,0.37940,,
9.7800,1,DESCENDING,-8.6565,1.35075,0.48154,-2.11962,0.06736,1.57080,-3.01912,-0.09677,-0.44240,0.37940,,
9.8816,1,DESCENDING,-8.8741,1.35075,0.48153,-2.11986,0.06762,1.57080,-3.01912,-0.09677,-0.44240,0.37925,,
9.8820,1,DESCENDING,-8.9836,1.35075,0.48153,-2.11986,0.06762,1.57080,-3.01912,-0.09677,-0.44240,0.37925,,
9.8824,1,DESCENDING,-9.3137,1.35075,0.48153,-2.11986,0.06762,1.57080,-3.01912,-0.09677,-0.44240,0.37925,,
9.8830,1,DESCENDING,-9.4239,1.35075,0.48153,-2.11986,0.06762,1.57080,-3.01912,-0.09677,-0.44240,0.37925,,
9.8834,1,DESCENDING,-9.5338,1.35075,0.48153,-2.11986,0.06762,1.57080,-3.01912,-0.09677,-0.44240,0.37925,,
9.8838,1,DESCENDING,-9.6431,1.35075,0.48153,-2.11986,0.06762,1.57080,-3.01912,-0.09677,-0.44240,0.37925,,
9.8844,1,DESCENDING,-9.7520,1.35075,0.48153,-2.11986,0.06762,1.57080,-3.01912,-0.09677,-0.44240,0.37925,,
9.8849,1,DESCENDING,-9.9679,1.35075,0.48153,-2.11986,0.06762,1.57080,-3.01912,-0.09677,-0.44240,0.37925,,
9.8853,1,DESCENDING,-10.1817,1.35075,0.48153,-2.11986,0.06762,1.57080,-3.01912,-0.09677,-0.44240,0.37925,,
9.8857,1,DESCENDING,-10.2878,1.35075,0.48153,-2.11986,0.06762,1.57080,-3.01912,-0.09677,-0.44240,0.37925,,
9.8861,1,DESCENDING,-10.3934,1.35075,0.48153,-2.11986,0.06762,1.57080,-3.01912,-0.09677,-0.44240,0.37925,,
9.8866,1,DESCENDING,-10.4984,1.35075,0.48153,-2.11986,0.06762,1.57080,-3.01912,-0.09677,-0.44240,0.37925,,
9.9841,1,DESCENDING,-10.6029,1.35075,0.48151,-2.12009,0.06786,1.57080,-3.01912,-0.09677,-0.44240,0.37912,,
9.9845,1,DESCENDING,-10.7068,1.35075,0.48151,-2.12009,0.06786,1.57080,-3.01912,-0.09677,-0.44240,0.37912,,
9.9847,1,DESCENDING,-10.8096,1.35075,0.48151,-2.12009,0.06786,1.57080,-3.01912,-0.09677,-0.44240,0.37912,,
9.9853,1,DESCENDING,-11.0119,1.35075,0.48151,-2.12009,0.06786,1.57080,-3.01912,-0.09677,-0.44240,0.37912,,
9.9856,1,DESCENDING,-11.2100,1.35075,0.48151,-2.12009,0.06786,1.57080,-3.01912,-0.09677,-0.44240,0.37912,,
9.9858,1,DESCENDING,-11.4038,1.35075,0.48151,-2.12009,0.06786,1.57080,-3.01912,-0.09677,-0.44240,0.37912,,
9.9887,1,DESCENDING,-12.2210,1.35075,0.48151,-2.12010,0.06787,1.57080,-3.01912,-0.09677,-0.44240,0.37912,,
10.0926,1,DESCENDING,-12.3066,1.35075,0.48149,-2.12034,0.06813,1.57080,-3.01912,-0.09677,-0.44240,0.37897,,
10.0934,1,DESCENDING,-12.4754,1.35075,0.48149,-2.12034,0.06813,1.57080,-3.01912,-0.09677,-0.44240,0.37897,,
10.0938,1,DESCENDING,-12.5584,1.35075,0.48149,-2.12034,0.06813,1.57080,-3.01912,-0.09677,-0.44240,0.37897,,
10.0942,1,DESCENDING,-12.6406,1.35075,0.48149,-2.12034,0.06813,1.57080,-3.01912,-0.09677,-0.44240,0.37897,,
10.0946,1,DESCENDING,-12.7219,1.35075,0.48149,-2.12034,0.06813,1.57080,-3.01912,-0.09677,-0.44240,0.37897,,
10.0949,1,DESCENDING,-12.8023,1.35075,0.48149,-2.12034,0.06813,1.57080,-3.01912,-0.09677,-0.44240,0.37897,,
10.1117,1,DESCENDING,-12.9600,1.35075,0.48149,-2.12037,0.06817,1.57080,-3.01912,-0.09677,-0.44240,0.37895,,
10.1529,1,DESCENDING,-13.5904,1.35075,0.48148,-2.12047,0.06828,1.57080,-3.01912,-0.09677,-0.44240,0.37890,,
10.2914,1,DESCENDING,-13.9552,1.35075,0.48146,-2.12077,0.06860,1.57080,-3.01912,-0.09677,-0.44240,0.37872,,
10.2917,1,DESCENDING,-13.9975,1.35075,0.48146,-2.12077,0.06860,1.57080,-3.01912,-0.09677,-0.44240,0.37872,,
10.2920,1,DESCENDING,-14.0373,1.35075,0.48146,-2.12077,0.06860,1.57080,-3.01912,-0.09677,-0.44240,0.37872,,
10.2923,1,DESCENDING,-14.0746,1.35075,0.48146,-2.12077,0.06860,1.57080,-3.01912,-0.09677,-0.44240,0.37872,,
10.3937,1,DESCENDING,-14.1093,1.35075,0.48144,-2.12100,0.06885,1.57080,-3.01912,-0.09677,-0.44240,0.37858,,
10.3950,1,DESCENDING,-14.1413,1.35075,0.48144,-2.12100,0.06885,1.57080,-3.01912,-0.09677,-0.44240,0.37858,,
10.3957,1,DESCENDING,-14.1708,1.35075,0.48144,-2.12100,0.06885,1.57080,-3.01912,-0.09677,-0.44240,0.37858,,
10.4959,1,DESCENDING,-14.2940,1.35075,0.48142,-2.12124,0.06910,1.57080,-3.01912,-0.09677,-0.44240,0.37845,,
10.4964,1,DESCENDING,-14.3052,1.35075,0.48142,-2.12124,0.06910,1.57080,-3.01912,-0.09677,-0.44240,0.37845,,
10.4966,1,DESCENDING,-14.3139,1.35075,0.48142,-2.12124,0.06910,1.57080,-3.01912,-0.09677,-0.44240,0.37845,,
10.4970,1,DESCENDING,-14.3201,1.35075,0.48142,-2.12124,0.06910,1.57080,-3.01912,-0.09677,-0.44240,0.37845,,
10.4974,1,DESCENDING,-14.3238,1.35075,0.48142,-2.12124,0.06910,1.57080,-3.01912,-0.09677,-0.44240,0.37845,,
10.5994,1,DESCENDING,-14.3251,1.35075,0.48140,-2.12150,0.06938,1.57080,-3.01912,-0.09677,-0.44240,0.37829,,
10.6028,1,DESCENDING,-14.3138,1.35075,0.48140,-2.12150,0.06938,1.57080,-3.01912,-0.09677,-0.44240,0.37829,,
10.7014,1,DESCENDING,-14.2648,1.35075,0.48138,-2.12173,0.06963,1.57080,-3.01912,-0.09677,-0.44240,0.37816,,
10.7503,1,DESCENDING,-14.1625,1.35075,0.48137,-2.12183,0.06974,1.57080,-3.01912,-0.09677,-0.44240,0.37810,,
10.7528,1,DESCENDING,-14.1378,1.35075,0.48137,-2.12184,0.06975,1.57080,-3.01912,-0.09677,-0.44240,0.37809,,
10.7534,1,DESCENDING,-14.0853,1.35075,0.48137,-2.12184,0.06975,1.57080,-3.01912,-0.09677,-0.44240,0.37809,,
10.8032,1,DESCENDING,-14.0576,1.35075,0.48136,-2.12194,0.06986,1.57080,-3.01912,-0.09677,-0.44240,0.37803,,
10.9057,1,DESCENDING,-14.0294,1.35075,0.48134,-2.12219,0.07012,1.57080,-3.01912,-0.09677,-0.44240,0.37789,,
10.9066,1,DESCENDING,-13.9399,1.35075,0.48134,-2.12219,0.07012,1.57080,-3.01912,-0.09677,-0.44240,0.37789,,
10.9072,1,DESCENDING,-13.9084,1.35075,0.48134,-2.12219,0.07012,1.57080,-3.01912,-0.09677,-0.44240,0.37789,,
10.9078,1,DESCENDING,-13.7749,1.35075,0.48134,-2.12219,0.07012,1.57080,-3.01912,-0.09677,-0.44240,0.37789,,
10.9082,1,DESCENDING,-13.7398,1.35075,0.48134,-2.12219,0.07012,1.57080,-3.01912,-0.09677,-0.44240,0.37789,,
10.9085,1,DESCENDING,-13.6682,1.35075,0.48134,-2.12219,0.07012,1.57080,-3.01912,-0.09677,-0.44240,0.37789,,
11.0083,1,DESCENDING,-13.5966,1.35075,0.48133,-2.12242,0.07038,1.57080,-3.01912,-0.09677,-0.44240,0.37775,,
11.0088,1,DESCENDING,-13.5255,1.35075,0.48133,-2.12242,0.07038,1.57080,-3.01912,-0.09677,-0.44240,0.37775,,
11.0100,1,DESCENDING,-13.4901,1.35075,0.48133,-2.12242,0.07038,1.57080,-3.01912,-0.09677,-0.44240,0.37775,,
11.0105,1,DESCENDING,-13.4546,1.35075,0.48133,-2.12242,0.07038,1.57080,-3.01912,-0.09677,-0.44240,0.37775,,
11.0108,1,DESCENDING,-13.4189,1.35075,0.48133,-2.12242,0.07038,1.57080,-3.01912,-0.09677,-0.44240,0.37775,,
11.0114,1,DESCENDING,-13.3827,1.35075,0.48132,-2.12243,0.07039,1.57080,-3.01912,-0.09677,-0.44240,0.37774,,
11.1104,1,DESCENDING,-13.3088,1.35075,0.48131,-2.12265,0.07062,1.57080,-3.01912,-0.09677,-0.44240,0.37761,,
11.1113,1,DESCENDING,-13.2331,1.35075,0.48131,-2.12266,0.07064,1.57080,-3.01912,-0.09677,-0.44240,0.37761,,
11.1117,1,DESCENDING,-13.0777,1.35075,0.48131,-2.12266,0.07064,1.57080,-3.01912,-0.09677,-0.44240,0.37761,,
11.1121,1,DESCENDING,-13.0383,1.35075,0.48131,-2.12266,0.07064,1.57080,-3.01912,-0.09677,-0.44240,0.37761,,
11.1137,1,DESCENDING,-12.9988,1.35075,0.48131,-2.12266,0.07064,1.57080,-3.01912,-0.09677,-0.44240,0.37761,,
11.1153,1,DESCENDING,-12.9193,1.35075,0.48131,-2.12267,0.07065,1.57080,-3.01912,-0.09677,-0.44240,0.37760,,
11.1155,1,DESCENDING,-12.8374,1.35075,0.48131,-2.12267,0.07065,1.57080,-3.01912,-0.09677,-0.44240,0.37760,,
11.2128,1,DESCENDING,-12.7946,1.35075,0.48129,-2.12288,0.07088,1.57080,-3.01912,-0.09677,-0.44240,0.37747,,
11.2132,1,DESCENDING,-12.7507,1.35075,0.48129,-2.12288,0.07088,1.57080,-3.01912,-0.09677,-0.44240,0.37747,,
11.2136,1,DESCENDING,-12.7055,1.35075,0.48129,-2.12288,0.07088,1.57080,-3.01912,-0.09677,-0.44240,0.37747,,
11.2139,1,DESCENDING,-12.6591,1.35075,0.48129,-2.12288,0.07088,1.57080,-3.01912,-0.09677,-0.44240,0.37747,,
11.2142,1,DESCENDING,-12.4613,1.35075,0.48129,-2.12288,0.07088,1.57080,-3.01912,-0.09677,-0.44240,0.37747,,
11.2144,1,DESCENDING,-12.2467,1.35075,0.48129,-2.12288,0.07088,1.57080,-3.01912,-0.09677,-0.44240,0.37747,,
11.3152,1,DESCENDING,-12.1904,1.35075,0.48127,-2.12310,0.07112,1.57080,-3.01912,-0.09677,-0.44240,0.37735,,
11.3155,1,DESCENDING,-12.1331,1.35075,0.48127,-2.12310,0.07112,1.57080,-3.01912,-0.09677,-0.44240,0.37735,,
11.3158,1,DESCENDING,-11.9537,1.35075,0.48127,-2.12310,0.07112,1.57080,-3.01912,-0.09677,-0.44240,0.37735,,
11.3170,1,DESCENDING,-11.6290,1.35075,0.48127,-2.12310,0.07112,1.57080,-3.01912,-0.09677,-0.44240,0.37735,,
11.3175,1,DESCENDING,-11.5600,1.35075,0.48127,-2.12310,0.07112,1.57080,-3.01912,-0.09677,-0.44240,0.37735,,
11.3182,1,DESCENDING,-11.4174,1.35075,0.48127,-2.12310,0.07112,1.57080,-3.01912,-0.09677,-0.44240,0.37735,,
11.3191,1,DESCENDING,-11.3438,1.35075,0.48127,-2.12312,0.07113,1.57080,-3.01912,-0.09677,-0.44240,0.37734,,
11.4175,1,DESCENDING,-11.2687,1.35075,0.48125,-2.12333,0.07136,1.57080,-3.01912,-0.09677,-0.44240,0.37721,,
11.4178,1,DESCENDING,-11.1923,1.35075,0.48125,-2.12333,0.07136,1.57080,-3.01912,-0.09677,-0.44240,0.37721,,
11.4181,1,DESCENDING,-11.0359,1.35075,0.48125,-2.12333,0.07136,1.57080,-3.01912,-0.09677,-0.44240,0.37721,,
11.4184,1,DESCENDING,-10.8755,1.35075,0.48125,-2.12333,0.07136,1.57080,-3.01912,-0.09677,-0.44240,0.37721,,
11.4191,1,DESCENDING,-10.7116,1.35075,0.48125,-2.12333,0.07136,1.57080,-3.01912,-0.09677,-0.44240,0.37721,,
11.4193,1,DESCENDING,-10.6286,1.35075,0.48125,-2.12333,0.07136,1.57080,-3.01912,-0.09677,-0.44240,0.37721,,
11.4199,1,DESCENDING,-10.4602,1.35075,0.48125,-2.12333,0.07136,1.57080,-3.01912,-0.09677,-0.44240,0.37721,,
11.5199,1,DESCENDING,-10.3750,1.35075,0.48123,-2.12355,0.07160,1.57080,-3.01912,-0.09677,-0.44240,0.37708,,
11.5203,1,DESCENDING,-10.2892,1.35075,0.48123,-2.12355,0.07160,1.57080,-3.01912,-0.09677,-0.44240,0.37708,,
11.5207,1,DESCENDING,-10.2027,1.35075,0.48123,-2.12355,0.07160,1.57080,-3.01912,-0.09677,-0.44240,0.37708,,
11.5209,1,DESCENDING,-10.0281,1.35075,0.48123,-2.12355,0.07160,1.57080,-3.01912,-0.09677,-0.44240,0.37708,,
11.5212,1,DESCENDING,-9.8514,1.35075,0.48123,-2.12355,0.07160,1.57080,-3.01912,-0.09677,-0.44240,0.37708,,
11.5216,1,DESCENDING,-9.6729,1.35075,0.48123,-2.12355,0.07160,1.57080,-3.01912,-0.09677,-0.44240,0.37708,,
11.5219,1,DESCENDING,-9.5832,1.35075,0.48123,-2.12355,0.07160,1.57080,-3.01912,-0.09677,-0.44240,0.37708,,
11.5221,1,DESCENDING,-9.4931,1.35075,0.48123,-2.12355,0.07160,1.57080,-3.01912,-0.09677,-0.44240,0.37708,,
11.5227,1,DESCENDING,-9.4029,1.35075,0.48123,-2.12355,0.07160,1.57080,-3.01912,-0.09677,-0.44240,0.37708,,
11.6226,1,DESCENDING,-9.3124,1.35075,0.48121,-2.12379,0.07186,1.57080,-3.01912,-0.09677,-0.44240,0.37694,,
11.6238,1,DESCENDING,-9.1311,1.35075,0.48121,-2.12381,0.07188,1.57080,-3.01912,-0.09677,-0.44240,0.37693,,
11.6257,1,DESCENDING,-8.7682,1.35075,0.48121,-2.12381,0.07188,1.57080,-3.01912,-0.09677,-0.44240,0.37693,,
11.6263,1,DESCENDING,-8.4967,1.35075,0.48121,-2.12381,0.07188,1.57080,-3.01912,-0.09677,-0.44240,0.37693,,
11.6269,1,DESCENDING,-8.4065,1.35075,0.48121,-2.12381,0.07188,1.57080,-3.01912,-0.09677,-0.44240,0.37693,,
11.7253,1,DESCENDING,-7.9593,1.35075,0.48119,-2.12403,0.07212,1.57080,-3.01912,-0.09677,-0.44240,0.37680,,
11.7260,1,DESCENDING,-7.6948,1.35075,0.48119,-2.12403,0.07212,1.57080,-3.01912,-0.09677,-0.44240,0.37680,,
11.8278,1,DESCENDING,-7.4338,1.35075,0.48118,-2.12425,0.07236,1.57080,-3.01912,-0.09677,-0.44240,0.37667,,
11.8283,1,DESCENDING,-7.1770,1.35075,0.48118,-2.12425,0.07236,1.57080,-3.01912,-0.09677,-0.44240,0.37667,,
11.8288,1,DESCENDING,-7.0924,1.35075,0.48118,-2.12425,0.07236,1.57080,-3.01912,-0.09677,-0.44240,0.37667,,
11.8291,1,DESCENDING,-7.0082,1.35075,0.48118,-2.12425,0.07236,1.57080,-3.01912,-0.09677,-0.44240,0.37667,,
11.9296,1,DESCENDING,-6.9246,1.35075,0.48116,-2.12449,0.07262,1.57080,-3.01912,-0.09677,-0.44240,0.37653,,
11.9301,1,DESCENDING,-6.6772,1.35075,0.48116,-2.12449,0.07262,1.57080,-3.01912,-0.09677,-0.44240,0.37653,,
11.9305,1,DESCENDING,-6.5150,1.35075,0.48116,-2.12449,0.07262,1.57080,-3.01912,-0.09677,-0.44240,0.37653,,
11.9313,1,DESCENDING,-6.4348,1.35075,0.48116,-2.12449,0.07262,1.57080,-3.01912,-0.09677,-0.44240,0.37653,,
12.0335,1,DESCENDING,-6.1979,1.35075,0.48114,-2.12472,0.07287,1.57080,-3.01912,-0.09677,-0.44240,0.37639,,
12.0338,1,DESCENDING,-6.0431,1.35075,0.48114,-2.12472,0.07287,1.57080,-3.01912,-0.09677,-0.44240,0.37639,,
12.0341,1,DESCENDING,-5.8908,1.35075,0.48114,-2.12472,0.07287,1.57080,-3.01912,-0.09677,-0.44240,0.37639,,
12.0403,1,DESCENDING,-5.7411,1.35075,0.48114,-2.12475,0.07290,1.57080,-3.01912,-0.09677,-0.44240,0.37637,,
12.1343,1,DESCENDING,-5.6672,1.35075,0.48112,-2.12497,0.07314,1.57080,-3.01912,-0.09677,-0.44240,0.37624,,
12.1362,1,DESCENDING,-5.5940,1.35075,0.48112,-2.12499,0.07315,1.57080,-3.01912,-0.09677,-0.44240,0.37623,,
12.1368,1,DESCENDING,-5.4495,1.35075,0.48112,-2.12499,0.07315,1.57080,-3.01912,-0.09677,-0.44240,0.37623,,
12.1376,1,DESCENDING,-5.1687,1.35075,0.48112,-2.12499,0.07315,1.57080,-3.01912,-0.09677,-0.44240,0.37623,,
12.1381,1,DESCENDING,-5.1001,1.35075,0.48112,-2.12499,0.07315,1.57080,-3.01912,-0.09677,-0.44240,0.37623,,
12.1387,1,DESCENDING,-4.9651,1.35075,0.48112,-2.12499,0.07315,1.57080,-3.01912,-0.09677,-0.44240,0.37623,,
12.1393,1,DESCENDING,-4.8986,1.35075,0.48111,-2.12500,0.07317,1.57080,-3.01912,-0.09677,-0.44240,0.37622,,
12.1397,1,DESCENDING,-4.7031,1.35075,0.48111,-2.12500,0.07317,1.57080,-3.01912,-0.09677,-0.44240,0.37622,,
12.1402,1,DESCENDING,-4.6393,1.35075,0.48111,-2.12500,0.07317,1.57080,-3.01912,-0.09677,-0.44240,0.37622,,
12.1405,1,DESCENDING,-4.5136,1.35075,0.48111,-2.12500,0.07317,1.57080,-3.01912,-0.09677,-0.44240,0.37622,,
12.1409,1,DESCENDING,-4.4518,1.35075,0.48111,-2.12500,0.07317,1.57080,-3.01912,-0.09677,-0.44240,0.37622,,
12.1419,1,DESCENDING,-4.2704,1.35075,0.48111,-2.12500,0.07317,1.57080,-3.01912,-0.09677,-0.44240,0.37622,,
12.1422,1,DESCENDING,-4.2112,1.35075,0.48111,-2.12500,0.07317,1.57080,-3.01912,-0.09677,-0.44240,0.37622,,
12.1427,1,DESCENDING,-4.0949,1.35075,0.48111,-2.12500,0.07317,1.57080,-3.01912,-0.09677,-0.44240,0.37622,,
12.1435,1,DESCENDING,-3.9253,1.35075,0.48111,-2.12500,0.07317,1.57080,-3.01912,-0.09677,-0.44240,0.37622,,
12.1440,1,DESCENDING,-3.8154,1.35075,0.48111,-2.12500,0.07317,1.57080,-3.01912,-0.09677,-0.44240,0.37622,,
12.1445,1,DESCENDING,-3.7081,1.35075,0.48111,-2.12500,0.07317,1.57080,-3.01912,-0.09677,-0.44240,0.37622,,
12.2382,1,DESCENDING,-3.6033,1.35075,0.48110,-2.12521,0.07340,1.57080,-3.01912,-0.09677,-0.44240,0.37610,,
12.3400,1,DESCENDING,-3.3521,1.35075,0.48108,-2.12547,0.07367,1.57080,-3.01912,-0.09677,-0.44240,0.37595,,
12.3407,1,DESCENDING,-3.2087,1.35075,0.48108,-2.12547,0.07367,1.57080,-3.01912,-0.09677,-0.44240,0.37595,,
12.3409,1,DESCENDING,-3.1620,1.35075,0.48108,-2.12547,0.07367,1.57080,-3.01912,-0.09677,-0.44240,0.37595,,
12.4418,1,DESCENDING,-2.9812,1.35075,0.48105,-2.12572,0.07395,1.57080,-3.01912,-0.09677,-0.44240,0.37580,,
12.4423,1,DESCENDING,-2.9374,1.35075,0.48105,-2.12572,0.07395,1.57080,-3.01912,-0.09677,-0.44240,0.37580,,
12.4427,1,DESCENDING,-2.8094,1.35075,0.48105,-2.12572,0.07395,1.57080,-3.01912,-0.09677,-0.44240,0.37580,,
12.4431,1,DESCENDING,-2.7268,1.35075,0.48105,-2.12572,0.07395,1.57080,-3.01912,-0.09677,-0.44240,0.37580,,
12.4434,1,DESCENDING,-2.6863,1.35075,0.48105,-2.12572,0.07395,1.57080,-3.01912,-0.09677,-0.44240,0.37580,,
12.5444,1,DESCENDING,-2.6069,1.35075,0.48103,-2.12595,0.07420,1.57080,-3.01912,-0.09677,-0.44240,0.37566,,
12.5447,1,DESCENDING,-2.5680,1.35075,0.48103,-2.12595,0.07420,1.57080,-3.01912,-0.09677,-0.44240,0.37566,,
12.5451,1,DESCENDING,-2.3809,1.35075,0.48103,-2.12595,0.07420,1.57080,-3.01912,-0.09677,-0.44240,0.37566,,
12.5454,1,DESCENDING,-2.3096,1.35075,0.48103,-2.12595,0.07420,1.57080,-3.01912,-0.09677,-0.44240,0.37566,,
12.5456,1,DESCENDING,-2.2746,1.35075,0.48103,-2.12595,0.07420,1.57080,-3.01912,-0.09677,-0.44240,0.37566,,
12.5458,1,DESCENDING,-2.2401,1.35075,0.48103,-2.12595,0.07420,1.57080,-3.01912,-0.09677,-0.44240,0.37566,,
12.5467,1,DESCENDING,-2.2061,1.35075,0.48103,-2.12595,0.07420,1.57080,-3.01912,-0.09677,-0.44240,0.37566,,
12.6464,1,DESCENDING,-2.1726,1.35075,0.48102,-2.12618,0.07444,1.57080,-3.01912,-0.09677,-0.44240,0.37553,,
12.6470,1,DESCENDING,-2.1069,1.35075,0.48102,-2.12618,0.07444,1.57080,-3.01912,-0.09677,-0.44240,0.37553,,
12.6473,1,DESCENDING,-2.0747,1.35075,0.48102,-2.12618,0.07444,1.57080,-3.01912,-0.09677,-0.44240,0.37553,,
12.6478,1,DESCENDING,-2.0430,1.35075,0.48102,-2.12618,0.07444,1.57080,-3.01912,-0.09677,-0.44240,0.37553,,
12.6483,1,DESCENDING,-2.0117,1.35075,0.48101,-2.12619,0.07446,1.57080,-3.01912,-0.09677,-0.44240,0.37552,,
12.7489,1,DESCENDING,-1.9808,1.35075,0.48100,-2.12639,0.07468,1.57080,-3.01912,-0.09677,-0.44240,0.37540,,
12.7492,1,DESCENDING,-1.9504,1.35075,0.48100,-2.12639,0.07468,1.57080,-3.01912,-0.09677,-0.44240,0.37540,,
12.7495,1,DESCENDING,-1.9203,1.35075,0.48100,-2.12639,0.07468,1.57080,-3.01912,-0.09677,-0.44240,0.37540,,
12.7497,1,DESCENDING,-1.8908,1.35075,0.48100,-2.12639,0.07468,1.57080,-3.01912,-0.09677,-0.44240,0.37540,,
12.7500,1,DESCENDING,-1.8616,1.35075,0.48100,-2.12639,0.07468,1.57080,-3.01912,-0.09677,-0.44240,0.37540,,
12.7505,1,DESCENDING,-1.8328,1.35075,0.48100,-2.12639,0.07468,1.57080,-3.01912,-0.09677,-0.44240,0.37540,,
12.7512,1,DESCENDING,-1.8045,1.35075,0.48100,-2.12639,0.07468,1.57080,-3.01912,-0.09677,-0.44240,0.37540,,
12.7519,1,DESCENDING,-1.7765,1.35075,0.48100,-2.12640,0.07469,1.57080,-3.01912,-0.09677,-0.44240,0.37540,,
12.8511,1,DESCENDING,-1.7490,1.35075,0.48098,-2.12662,0.07492,1.57080,-3.01912,-0.09677,-0.44240,0.37527,,
12.8514,1,DESCENDING,-1.7218,1.35075,0.48098,-2.12662,0.07492,1.57080,-3.01912,-0.09677,-0.44240,0.37527,,
12.8520,1,DESCENDING,-1.6950,1.35075,0.48098,-2.12663,0.07493,1.57080,-3.01912,-0.09677,-0.44240,0.37526,,
12.8524,1,DESCENDING,-1.6686,1.35075,0.48098,-2.12663,0.07493,1.57080,-3.01912,-0.09677,-0.44240,0.37526,,
12.8529,1,DESCENDING,-1.6426,1.35075,0.48098,-2.12663,0.07493,1.57080,-3.01912,-0.09677,-0.44240,0.37526,,
12.8534,1,DESCENDING,-1.6169,1.35075,0.48098,-2.12663,0.07493,1.57080,-3.01912,-0.09677,-0.44240,0.37526,,
12.8536,1,DESCENDING,-1.5917,1.35075,0.48098,-2.12663,0.07493,1.57080,-3.01912,-0.09677,-0.44240,0.37526,,
12.8540,1,DESCENDING,-1.5422,1.35075,0.48098,-2.12663,0.07493,1.57080,-3.01912,-0.09677,-0.44240,0.37526,,
12.9536,1,DESCENDING,-1.4707,1.35075,0.48096,-2.12687,0.07519,1.57080,-3.01912,-0.09677,-0.44240,0.37512,,
12.9540,1,DESCENDING,-1.4247,1.35075,0.48096,-2.12687,0.07519,1.57080,-3.01912,-0.09677,-0.44240,0.37512,,
12.9543,1,DESCENDING,-1.4022,1.35075,0.48096,-2.12687,0.07519,1.57080,-3.01912,-0.09677,-0.44240,0.37512,,
12.9548,1,DESCENDING,-1.3582,1.35075,0.48096,-2.12687,0.07519,1.57080,-3.01912,-0.09677,-0.44240,0.37512,,
12.9551,1,DESCENDING,-1.3155,1.35075,0.48096,-2.12687,0.07519,1.57080,-3.01912,-0.09677,-0.44240,0.37512,,
12.9555,1,DESCENDING,-1.2946,1.35075,0.48096,-2.12687,0.07519,1.57080,-3.01912,-0.09677,-0.44240,0.37512,,
13.0571,1,DESCENDING,-1.2741,1.35075,0.48094,-2.12708,0.07543,1.57080,-3.01912,-0.09677,-0.44240,0.37499,,
13.0576,1,DESCENDING,-1.2538,1.35075,0.48094,-2.12708,0.07543,1.57080,-3.01912,-0.09677,-0.44240,0.37499,,
13.0668,1,DESCENDING,-1.2142,1.35075,0.48094,-2.12710,0.07545,1.57080,-3.01912,-0.09677,-0.44240,0.37498,,
13.0672,1,DESCENDING,-1.1948,1.35075,0.48094,-2.12710,0.07545,1.57080,-3.01912,-0.09677,-0.44240,0.37498,,
13.0676,1,DESCENDING,-1.1757,1.35075,0.48094,-2.12710,0.07545,1.57080,-3.01912,-0.09677,-0.44240,0.37498,,
13.1586,1,DESCENDING,-1.1569,1.35075,0.48092,-2.12731,0.07567,1.57080,-3.01912,-0.09677,-0.44240,0.37486,,
13.1600,1,DESCENDING,-1.0670,1.35075,0.48092,-2.12732,0.07569,1.57080,-3.01912,-0.09677,-0.44240,0.37485,,
13.1605,1,DESCENDING,-0.9999,1.35075,0.48092,-2.12732,0.07569,1.57080,-3.01912,-0.09677,-0.44240,0.37485,,
13.1610,1,DESCENDING,-0.9679,1.35075,0.48092,-2.12732,0.07569,1.57080,-3.01912,-0.09677,-0.44240,0.37485,,
13.2621,1,DESCENDING,-0.8920,1.35075,0.48090,-2.12752,0.07591,1.57080,-3.01912,-0.09677,-0.44240,0.37473,,
13.2628,1,DESCENDING,-0.8353,1.35075,0.48090,-2.12752,0.07591,1.57080,-3.01912,-0.09677,-0.44240,0.37473,,
13.3635,1,DESCENDING,-0.8217,1.35075,0.48088,-2.12775,0.07615,1.57080,-3.01912,-0.09677,-0.44240,0.37460,,
13.3638,1,DESCENDING,-0.7951,1.35075,0.48088,-2.12775,0.07615,1.57080,-3.01912,-0.09677,-0.44240,0.37460,,
13.3642,1,DESCENDING,-0.7821,1.35075,0.48088,-2.12775,0.07615,1.57080,-3.01912,-0.09677,-0.44240,0.37460,,
13.3646,1,DESCENDING,-0.7693,1.35075,0.48088,-2.12776,0.07616,1.57080,-3.01912,-0.09677,-0.44240,0.37459,,
13.3649,1,DESCENDING,-0.7443,1.35075,0.48088,-2.12776,0.07616,1.57080,-3.01912,-0.09677,-0.44240,0.37459,,
13.3651,1,DESCENDING,-0.7321,1.35075,0.48088,-2.12776,0.07616,1.57080,-3.01912,-0.09677,-0.44240,0.37459,,
13.3655,1,DESCENDING,-0.7200,1.35075,0.48088,-2.12776,0.07616,1.57080,-3.01912,-0.09677,-0.44240,0.37459,,
13.3663,1,DESCENDING,-0.7082,1.35075,0.48088,-2.12776,0.07616,1.57080,-3.01912,-0.09677,-0.44240,0.37459,,
13.3666,1,DESCENDING,-0.6966,1.35075,0.48088,-2.12776,0.07616,1.57080,-3.01912,-0.09677,-0.44240,0.37459,,
13.3671,1,DESCENDING,-0.6851,1.35075,0.48088,-2.12776,0.07616,1.57080,-3.01912,-0.09677,-0.44240,0.37459,,
13.4656,1,DESCENDING,-0.6738,1.35075,0.48086,-2.12800,0.07642,1.57080,-3.01912,-0.09677,-0.44240,0.37445,,
13.4659,1,DESCENDING,-0.6518,1.35075,0.48086,-2.12800,0.07642,1.57080,-3.01912,-0.09677,-0.44240,0.37445,,
13.4662,1,DESCENDING,-0.6304,1.35075,0.48086,-2.12800,0.07642,1.57080,-3.01912,-0.09677,-0.44240,0.37445,,
13.4667,1,DESCENDING,-0.6098,1.35075,0.48086,-2.12800,0.07642,1.57080,-3.01912,-0.09677,-0.44240,0.37445,,
13.4669,1,DESCENDING,-0.5997,1.35075,0.48086,-2.12800,0.07642,1.57080,-3.01912,-0.09677,-0.44240,0.37445,,
13.4673,1,DESCENDING,-0.5897,1.35075,0.48086,-2.12800,0.07642,1.57080,-3.01912,-0.09677,-0.44240,0.37445,,
13.5680,1,DESCENDING,-0.5609,1.35075,0.48084,-2.12819,0.07663,1.57080,-3.01912,-0.09677,-0.44240,0.37434,,
13.5684,1,DESCENDING,-0.5334,1.35075,0.48084,-2.12819,0.07663,1.57080,-3.01912,-0.09677,-0.44240,0.37434,,
13.5714,1,DESCENDING,-0.5245,1.35075,0.48084,-2.12820,0.07664,1.57080,-3.01912,-0.09677,-0.44240,0.37433,,
13.5719,1,DESCENDING,-0.5157,1.35075,0.48084,-2.12820,0.07664,1.57080,-3.01912,-0.09677,-0.44240,0.37433,,
13.5753,1,DESCENDING,-0.4987,1.35075,0.48084,-2.12821,0.07666,1.57080,-3.01912,-0.09677,-0.44240,0.37433,,
13.6703,1,DESCENDING,-0.4822,1.35075,0.48082,-2.12843,0.07689,1.57080,-3.01912,-0.09677,-0.44240,0.37420,,
13.6712,1,DESCENDING,-0.4662,1.35075,0.48082,-2.12843,0.07689,1.57080,-3.01912,-0.09677,-0.44240,0.37420,,
13.7738,1,DESCENDING,-0.4212,1.35075,0.48080,-2.12867,0.07715,1.57080,-3.01912,-0.09677,-0.44240,0.37406,,
13.7745,1,DESCENDING,-0.4003,1.35075,0.48080,-2.12867,0.07715,1.57080,-3.01912,-0.09677,-0.44240,0.37406,,
13.7749,1,DESCENDING,-0.3936,1.35075,0.48080,-2.12867,0.07715,1.57080,-3.01912,-0.09677,-0.44240,0.37406,,
13.8752,1,DESCENDING,-0.3870,1.35075,0.48078,-2.12890,0.07740,1.57080,-3.01912,-0.09677,-0.44240,0.37392,,
13.8757,1,DESCENDING,-0.3677,1.35075,0.48078,-2.12890,0.07740,1.57080,-3.01912,-0.09677,-0.44240,0.37392,,
13.8765,1,DESCENDING,-0.3615,1.35075,0.48078,-2.12890,0.07740,1.57080,-3.01912,-0.09677,-0.44240,0.37392,,
13.8772,1,DESCENDING,-0.3377,1.35075,0.48078,-2.12891,0.07742,1.57080,-3.01912,-0.09677,-0.44240,0.37391,,
13.8776,1,DESCENDING,-0.3208,1.35075,0.48078,-2.12891,0.07742,1.57080,-3.01912,-0.09677,-0.44240,0.37391,,
13.9776,1,DESCENDING,-0.3154,1.35075,0.48076,-2.12915,0.07768,1.57080,-3.01912,-0.09677,-0.44240,0.37377,,
13.9808,1,DESCENDING,-0.2996,1.35075,0.48076,-2.12915,0.07768,1.57080,-3.01912,-0.09677,-0.44240,0.37377,,
13.9816,1,DESCENDING,-0.2845,1.35075,0.48076,-2.12915,0.07768,1.57080,-3.01912,-0.09677,-0.44240,0.37377,,
13.9822,1,DESCENDING,-0.2797,1.35075,0.48076,-2.12915,0.07768,1.57080,-3.01912,-0.09677,-0.44240,0.37377,,
13.9826,1,DESCENDING,-0.2749,1.35075,0.48076,-2.12915,0.07768,1.57080,-3.01912,-0.09677,-0.44240,0.37377,,
13.9837,1,DESCENDING,-0.2702,1.35075,0.48076,-2.12915,0.07768,1.57080,-3.01912,-0.09677,-0.44240,0.37377,,
14.0855,1,DESCENDING,-0.2656,1.35075,0.48074,-2.12937,0.07792,1.57080,-3.01912,-0.09677,-0.44240,0.37364,,
14.0858,1,DESCENDING,-0.2611,1.35075,0.48074,-2.12937,0.07792,1.57080,-3.01912,-0.09677,-0.44240,0.37364,,
14.0861,1,DESCENDING,-0.2566,1.35075,0.48074,-2.12937,0.07792,1.57080,-3.01912,-0.09677,-0.44240,0.37364,,
14.0865,1,DESCENDING,-0.2523,1.35075,0.48074,-2.12937,0.07792,1.57080,-3.01912,-0.09677,-0.44240,0.37364,,
14.0868,1,DESCENDING,-0.2437,1.35075,0.48074,-2.12937,0.07792,1.57080,-3.01912,-0.09677,-0.44240,0.37364,,
14.1823,1,DESCENDING,-0.2354,1.35075,0.48072,-2.12958,0.07815,1.57080,-3.01912,-0.09677,-0.44240,0.37352,,
14.1827,1,DESCENDING,-0.2314,1.35075,0.48072,-2.12958,0.07815,1.57080,-3.01912,-0.09677,-0.44240,0.37352,,
14.2859,1,DESCENDING,-0.1579,1.35075,0.48070,-2.12981,0.07840,1.57080,-3.01912,-0.09677,-0.44240,0.37338,,
14.2864,1,DESCENDING,-0.1499,1.35075,0.48070,-2.12981,0.07840,1.57080,-3.01912,-0.09677,-0.44240,0.37338,,
14.2867,1,DESCENDING,-0.1473,1.35075,0.48070,-2.12981,0.07840,1.57080,-3.01912,-0.09677,-0.44240,0.37338,,
14.2870,1,DESCENDING,-0.1447,1.35075,0.48070,-2.12981,0.07840,1.57080,-3.01912,-0.09677,-0.44240,0.37338,,
14.2873,1,DESCENDING,-0.1349,1.35075,0.48070,-2.12981,0.07840,1.57080,-3.01912,-0.09677,-0.44240,0.37338,,
14.3872,1,DESCENDING,-0.1326,1.35075,0.48068,-2.13005,0.07866,1.57080,-3.01912,-0.09677,-0.44240,0.37324,,
14.3878,1,DESCENDING,-0.1236,1.35075,0.48068,-2.13005,0.07866,1.57080,-3.01912,-0.09677,-0.44240,0.37324,,
14.3882,1,DESCENDING,-0.1193,1.35075,0.48068,-2.13005,0.07866,1.57080,-3.01912,-0.09677,-0.44240,0.37324,,
14.3886,1,DESCENDING,-0.1152,1.35075,0.48068,-2.13005,0.07866,1.57080,-3.01912,-0.09677,-0.44240,0.37324,,
14.3892,1,DESCENDING,-0.1093,1.35075,0.48067,-2.13006,0.07867,1.57080,-3.01912,-0.09677,-0.44240,0.37323,,
14.4899,1,DESCENDING,-0.1074,1.35075,0.48065,-2.13030,0.07893,1.57080,-3.01912,-0.09677,-0.44240,0.37309,,
14.4903,1,DESCENDING,-0.1055,1.35075,0.48065,-2.13030,0.07893,1.57080,-3.01912,-0.09677,-0.44240,0.37309,,
14.4909,1,DESCENDING,-0.1001,1.35075,0.48065,-2.13030,0.07893,1.57080,-3.01912,-0.09677,-0.44240,0.37309,,
14.4911,1,DESCENDING,-0.0983,1.35075,0.48065,-2.13030,0.07893,1.57080,-3.01912,-0.09677,-0.44240,0.37309,,
14.4915,1,DESCENDING,-0.0949,1.35075,0.48065,-2.13030,0.07893,1.57080,-3.01912,-0.09677,-0.44240,0.37309,,
14.5925,1,DESCENDING,-0.0900,1.35075,0.48064,-2.13049,0.07913,1.57080,-3.01912,-0.09677,-0.44240,0.37298,,
14.5949,1,DESCENDING,-0.0884,1.35075,0.48063,-2.13050,0.07915,1.57080,-3.01912,-0.09677,-0.44240,0.37297,,
14.5953,1,DESCENDING,-0.0869,1.35075,0.48063,-2.13050,0.07915,1.57080,-3.01912,-0.09677,-0.44240,0.37297,,
14.5955,1,DESCENDING,-0.0839,1.35075,0.48063,-2.13050,0.07915,1.57080,-3.01912,-0.09677,-0.44240,0.37297,,
14.6944,1,DESCENDING,-0.0824,1.35075,0.48061,-2.13073,0.07940,1.57080,-3.01912,-0.09677,-0.44240,0.37284,,
14.6948,1,DESCENDING,-0.0795,1.35075,0.48061,-2.13073,0.07940,1.57080,-3.01912,-0.09677,-0.44240,0.37284,,
14.6951,1,DESCENDING,-0.0781,1.35075,0.48061,-2.13073,0.07940,1.57080,-3.01912,-0.09677,-0.44240,0.37284,,
14.6954,1,DESCENDING,-0.0768,1.35075,0.48061,-2.13073,0.07940,1.57080,-3.01912,-0.09677,-0.44240,0.37284,,
14.6959,1,DESCENDING,-0.0728,1.35075,0.48061,-2.13073,0.07940,1.57080,-3.01912,-0.09677,-0.44240,0.37284,,
14.6964,1,DESCENDING,-0.0702,1.35075,0.48061,-2.13073,0.07940,1.57080,-3.01912,-0.09677,-0.44240,0.37284,,
14.6969,1,DESCENDING,-0.0690,1.35075,0.48061,-2.13074,0.07941,1.57080,-3.01912,-0.09677,-0.44240,0.37283,,
14.6972,1,DESCENDING,-0.0678,1.35075,0.48061,-2.13074,0.07941,1.57080,-3.01912,-0.09677,-0.44240,0.37283,,
14.7973,1,DESCENDING,-0.0654,1.35075,0.48059,-2.13096,0.07965,1.57080,-3.01912,-0.09677,-0.44240,0.37270,,
14.7980,1,DESCENDING,-0.0643,1.35075,0.48059,-2.13096,0.07965,1.57080,-3.01912,-0.09677,-0.44240,0.37270,,
14.7984,1,DESCENDING,-0.0620,1.35075,0.48059,-2.13096,0.07965,1.57080,-3.01912,-0.09677,-0.44240,0.37270,,
14.7988,1,DESCENDING,-0.0609,1.35075,0.48059,-2.13096,0.07965,1.57080,-3.01912,-0.09677,-0.44240,0.37270,,
14.7991,1,DESCENDING,-0.0599,1.35075,0.48059,-2.13096,0.07965,1.57080,-3.01912,-0.09677,-0.44240,0.37270,,
14.7996,1,DESCENDING,-0.0578,1.35075,0.48059,-2.13096,0.07965,1.57080,-3.01912,-0.09677,-0.44240,0.37270,,
14.8991,1,DESCENDING,-0.0557,1.35075,0.48057,-2.13119,0.07990,1.57080,-3.01911,-0.09677,-0.44240,0.37256,,
14.8996,1,DESCENDING,-0.0548,1.35075,0.48057,-2.13119,0.07990,1.57080,-3.01911,-0.09677,-0.44240,0.37256,,
14.8999,1,DESCENDING,-0.0538,1.35075,0.48057,-2.13119,0.07990,1.57080,-3.01911,-0.09677,-0.44240,0.37256,,
14.9003,1,DESCENDING,-0.0528,1.35075,0.48057,-2.13119,0.07990,1.57080,-3.01911,-0.09677,-0.44240,0.37256,,
14.9006,1,DESCENDING,-0.0519,1.35075,0.48057,-2.13119,0.07990,1.57080,-3.01911,-0.09677,-0.44240,0.37256,,
14.9012,1,DESCENDING,-0.0510,1.35075,0.48057,-2.13120,0.07991,1.57080,-3.01911,-0.09677,-0.44240,0.37256,,
14.9016,1,DESCENDING,-0.0483,1.35075,0.48057,-2.13120,0.07991,1.57080,-3.01911,-0.09677,-0.44240,0.37256,,
15.0015,1,DESCENDING,-0.0466,1.35075,0.48055,-2.13144,0.08017,1.57080,-3.01911,-0.09677,-0.44240,0.37242,,
15.0034,1,DESCENDING,-0.0458,1.35075,0.48055,-2.13144,0.08017,1.57080,-3.01911,-0.09677,-0.44240,0.37242,,
15.0039,1,DESCENDING,-0.0442,1.35075,0.48055,-2.13144,0.08017,1.57080,-3.01911,-0.09677,-0.44240,0.37242,,
15.0043,1,DESCENDING,-0.0434,1.35075,0.48055,-2.13144,0.08017,1.57080,-3.01911,-0.09677,-0.44240,0.37242,,
15.0047,1,DESCENDING,-0.0419,1.35075,0.48055,-2.13144,0.08017,1.57080,-3.01911,-0.09677,-0.44240,0.37242,,
15.0062,1,DESCENDING,-0.0411,1.35075,0.48055,-2.13144,0.08017,1.57080,-3.01911,-0.09677,-0.44240,0.37242,,
15.0066,1,DESCENDING,-0.0390,1.35075,0.48055,-2.13144,0.08017,1.57080,-3.01911,-0.09677,-0.44240,0.37242,,
15.1202,1,DESCENDING,-0.0383,1.35075,0.48053,-2.13169,0.08044,1.57080,-3.01911,-0.09677,-0.44240,0.37227,,
15.1233,1,DESCENDING,-0.0332,1.35075,0.48052,-2.13170,0.08046,1.57080,-3.01911,-0.09677,-0.44240,0.37226,,
15.1237,1,DESCENDING,-0.0326,1.35075,0.48052,-2.13170,0.08046,1.57080,-3.01911,-0.09677,-0.44240,0.37226,,
15.1724,1,DESCENDING,-0.0309,1.35075,0.48052,-2.13179,0.08055,1.57080,-3.01911,-0.09677,-0.44240,0.37221,,
15.1884,1,DESCENDING,-0.0298,1.35075,0.48051,-2.13183,0.08060,1.57080,-3.01911,-0.09677,-0.44240,0.37218,,
15.3100,1,DESCENDING,-0.0282,1.35075,0.48049,-2.13209,0.08088,1.57080,-3.01911,-0.09677,-0.44240,0.37203,,
15.3105,1,DESCENDING,-0.0277,1.35075,0.48049,-2.13209,0.08088,1.57080,-3.01911,-0.09677,-0.44240,0.37203,,
15.3107,1,DESCENDING,-0.0272,1.35075,0.48049,-2.13209,0.08088,1.57080,-3.01911,-0.09677,-0.44240,0.37203,,
15.3109,1,DESCENDING,-0.0262,1.35075,0.48049,-2.13209,0.08088,1.57080,-3.01911,-0.09677,-0.44240,0.37203,,
15.3112,1,DESCENDING,-0.0253,1.35075,0.48049,-2.13209,0.08088,1.57080,-3.01911,-0.09677,-0.44240,0.37203,,
15.3126,1,DESCENDING,-0.0248,1.35075,0.48049,-2.13209,0.08088,1.57080,-3.01911,-0.09677,-0.44240,0.37203,,
15.3131,1,DESCENDING,-0.0240,1.35075,0.48049,-2.13210,0.08089,1.57080,-3.01911,-0.09677,-0.44240,0.37203,,
15.4112,1,DESCENDING,-0.0235,1.35075,0.48047,-2.13233,0.08114,1.57080,-3.01911,-0.09677,-0.44240,0.37189,,
15.4116,1,DESCENDING,-0.0223,1.35075,0.48047,-2.13233,0.08114,1.57080,-3.01911,-0.09677,-0.44240,0.37189,,
15.4118,1,DESCENDING,-0.0215,1.35075,0.48047,-2.13233,0.08114,1.57080,-3.01911,-0.09677,-0.44240,0.37189,,
15.4121,1,DESCENDING,-0.0211,1.35075,0.48047,-2.13233,0.08114,1.57080,-3.01911,-0.09677,-0.44240,0.37189,,
15.4125,1,DESCENDING,-0.0204,1.35075,0.48047,-2.13233,0.08114,1.57080,-3.01911,-0.09677,-0.44240,0.37189,,
15.4131,1,DESCENDING,-0.0200,1.35075,0.48046,-2.13234,0.08116,1.57080,-3.01911,-0.09677,-0.44240,0.37188,,
15.4134,1,DESCENDING,-0.0196,1.35075,0.48046,-2.13234,0.08116,1.57080,-3.01911,-0.09677,-0.44240,0.37188,,
15.5136,1,DESCENDING,-0.0193,1.35075,0.48044,-2.13258,0.08142,1.57080,-3.01911,-0.09677,-0.44240,0.37174,,
15.5139,1,DESCENDING,-0.0186,1.35075,0.48044,-2.13258,0.08142,1.57080,-3.01911,-0.09677,-0.44240,0.37174,,
15.5143,1,DESCENDING,-0.0183,1.35075,0.48044,-2.13258,0.08142,1.57080,-3.01911,-0.09677,-0.44240,0.37174,,
15.5146,1,DESCENDING,-0.0179,1.35075,0.48044,-2.13258,0.08142,1.57080,-3.01911,-0.09677,-0.44240,0.37174,,
15.5150,1,DESCENDING,-0.0176,1.35075,0.48044,-2.13258,0.08142,1.57080,-3.01911,-0.09677,-0.44240,0.37174,,
15.5154,1,DESCENDING,-0.0173,1.35075,0.48044,-2.13258,0.08142,1.57080,-3.01911,-0.09677,-0.44240,0.37174,,
15.5159,1,DESCENDING,-0.0167,1.35075,0.48044,-2.13258,0.08142,1.57080,-3.01911,-0.09677,-0.44240,0.37174,,
15.5174,1,DESCENDING,-0.0164,1.35075,0.48044,-2.13258,0.08142,1.57080,-3.01911,-0.09677,-0.44240,0.37174,,
15.6160,1,DESCENDING,-0.0161,1.35075,0.48042,-2.13280,0.08166,1.57080,-3.01911,-0.09677,-0.44240,0.37161,,
15.6187,1,DESCENDING,-0.0155,1.35075,0.48042,-2.13281,0.08167,1.57080,-3.01911,-0.09677,-0.44240,0.37161,,
15.6192,1,DESCENDING,-0.0150,1.35075,0.48042,-2.13281,0.08167,1.57080,-3.01911,-0.09677,-0.44240,0.37161,,
15.6198,1,DESCENDING,-0.0142,1.35075,0.48042,-2.13281,0.08167,1.57080,-3.01911,-0.09677,-0.44240,0.37161,,
15.6201,1,DESCENDING,-0.0137,1.35075,0.48042,-2.13281,0.08167,1.57080,-3.01911,-0.09677,-0.44240,0.37161,,
15.6205,1,DESCENDING,-0.0134,1.35075,0.48042,-2.13281,0.08167,1.57080,-3.01911,-0.09677,-0.44240,0.37161,,
15.7183,1,DESCENDING,-0.0132,1.35075,0.48040,-2.13304,0.08192,1.57080,-3.01911,-0.09677,-0.44240,0.37147,,
15.7187,1,DESCENDING,-0.0129,1.35075,0.48040,-2.13304,0.08192,1.57080,-3.01911,-0.09677,-0.44240,0.37147,,
15.7191,1,DESCENDING,-0.0114,1.35075,0.48040,-2.13304,0.08192,1.57080,-3.01911,-0.09677,-0.44240,0.37147,,
15.7196,1,DESCENDING,-0.0110,1.35075,0.48040,-2.13304,0.08192,1.57080,-3.01911,-0.09677,-0.44240,0.37147,,
15.7199,1,DESCENDING,-0.0102,1.35075,0.48040,-2.13304,0.08192,1.57080,-3.01911,-0.09677,-0.44240,0.37147,,
15.7204,1,DESCENDING,-0.0100,1.35075,0.48040,-2.13304,0.08192,1.57080,-3.01911,-0.09677,-0.44240,0.37147,,
15.7209,1,DESCENDING,-0.0098,1.35075,0.48040,-2.13305,0.08193,1.57080,-3.01911,-0.09677,-0.44240,0.37146,,
15.7212,1,DESCENDING,-0.0095,1.35075,0.48040,-2.13305,0.08193,1.57080,-3.01911,-0.09677,-0.44240,0.37146,,
15.8216,1,DESCENDING,-0.0093,1.35075,0.48038,-2.13326,0.08217,1.57080,-3.01911,-0.09677,-0.44240,0.37133,,
15.8221,1,DESCENDING,-0.0090,1.35075,0.48038,-2.13326,0.08217,1.57080,-3.01911,-0.09677,-0.44240,0.37133,,
15.8225,1,DESCENDING,-0.0088,1.35075,0.48038,-2.13326,0.08217,1.57080,-3.01911,-0.09677,-0.44240,0.37133,,
15.8228,1,DESCENDING,-0.0087,1.35075,0.48038,-2.13326,0.08217,1.57080,-3.01911,-0.09677,-0.44240,0.37133,,
15.8233,1,DESCENDING,-0.0083,1.35075,0.48038,-2.13326,0.08217,1.57080,-3.01911,-0.09677,-0.44240,0.37133,,
15.9234,1,DESCENDING,-0.0080,1.35075,0.48036,-2.13350,0.08243,1.57080,-3.01911,-0.09677,-0.44240,0.37120,,
15.9238,1,DESCENDING,-0.0076,1.35075,0.48036,-2.13350,0.08243,1.57080,-3.01911,-0.09677,-0.44240,0.37120,,
15.9241,1,DESCENDING,-0.0073,1.35075,0.48036,-2.13350,0.08243,1.57080,-3.01911,-0.09677,-0.44240,0.37120,,
15.9245,1,DESCENDING,-0.0072,1.35075,0.48036,-2.13350,0.08243,1.57080,-3.01911,-0.09677,-0.44240,0.37120,,
15.9251,1,DESCENDING,-0.0071,1.35075,0.48035,-2.13351,0.08244,1.57080,-3.01911,-0.09677,-0.44240,0.37119,,
15.9253,1,DESCENDING,-0.0069,1.35075,0.48035,-2.13351,0.08244,1.57080,-3.01911,-0.09677,-0.44240,0.37119,,
16.0259,1,DESCENDING,-0.0067,1.35075,0.48033,-2.13374,0.08269,1.57080,-3.01911,-0.09677,-0.44240,0.37105,,
16.0380,1,DESCENDING,-0.0062,1.35075,0.48033,-2.13376,0.08271,1.57080,-3.01911,-0.09677,-0.44240,0.37104,,
16.1282,1,DESCENDING,-0.0061,1.35075,0.48031,-2.13397,0.08295,1.57080,-3.01911,-0.09677,-0.44240,0.37091,,
16.1287,1,DESCENDING,-0.0060,1.35075,0.48031,-2.13397,0.08295,1.57080,-3.01911,-0.09677,-0.44240,0.37091,,
16.1290,1,DESCENDING,-0.0056,1.35075,0.48031,-2.13397,0.08295,1.57080,-3.01911,-0.09677,-0.44240,0.37091,,
16.2303,1,DESCENDING,-0.0055,1.35075,0.48029,-2.13421,0.08321,1.57080,-3.01911,-0.09677,-0.44240,0.37077,,
16.2307,1,DESCENDING,-0.0054,1.35075,0.48029,-2.13421,0.08321,1.57080,-3.01911,-0.09677,-0.44240,0.37077,,
16.2310,1,DESCENDING,-0.0053,1.35075,0.48029,-2.13421,0.08321,1.57080,-3.01911,-0.09677,-0.44240,0.37077,,
16.2314,1,DESCENDING,-0.0052,1.35075,0.48029,-2.13421,0.08321,1.57080,-3.01911,-0.09677,-0.44240,0.37077,,
16.2318,1,DESCENDING,-0.0050,1.35075,0.48029,-2.13421,0.08321,1.57080,-3.01911,-0.09677,-0.44240,0.37077,,
16.2322,1,DESCENDING,-0.0048,1.35075,0.48029,-2.13421,0.08321,1.57080,-3.01911,-0.09677,-0.44240,0.37077,,
16.2325,1,DESCENDING,-0.0047,1.35075,0.48029,-2.13421,0.08321,1.57080,-3.01911,-0.09677,-0.44240,0.37077,,
16.2329,1,DESCENDING,-0.0046,1.35075,0.48029,-2.13421,0.08321,1.57080,-3.01911,-0.09677,-0.44240,0.37077,,
16.2331,1,DESCENDING,-0.0046,1.35075,0.48029,-2.13421,0.08321,1.57080,-3.01911,-0.09677,-0.44240,0.37077,,
16.3331,1,DESCENDING,-0.0043,1.35075,0.48027,-2.13444,0.08345,1.57080,-3.01911,-0.09677,-0.44240,0.37064,,
16.3336,1,DESCENDING,-0.0042,1.35075,0.48027,-2.13444,0.08345,1.57080,-3.01911,-0.09677,-0.44240,0.37064,,
16.3340,1,DESCENDING,-0.0042,1.35075,0.48027,-2.13444,0.08346,1.57080,-3.01911,-0.09677,-0.44240,0.37064,,
16.3343,1,DESCENDING,-0.0041,1.35075,0.48027,-2.13444,0.08346,1.57080,-3.01911,-0.09677,-0.44240,0.37064,,
16.4351,1,DESCENDING,-0.0040,1.35075,0.48024,-2.13465,0.08369,1.57080,-3.01911,-0.09677,-0.44240,0.37051,,
16.4355,1,DESCENDING,-0.0039,1.35075,0.48024,-2.13465,0.08369,1.57080,-3.01911,-0.09677,-0.44240,0.37051,,
16.4358,1,DESCENDING,-0.0038,1.35075,0.48024,-2.13465,0.08369,1.57080,-3.01911,-0.09677,-0.44240,0.37051,,
16.4362,1,DESCENDING,-0.0036,1.35075,0.48024,-2.13465,0.08369,1.57080,-3.01911,-0.09677,-0.44240,0.37051,,
16.4366,1,DESCENDING,-0.0036,1.35075,0.48024,-2.13465,0.08369,1.57080,-3.01911,-0.09677,-0.44240,0.37051,,
16.4370,1,DESCENDING,-0.0035,1.35075,0.48024,-2.13465,0.08369,1.57080,-3.01911,-0.09677,-0.44240,0.37051,,
16.4373,1,DESCENDING,-0.0034,1.35075,0.48024,-2.13465,0.08369,1.57080,-3.01911,-0.09677,-0.44240,0.37051,,
16.5377,1,DESCENDING,-0.0033,1.35075,0.48022,-2.13489,0.08395,1.57080,-3.01911,-0.09677,-0.44240,0.37037,,
16.5386,1,DESCENDING,-0.0031,1.35075,0.48022,-2.13489,0.08395,1.57080,-3.01911,-0.09677,-0.44240,0.37037,,
16.5388,1,DESCENDING,-0.0030,1.35075,0.48022,-2.13489,0.08395,1.57080,-3.01911,-0.09677,-0.44240,0.37037,,
16.5422,1,DESCENDING,-0.0029,1.35075,0.48022,-2.13490,0.08396,1.57080,-3.01911,-0.09677,-0.44240,0.37037,,
16.6401,1,DESCENDING,-0.0029,1.35075,0.48020,-2.13511,0.08419,1.57080,-3.01911,-0.09677,-0.44240,0.37024,,
16.6406,1,DESCENDING,-0.0028,1.35075,0.48020,-2.13511,0.08419,1.57080,-3.01911,-0.09677,-0.44240,0.37024,,
16.6410,1,DESCENDING,-0.0027,1.35075,0.48020,-2.13511,0.08419,1.57080,-3.01911,-0.09677,-0.44240,0.37024,,
16.6420,1,DESCENDING,-0.0026,1.35075,0.48020,-2.13512,0.08421,1.57080,-3.01911,-0.09677,-0.44240,0.37023,,
16.6425,1,DESCENDING,-0.0023,1.35075,0.48020,-2.13512,0.08421,1.57080,-3.01911,-0.09677,-0.44240,0.37023,,
16.6432,1,DESCENDING,-0.0021,1.35075,0.48020,-2.13512,0.08421,1.57080,-3.01911,-0.09677,-0.44240,0.37023,,
16.7426,1,DESCENDING,-0.0021,1.35075,0.48018,-2.13535,0.08446,1.57080,-3.01911,-0.09677,-0.44240,0.37010,,
16.7429,1,DESCENDING,-0.0020,1.35075,0.48018,-2.13535,0.08446,1.57080,-3.01911,-0.09677,-0.44240,0.37010,,
16.7432,1,DESCENDING,-0.0020,1.35075,0.48018,-2.13535,0.08446,1.57080,-3.01911,-0.09677,-0.44240,0.37010,,
16.7434,1,DESCENDING,-0.0019,1.35075,0.48018,-2.13535,0.08446,1.57080,-3.01911,-0.09677,-0.44240,0.37010,,
16.7437,1,DESCENDING,-0.0019,1.35075,0.48018,-2.13535,0.08446,1.57080,-3.01911,-0.09677,-0.44240,0.37010,,
16.7441,1,DESCENDING,-0.0018,1.35075,0.48018,-2.13535,0.08446,1.57080,-3.01911,-0.09677,-0.44240,0.37010,,
16.7445,1,DESCENDING,-0.0018,1.35075,0.48018,-2.13535,0.08446,1.57080,-3.01911,-0.09677,-0.44240,0.37010,,
16.8452,1,DESCENDING,-0.0017,1.35075,0.48015,-2.13558,0.08470,1.57080,-3.01911,-0.09677,-0.44240,0.36996,,
16.8457,1,DESCENDING,-0.0016,1.35075,0.48015,-2.13558,0.08470,1.57080,-3.01911,-0.09677,-0.44240,0.36996,,
16.8464,1,DESCENDING,-0.0015,1.35075,0.48015,-2.13558,0.08471,1.57080,-3.01911,-0.09677,-0.44240,0.36996,,
16.8475,1,DESCENDING,-0.0015,1.35075,0.48015,-2.13558,0.08471,1.57080,-3.01911,-0.09677,-0.44240,0.36996,,
16.9471,1,DESCENDING,-0.0014,1.35075,0.48013,-2.13579,0.08494,1.57080,-3.01911,-0.09677,-0.44240,0.36983,,
16.9474,1,DESCENDING,-0.0014,1.35075,0.48013,-2.13579,0.08494,1.57080,-3.01911,-0.09677,-0.44240,0.36983,,
16.9478,1,DESCENDING,-0.0014,1.35075,0.48013,-2.13579,0.08494,1.57080,-3.01911,-0.09677,-0.44240,0.36983,,
16.9481,1,DESCENDING,-0.0013,1.35075,0.48013,-2.13579,0.08494,1.57080,-3.01911,-0.09677,-0.44240,0.36983,,
16.9485,1,DESCENDING,-0.0012,1.35075,0.48013,-2.13579,0.08494,1.57080,-3.01911,-0.09677,-0.44240,0.36983,,
16.9488,1,DESCENDING,-0.0012,1.35075,0.48013,-2.13579,0.08494,1.57080,-3.01911,-0.09677,-0.44240,0.36983,,
16.9494,1,DESCENDING,-0.0012,1.35075,0.48013,-2.13579,0.08494,1.57080,-3.01911,-0.09677,-0.44240,0.36983,,
16.9500,1,DESCENDING,-0.0012,1.35075,0.48013,-2.13581,0.08496,1.57080,-3.01911,-0.09677,-0.44240,0.36982,,
17.0508,1,DESCENDING,-0.0011,1.35075,0.48011,-2.13605,0.08522,1.57080,-3.01911,-0.09677,-0.44240,0.36968,,
17.0511,1,DESCENDING,-0.0011,1.35075,0.48011,-2.13605,0.08522,1.57080,-3.01911,-0.09677,-0.44240,0.36968,,
17.0568,1,DESCENDING,-0.0010,1.35075,0.48011,-2.13605,0.08522,1.57080,-3.01911,-0.09677,-0.44240,0.36968,,
17.0570,1,DESCENDING,-0.0010,1.35075,0.48011,-2.13605,0.08522,1.57080,-3.01911,-0.09677,-0.44240,0.36968,,
17.0574,1,DESCENDING,-0.0010,1.35075,0.48011,-2.13605,0.08522,1.57080,-3.01911,-0.09677,-0.44240,0.36968,,
17.1519,1,DESCENDING,-0.0009,1.35075,0.48009,-2.13628,0.08547,1.57080,-3.01911,-0.09677,-0.44240,0.36955,,
17.1527,1,DESCENDING,-0.0009,1.35075,0.48009,-2.13628,0.08547,1.57080,-3.01911,-0.09677,-0.44240,0.36955,,
17.1532,1,DESCENDING,-0.0009,1.35075,0.48009,-2.13628,0.08547,1.57080,-3.01911,-0.09677,-0.44240,0.36955,,
17.1535,1,DESCENDING,-0.0009,1.35075,0.48009,-2.13628,0.08547,1.57080,-3.01911,-0.09677,-0.44240,0.36955,,
17.1549,1,DESCENDING,-0.0008,1.35075,0.48008,-2.13629,0.08548,1.57080,-3.01911,-0.09677,-0.44240,0.36954,,
17.1554,1,DESCENDING,-0.0008,1.35075,0.48008,-2.13629,0.08548,1.57080,-3.01911,-0.09677,-0.44240,0.36954,,
