Martins-Lucaas/RoboticArm/sensors/Data/20260621_173215__samples.csv
t_rel_s,cycle,phase,force_net_n,q1,q2,q3,q4,q5,q6,tcp_x,tcp_y,tcp_z,touch_value,touch_age_ms
0.0109,1,HOME,-0.0000,1.35075,0.48284,-2.09928,0.04573,1.57080,-3.01912,-0.09677,-0.44240,0.39130,,
0.0169,1,HOME,-0.0000,1.35075,0.48284,-2.09928,0.04573,1.57080,-3.01912,-0.09677,-0.44240,0.39130,,
0.0305,1,HOME,-0.0000,1.35075,0.48284,-2.09928,0.04573,1.57080,-3.01912,-0.09677,-0.44240,0.39130,,
0.0374,1,HOME,-0.0000,1.35075,0.48284,-2.09928,0.04573,1.57080,-3.01912,-0.09677,-0.44240,0.39130,,
0.0478,1,HOME,-0.0000,1.35075,0.48284,-2.09928,0.04573,1.57080,-3.01912,-0.09677,-0.44240,0.39130,,
0.0580,1,HOME,-0.0000,1.35075,0.48284,-2.09928,0.04573,1.57080,-3.01912,-0.09677,-0.44240,0.39130,,
0.0707,1,HOME,-0.0000,1.35075,0.48284,-2.09928,0.04573,1.57080,-3.01912,-0.09677,-0.44240,0.39130,,
0.0799,1,HOME,-0.0000,1.35075,0.48284,-2.09928,0.04573,1.57080,-3.01912,-0.09677,-0.44240,0.39130,,
0.0862,1,HOME,-0.0000,1.35075,0.48284,-2.09928,0.04573,1.57080,-3.01912,-0.09677,-0.44240,0.39130,,
0.0969,1,HOME,-0.0000,1.35075,0.48284,-2.09928,0.04573,1.57080,-3.01912,-0.09677,-0.44240,0.39130,,
0.1138,1,HOME,-0.0000,1.35075,0.48284,-2.09928,0.04573,1.57080,-3.01912,-0.09677,-0.44240,0.39130,,
0.1216,1,HOME,-0.0000,1.35075,0.48284,-2.09928,0.04573,1.57080,-3.01912,-0.09677,-0.44240,0.39130,,
0.1269,1,HOME,-0.0000,1.35075,0.48284,-2.09928,0.04573,1.57080,-3.01912,-0.09677,-0.44240,0.39130,,
0.1387,1,HOME,-0.0000,1.35075,0.48284,-2.09928,0.04573,1.57080,-3.01912,-0.09677,-0.44240,0.39130,,
0.1480,1,HOME,-0.0000,1.35075,0.48284,-2.09928,0.04573,1.57080,-3.01912,-0.09677,-0.44240,0.39130,,
0.1592,1,HOME,-0.0000,1.35075,0.48284,-2.09928,0.04573,1.57080,-3.01912,-0.09677,-0.44240,0.39130,,
0.1673,1,HOME,-0.0000,1.35075,0.48284,-2.09928,0.04573,1.57080,-3.01912,-0.09677,-0.44240,0.39130,,
0.1785,1,HOME,-0.0000,1.35075,0.48284,-2.09928,0.04573,1.57080,-3.01912,-0.09677,-0.44240,0.39130,,
0.1865,1,HOME,-0.0000,1.35075,0.48284,-2.09928,0.04573,1.57080,-3.01912,-0.09677,-0.44240,0.39130,,
0.1985,1,HOME,-0.0000,1.35075,0.48284,-2.09928,0.04573,1.57080,-3.01912,-0.09677,-0.44240,0.39130,,
0.2181,1,HOME,-0.0000,1.35075,0.48284,-2.09928,0.04573,1.57080,-3.01912,-0.09677,-0.44240,0.39130,,
0.2325,1,HOME,-0.0000,1.35075,0.48284,-2.09928,0.04573,1.57080,-3.01912,-0.09677,-0.44240,0.39130,,
0.2418,1,HOME,-0.0000,1.35075,0.48284,-2.09928,0.04573,1.57080,-3.01912,-0.09677,-0.44240,0.39130,,
0.2494,1,HOME,-0.0000,1.35075,0.48284,-2.09928,0.04573,1.57080,-3.01912,-0.09677,-0.44240,0.39130,,
0.2598,1,HOME,-0.0000,1.35075,0.48284,-2.09928,0.04573,1.57080,-3.01912,-0.09677,-0.44240,0.39130,,
0.2697,1,HOME,-0.0000,1.35075,0.48284,-2.09928,0.04573,1.57080,-3.01912,-0.09677,-0.44240,0.39130,,
0.2796,1,HOME,-0.0000,1.35075,0.48284,-2.09928,0.04573,1.57080,-3.01912,-0.09677,-0.44240,0.39130,,
0.2868,1,HOME,-0.0000,1.35075,0.48284,-2.09928,0.04573,1.57080,-3.01912,-0.09677,-0.44240,0.39130,,
0.2970,1,HOME,-0.0000,1.35075,0.48284,-2.09928,0.04573,1.57080,-3.01912,-0.09677,-0.44240,0.39130,,
0.3075,1,HOME,-0.0000,1.35075,0.48284,-2.09928,0.04573,1.57080,-3.01912,-0.09677,-0.44240,0.39130,,
0.3323,1,HOME,-0.0000,1.35075,0.48284,-2.09928,0.04573,1.57080,-3.01912,-0.09677,-0.44240,0.39130,,
0.3329,1,HOME,-0.0000,1.35075,0.48284,-2.09928,0.04573,1.57080,-3.01912,-0.09677,-0.44240,0.39130,,
0.3398,1,HOME,-0.0000,1.35075,0.48284,-2.09928,0.04573,1.57080,-3.01912,-0.09677,-0.44240,0.39130,,
0.3457,1,HOME,-0.0000,1.35075,0.48284,-2.09928,0.04573,1.57080,-3.01912,-0.09677,-0.44240,0.39130,,
0.3564,1,HOME,-0.0000,1.35075,0.48284,-2.09928,0.04573,1.57080,-3.01912,-0.09677,-0.44240,0.39130,,
0.3700,1,HOME,-0.0000,1.35075,0.48284,-2.09928,0.04573,1.57080,-3.01912,-0.09677,-0.44240,0.39130,,
0.3792,1,HOME,-0.0000,1.35075,0.48284,-2.09928,0.04573,1.57080,-3.01912,-0.09677,-0.44240,0.39130,,
0.3873,1,HOME,-0.0000,1.35075,0.48284,-2.09928,0.04573,1.57080,-3.01912,-0.09677,-0.44240,0.39130,,
0.3967,1,HOME,-0.0000,1.35075,0.48284,-2.09928,0.04573,1.57080,-3.01912,-0.09677,-0.44240,0.39130,,
0.4062,1,HOME,-0.0000,1.35075,0.48284,-2.09928,0.04573,1.57080,-3.01912,-0.09677,-0.44240,0.39130,,
0.4217,1,HOME,-0.0000,1.35075,0.48284,-2.09928,0.04573,1.57080,-3.01912,-0.09677,-0.44240,0.39130,,
0.4287,1,HOME,-0.0000,1.35075,0.48284,-2.09928,0.04573,1.57080,-3.01912,-0.09677,-0.44240,0.39130,,
0.4384,1,HOME,-0.0000,1.35075,0.48284,-2.09928,0.04573,1.57080,-3.01912,-0.09677,-0.44240,0.39130,,
0.4469,1,HOME,-0.0000,1.35075,0.48284,-2.09928,0.04573,1.57080,-3.01912,-0.09677,-0.44240,0.39130,,
0.4578,1,HOME,-0.0000,1.35075,0.48284,-2.09928,0.04573,1.57080,-3.01912,-0.09677,-0.44240,0.39130,,
0.4674,1,HOME,-0.0000,1.35075,0.48284,-2.09928,0.04573,1.57080,-3.01912,-0.09677,-0.44240,0.39130,,
0.4902,1,HOME,-0.0000,1.35075,0.48284,-2.09928,0.04573,1.57080,-3.01912,-0.09677,-0.44240,0.39130,,
0.5016,1,HOME,-0.0000,1.35075,0.48284,-2.09928,0.04573,1.57080,-3.01912,-0.09677,-0.44240,0.39130,,
0.5061,1,HOME,-0.0000,1.35075,0.48284,-2.09928,0.04573,1.57080,-3.01912,-0.09677,-0.44240,0.39130,,
0.5226,1,HOME,-0.0000,1.35075,0.48284,-2.09928,0.04573,1.57080,-3.01912,-0.09677,-0.44240,0.39130,,
0.5284,1,HOME,-0.0000,1.35075,0.48284,-2.09928,0.04573,1.57080,-3.01912,-0.09677,-0.44240,0.39130,,
0.5359,1,HOME,-0.0000,1.35075,0.48284,-2.09928,0.04573,1.57080,-3.01912,-0.09677,-0.44240,0.39130,,
0.5520,1,HOME,-0.0000,1.35075,0.48284,-2.09928,0.04573,1.57080,-3.01912,-0.09677,-0.44240,0.39130,,
0.5568,1,HOME,-0.0000,1.35075,0.48284,-2.09928,0.04573,1.57080,-3.01912,-0.09677,-0.44240,0.39130,,
0.5666,1,HOME,-0.0000,1.35075,0.48284,-2.09928,0.04573,1.57080,-3.01912,-0.09677,-0.44240,0.39130,,
0.5774,1,HOME,-0.0000,1.35075,0.48284,-2.09928,0.04573,1.57080,-3.01912,-0.09677,-0.44240,0.39130,,
0.5915,1,HOME,-0.0000,1.35075,0.48284,-2.09928,0.04573,1.57080,-3.01912,-0.09677,-0.44240,0.39130,,
0.5983,1,HOME,-0.0000,1.35075,0.48284,-2.09928,0.04573,1.57080,-3.01912,-0.09677,-0.44240,0.39130,,
0.6115,1,HOME,-0.0000,1.35075,0.48284,-2.09928,0.04573,1.57080,-3.01912,-0.09677,-0.44240,0.39130,,
0.6166,1,HOME,-0.0000,1.35075,0.48284,-2.09928,0.04573,1.57080,-3.01912,-0.09677,-0.44240,0.39130,,
0.6260,1,HOME,-0.0000,1.35075,0.48284,-2.09928,0.04573,1.57080,-3.01912,-0.09677,-0.44240,0.39130,,
0.6362,1,HOME,-0.0000,1.35075,0.48284,-2.09928,0.04573,1.57080,-3.01912,-0.09677,-0.44240,0.39130,,
0.6513,1,HOME,-0.0000,1.35075,0.48284,-2.09928,0.04573,1.57080,-3.01912,-0.09677,-0.44240,0.39130,,
0.6564,1,HOME,-0.0000,1.35075,0.48284,-2.09928,0.04573,1.57080,-3.01912,-0.09677,-0.44240,0.39130,,
0.6692,1,HOME,-0.0000,1.35075,0.48284,-2.09928,0.04573,1.57080,-3.01912,-0.09677,-0.44240,0.39130,,
0.6777,1,HOME,-0.0000,1.35075,0.48284,-2.09928,0.04573,1.57080,-3.01912,-0.09677,-0.44240,0.39130,,
0.6880,1,HOME,-0.0000,1.35075,0.48284,-2.09928,0.04573,1.57080,-3.01912,-0.09677,-0.44240,0.39130,,
0.6970,1,HOME,-0.0000,1.35075,0.48284,-2.09928,0.04573,1.57080,-3.01912,-0.09677,-0.44240,0.39130,,
0.7061,1,HOME,-0.0000,1.35075,0.48284,-2.09928,0.04573,1.57080,-3.01912,-0.09677,-0.44240,0.39130,,
0.7158,1,HOME,-0.0000,1.35075,0.48284,-2.09928,0.04573,1.57080,-3.01912,-0.09677,-0.44240,0.39130,,
0.7280,1,HOME,-0.0000,1.35075,0.48284,-2.09928,0.04573,1.57080,-3.01912,-0.09677,-0.44240,0.39130,,
0.7410,1,DESCENDING,-0.0000,1.35075,0.48284,-2.09928,0.04573,1.57080,-3.01912,-0.09677,-0.44240,0.39130,,
0.7487,1,DESCENDING,-0.0000,1.35075,0.48284,-2.09928,0.04573,1.57080,-3.01912,-0.09677,-0.44240,0.39130,,
0.7566,1,DESCENDING,-0.0000,1.35075,0.48284,-2.09928,0.04573,1.57080,-3.01912,-0.09677,-0.44240,0.39130,,
0.7663,1,DESCENDING,-0.0000,1.35075,0.48284,-2.09928,0.04573,1.57080,-3.01912,-0.09677,-0.44240,0.39130,,
0.7813,1,DESCENDING,-0.0000,1.35075,0.48284,-2.09928,0.04573,1.57080,-3.01912,-0.09677,-0.44240,0.39130,,
0.7881,1,DESCENDING,-0.0000,1.35075,0.48284,-2.09928,0.04573,1.57080,-3.01912,-0.09677,-0.44240,0.39130,,
0.7994,1,DESCENDING,-0.0000,1.35075,0.48284,-2.09928,0.04573,1.57080,-3.01912,-0.09677,-0.44240,0.39130,,
0.8060,1,DESCENDING,-0.0000,1.35075,0.48284,-2.09928,0.04573,1.57080,-3.01912,-0.09677,-0.44240,0.39130,,
0.8161,1,DESCENDING,-0.0000,1.35075,0.48284,-2.09928,0.04573,1.57080,-3.01912,-0.09677,-0.44240,0.39130,,
0.8279,1,DESCENDING,-0.0000,1.35075,0.48284,-2.09928,0.04573,1.57080,-3.01912,-0.09677,-0.44240,0.39130,,
0.8364,1,DESCENDING,-0.0000,1.35075,0.48284,-2.09928,0.04573,1.57080,-3.01912,-0.09677,-0.44240,0.39130,,
0.8494,1,DESCENDING,-0.0000,1.35075,0.48284,-2.09928,0.04573,1.57080,-3.01912,-0.09677,-0.44240,0.39130,,
0.8590,1,DESCENDING,-0.0000,1.35075,0.48284,-2.09928,0.04573,1.57080,-3.01912,-0.09677,-0.44240,0.39130,,
0.8680,1,DESCENDING,-0.0000,1.35075,0.48284,-2.09928,0.04573,1.57080,-3.01912,-0.09677,-0.44240,0.39130,,
0.8762,1,DESCENDING,-0.0000,1.35075,0.48284,-2.09928,0.04573,1.57080,-3.01912,-0.09677,-0.44240,0.39130,,
0.8989,1,DESCENDING,-0.0000,1.35075,0.48284,-2.09928,0.04573,1.57080,-3.01912,-0.09677,-0.44240,0.39130,,
0.8999,1,DESCENDING,-0.0000,1.35075,0.48284,-2.09928,0.04573,1.57080,-3.01912,-0.09677,-0.44240,0.39130,,
0.9058,1,DESCENDING,-0.0000,1.35075,0.48284,-2.09928,0.04573,1.57080,-3.01912,-0.09677,-0.44240,0.39130,,
0.9171,1,DESCENDING,-0.0000,1.35075,0.48284,-2.09928,0.04573,1.57080,-3.01912,-0.09677,-0.44240,0.39130,,
0.9327,1,DESCENDING,-0.0000,1.35075,0.48283,-2.09933,0.04578,1.57080,-3.01912,-0.09677,-0.44240,0.39127,,
0.9384,1,DESCENDING,-0.0000,1.35075,0.48283,-2.09936,0.04582,1.57080,-3.01912,-0.09677,-0.44240,0.39125,,
0.9464,1,DESCENDING,-0.0000,1.35075,0.48283,-2.09944,0.04589,1.57080,-3.01912,-0.09677,-0.44240,0.39121,,
0.9591,1,DESCENDING,-0.0000,1.35075,0.48283,-2.09948,0.04594,1.57080,-3.01912,-0.09677,-0.44240,0.39118,,
0.9684,1,DESCENDING,-0.0000,1.35075,0.48282,-2.09952,0.04598,1.57080,-3.01912,-0.09677,-0.44240,0.39116,,
0.9793,1,DESCENDING,-0.0000,1.35075,0.48282,-2.09956,0.04603,1.57080,-3.01912,-0.09677,-0.44240,0.39113,,
0.9863,1,DESCENDING,-0.0000,1.35075,0.48282,-2.09957,0.04604,1.57080,-3.01912,-0.09677,-0.44240,0.39113,,
0.9995,1,DESCENDING,-0.0000,1.35075,0.48282,-2.09967,0.04614,1.57080,-3.01912,-0.09677,-0.44240,0.39107,,
1.0072,1,DESCENDING,-0.0000,1.35075,0.48281,-2.09973,0.04620,1.57080,-3.01912,-0.09677,-0.44240,0.39104,,
1.0169,1,DESCENDING,-0.0000,1.35075,0.48281,-2.09973,0.04621,1.57080,-3.01912,-0.09677,-0.44240,0.39104,,
1.0261,1,DESCENDING,-0.0000,1.35075,0.48281,-2.09976,0.04624,1.57080,-3.01912,-0.09677,-0.44240,0.39102,,
1.0361,1,DESCENDING,-0.0000,1.35075,0.48281,-2.09983,0.04631,1.57080,-3.01912,-0.09677,-0.44240,0.39098,,
1.0463,1,DESCENDING,-0.0000,1.35075,0.48281,-2.09984,0.04632,1.57080,-3.01912,-0.09677,-0.44240,0.39098,,
1.0562,1,DESCENDING,-0.0000,1.35075,0.48280,-2.09990,0.04639,1.57080,-3.01912,-0.09677,-0.44240,0.39094,,
1.0684,1,DESCENDING,-0.0000,1.35075,0.48280,-2.10000,0.04649,1.57080,-3.01912,-0.09677,-0.44240,0.39088,,
1.0785,1,DESCENDING,-0.0000,1.35075,0.48280,-2.10000,0.04649,1.57080,-3.01912,-0.09677,-0.44240,0.39088,,
1.0926,1,DESCENDING,-0.0000,1.35075,0.48280,-2.10007,0.04656,1.57080,-3.01912,-0.09677,-0.44240,0.39084,,
1.1022,1,DESCENDING,-0.0000,1.35075,0.48279,-2.10010,0.04659,1.57080,-3.01912,-0.09677,-0.44240,0.39082,,
1.1076,1,DESCENDING,-0.0000,1.35075,0.48279,-2.10012,0.04661,1.57080,-3.01912,-0.09677,-0.44240,0.39081,,
1.1160,1,DESCENDING,-0.0000,1.35075,0.48279,-2.10017,0.04667,1.57080,-3.01912,-0.09677,-0.44240,0.39078,,
1.1261,1,DESCENDING,-0.0000,1.35075,0.48279,-2.10023,0.04673,1.57080,-3.01912,-0.09677,-0.44240,0.39074,,
1.1375,1,DESCENDING,-0.0000,1.35075,0.48279,-2.10027,0.04677,1.57080,-3.01912,-0.09677,-0.44240,0.39072,,
1.1475,1,DESCENDING,-0.0000,1.35075,0.48278,-2.10033,0.04684,1.57080,-3.01912,-0.09677,-0.44240,0.39069,,
1.1568,1,DESCENDING,-0.0000,1.35075,0.48278,-2.10040,0.04690,1.57080,-3.01912,-0.09677,-0.44240,0.39065,,
1.1672,1,DESCENDING,-0.0000,1.35075,0.48278,-2.10042,0.04692,1.57080,-3.01912,-0.09677,-0.44240,0.39064,,
1.1753,1,DESCENDING,-0.0000,1.35075,0.48278,-2.10046,0.04698,1.57080,-3.01912,-0.09677,-0.44240,0.39061,,
1.1921,1,DESCENDING,-0.0000,1.35075,0.48277,-2.10056,0.04707,1.57080,-3.01912,-0.09677,-0.44240,0.39056,,
1.1979,1,DESCENDING,-0.0000,1.35075,0.48277,-2.10056,0.04708,1.57080,-3.01912,-0.09677,-0.44240,0.39055,,
1.2083,1,DESCENDING,-0.0000,1.35075,0.48277,-2.10063,0.04715,1.57080,-3.01912,-0.09677,-0.44240,0.39052,,
1.2168,1,DESCENDING,-0.0000,1.35075,0.48276,-2.10069,0.04721,1.57080,-3.01912,-0.09677,-0.44240,0.39048,,
1.2272,1,DESCENDING,-0.0000,1.35075,0.48276,-2.10071,0.04723,1.57080,-3.01912,-0.09677,-0.44240,0.39047,,
1.2404,1,DESCENDING,-0.0000,1.35075,0.48276,-2.10079,0.04731,1.57080,-3.01912,-0.09677,-0.44240,0.39042,,
1.2466,1,DESCENDING,-0.0000,1.35075,0.48276,-2.10082,0.04735,1.57080,-3.01912,-0.09677,-0.44240,0.39041,,
1.2676,1,DESCENDING,-0.0000,1.35075,0.48275,-2.10092,0.04745,1.57080,-3.01912,-0.09677,-0.44240,0.39035,,
1.2797,1,DESCENDING,-0.0000,1.35075,0.48275,-2.10098,0.04752,1.57080,-3.01912,-0.09677,-0.44240,0.39031,,
1.2920,1,DESCENDING,-0.0000,1.35075,0.48275,-2.10102,0.04756,1.57080,-3.01912,-0.09677,-0.44240,0.39029,,
1.3036,1,DESCENDING,-0.0000,1.35075,0.48274,-2.10111,0.04765,1.57080,-3.01912,-0.09677,-0.44240,0.39024,,
1.3074,1,DESCENDING,-0.0000,1.35075,0.48274,-2.10114,0.04769,1.57080,-3.01912,-0.09677,-0.44240,0.39022,,
1.3172,1,DESCENDING,-0.0000,1.35075,0.48274,-2.10114,0.04769,1.57080,-3.01912,-0.09677,-0.44240,0.39021,,
1.3482,1,DESCENDING,-0.0000,1.35075,0.48273,-2.10129,0.04784,1.57080,-3.01912,-0.09677,-0.44240,0.39013,,
1.3553,1,DESCENDING,-0.0000,1.35075,0.48273,-2.10134,0.04790,1.57080,-3.01912,-0.09677,-0.44240,0.39010,,
1.3559,1,DESCENDING,-0.0000,1.35075,0.48273,-2.10134,0.04790,1.57080,-3.01912,-0.09677,-0.44240,0.39010,,
1.3677,1,DESCENDING,-0.0000,1.35075,0.48272,-2.10143,0.04799,1.57080,-3.01912,-0.09677,-0.44240,0.39005,,
1.3779,1,DESCENDING,-0.0000,1.35075,0.48272,-2.10144,0.04800,1.57080,-3.01912,-0.09677,-0.44240,0.39005,,
1.3863,1,DESCENDING,-0.0000,1.35075,0.48272,-2.10147,0.04804,1.57080,-3.01912,-0.09677,-0.44240,0.39002,,
1.3974,1,DESCENDING,-0.0000,1.35075,0.48272,-2.10156,0.04813,1.57080,-3.01912,-0.09677,-0.44240,0.38997,,
1.4105,1,DESCENDING,-0.0000,1.35075,0.48272,-2.10160,0.04817,1.57080,-3.01912,-0.09677,-0.44240,0.38995,,
1.4183,1,DESCENDING,-0.0000,1.35075,0.48271,-2.10162,0.04820,1.57080,-3.01912,-0.09677,-0.44240,0.38994,,
1.4290,1,DESCENDING,-0.0000,1.35075,0.48271,-2.10169,0.04827,1.57080,-3.01912,-0.09677,-0.44240,0.38989,,
1.4502,1,DESCENDING,-0.0000,1.35075,0.48271,-2.10177,0.04835,1.57080,-3.01912,-0.09677,-0.44240,0.38985,,
1.4562,1,DESCENDING,-0.0000,1.35075,0.48270,-2.10183,0.04841,1.57080,-3.01912,-0.09677,-0.44240,0.38982,,
1.4566,1,DESCENDING,-0.0000,1.35075,0.48270,-2.10183,0.04841,1.57080,-3.01912,-0.09677,-0.44240,0.38982,,
1.4663,1,DESCENDING,-0.0000,1.35075,0.48270,-2.10186,0.04844,1.57080,-3.01912,-0.09677,-0.44240,0.38980,,
1.4791,1,DESCENDING,-0.0000,1.35075,0.48270,-2.10189,0.04848,1.57080,-3.01912,-0.09677,-0.44240,0.38978,,
1.4891,1,DESCENDING,-0.0000,1.35075,0.48270,-2.10196,0.04855,1.57080,-3.01912,-0.09677,-0.44240,0.38974,,
1.4978,1,DESCENDING,-0.0000,1.35075,0.48270,-2.10197,0.04856,1.57080,-3.01912,-0.09677,-0.44240,0.38974,,
1.5089,1,DESCENDING,-0.0000,1.35075,0.48269,-2.10203,0.04863,1.57080,-3.01912,-0.09677,-0.44240,0.38970,,
1.5242,1,DESCENDING,-0.0000,1.35075,0.48269,-2.10213,0.04873,1.57080,-3.01912,-0.09677,-0.44240,0.38964,,
1.6371,1,DESCENDING,-0.0000,1.35075,0.48266,-2.10263,0.04926,1.57080,-3.01912,-0.09677,-0.44240,0.38935,,
1.6489,1,DESCENDING,-0.0000,1.35075,0.48266,-2.10266,0.04929,1.57080,-3.01912,-0.09677,-0.44240,0.38933,,
1.6546,1,DESCENDING,-0.0000,1.35075,0.48266,-2.10267,0.04930,1.57080,-3.01912,-0.09677,-0.44240,0.38932,,
1.6552,1,DESCENDING,-0.0000,1.35075,0.48266,-2.10267,0.04930,1.57080,-3.01912,-0.09677,-0.44240,0.38932,,
1.6585,1,DESCENDING,-0.0000,1.35075,0.48266,-2.10269,0.04932,1.57080,-3.01912,-0.09677,-0.44240,0.38931,,
1.6603,1,DESCENDING,-0.0000,1.35075,0.48265,-2.10271,0.04934,1.57080,-3.01912,-0.09677,-0.44240,0.38930,,
1.6655,1,DESCENDING,-0.0000,1.35075,0.48265,-2.10274,0.04937,1.57080,-3.01912,-0.09677,-0.44240,0.38929,,
1.6683,1,DESCENDING,-0.0000,1.35075,0.48265,-2.10276,0.04940,1.57080,-3.01912,-0.09677,-0.44240,0.38927,,
1.6736,1,DESCENDING,-0.0000,1.35075,0.48265,-2.10276,0.04940,1.57080,-3.01912,-0.09677,-0.44240,0.38927,,
1.6746,1,DESCENDING,-0.0000,1.35075,0.48265,-2.10276,0.04940,1.57080,-3.01912,-0.09677,-0.44240,0.38927,,
1.6775,1,DESCENDING,-0.0000,1.35075,0.48265,-2.10277,0.04940,1.57080,-3.01912,-0.09677,-0.44240,0.38927,,
1.6875,1,DESCENDING,-0.0000,1.35075,0.48265,-2.10283,0.04947,1.57080,-3.01912,-0.09677,-0.44240,0.38923,,
1.6972,1,DESCENDING,-0.0000,1.35075,0.48264,-2.10290,0.04954,1.57080,-3.01912,-0.09677,-0.44240,0.38919,,
1.7105,1,DESCENDING,-0.0000,1.35075,0.48264,-2.10293,0.04957,1.57080,-3.01912,-0.09677,-0.44240,0.38917,,
1.7173,1,DESCENDING,-0.0000,1.35075,0.48264,-2.10296,0.04960,1.57080,-3.01912,-0.09677,-0.44240,0.38916,,
1.7273,1,DESCENDING,-0.0000,1.35075,0.48264,-2.10303,0.04968,1.57080,-3.01912,-0.09677,-0.44240,0.38912,,
1.7421,1,DESCENDING,-0.0000,1.35075,0.48264,-2.10305,0.04970,1.57080,-3.01912,-0.09677,-0.44240,0.38910,,
1.7521,1,DESCENDING,-0.0000,1.35075,0.48263,-2.10313,0.04979,1.57080,-3.01912,-0.09677,-0.44240,0.38906,,
1.7578,1,DESCENDING,-0.0000,1.35075,0.48263,-2.10316,0.04982,1.57080,-3.01912,-0.09677,-0.44240,0.38904,,
1.7717,1,DESCENDING,-0.0000,1.35075,0.48263,-2.10321,0.04987,1.57080,-3.01912,-0.09677,-0.44240,0.38901,,
1.7844,1,DESCENDING,-0.0000,1.35075,0.48262,-2.10329,0.04996,1.57080,-3.01912,-0.09677,-0.44240,0.38896,,
1.8119,1,DESCENDING,-0.0000,1.35075,0.48262,-2.10342,0.05009,1.57080,-3.01912,-0.09677,-0.44240,0.38889,,
1.8314,1,DESCENDING,-0.0000,1.35075,0.48261,-2.10350,0.05018,1.57080,-3.01912,-0.09677,-0.44240,0.38884,,
1.8399,1,DESCENDING,-0.0000,1.35075,0.48261,-2.10355,0.05023,1.57080,-3.01912,-0.09677,-0.44240,0.38881,,
1.8666,1,DESCENDING,-0.0000,1.35075,0.48260,-2.10366,0.05034,1.57080,-3.01912,-0.09677,-0.44240,0.38875,,
1.9120,1,DESCENDING,-0.0000,1.35075,0.48259,-2.10391,0.05061,1.57080,-3.01912,-0.09677,-0.44240,0.38860,,
1.9127,1,DESCENDING,-0.0000,1.35075,0.48259,-2.10391,0.05061,1.57080,-3.01912,-0.09677,-0.44240,0.38860,,
1.9172,1,DESCENDING,-0.0000,1.35075,0.48259,-2.10391,0.05061,1.57080,-3.01912,-0.09677,-0.44240,0.38860,,
1.9192,1,DESCENDING,-0.0000,1.35075,0.48259,-2.10392,0.05062,1.57080,-3.01912,-0.09677,-0.44240,0.38860,,
1.9196,1,DESCENDING,-0.0000,1.35075,0.48259,-2.10392,0.05062,1.57080,-3.01912,-0.09677,-0.44240,0.38860,,
1.9218,1,DESCENDING,-0.0000,1.35075,0.48259,-2.10392,0.05062,1.57080,-3.01912,-0.09677,-0.44240,0.38860,,
1.9272,1,DESCENDING,-0.0000,1.35075,0.48259,-2.10394,0.05064,1.57080,-3.01912,-0.09677,-0.44240,0.38858,,
1.9366,1,DESCENDING,-0.0000,1.35075,0.48258,-2.10399,0.05069,1.57080,-3.01912,-0.09677,-0.44240,0.38856,,
2.0450,1,DESCENDING,-0.0000,1.35075,0.48256,-2.10446,0.05119,1.57080,-3.01912,-0.09677,-0.44240,0.38828,,
2.1113,1,DESCENDING,-0.0000,1.35075,0.48254,-2.10476,0.05151,1.57080,-3.01912,-0.09677,-0.44240,0.38810,,
2.1518,1,DESCENDING,-0.0000,1.35075,0.48253,-2.10498,0.05174,1.57080,-3.01912,-0.09677,-0.44240,0.38798,,
2.1823,1,DESCENDING,-0.0000,1.35075,0.48252,-2.10508,0.05185,1.57080,-3.01912,-0.09677,-0.44240,0.38792,,
2.2129,1,DESCENDING,-0.0000,1.35075,0.48251,-2.10525,0.05202,1.57080,-3.01912,-0.09677,-0.44240,0.38782,,
2.2326,1,DESCENDING,-0.0000,1.35075,0.48251,-2.10530,0.05207,1.57080,-3.01912,-0.09677,-0.44240,0.38779,,
2.2363,1,DESCENDING,-0.0000,1.35075,0.48251,-2.10532,0.05210,1.57080,-3.01912,-0.09677,-0.44240,0.38778,,
2.2516,1,DESCENDING,-0.0000,1.35075,0.48250,-2.10537,0.05215,1.57080,-3.01912,-0.09677,-0.44240,0.38775,,
2.2639,1,DESCENDING,-0.0000,1.35075,0.48250,-2.10545,0.05224,1.57080,-3.01912,-0.09677,-0.44240,0.38770,,
2.2987,1,DESCENDING,-0.0000,1.35075,0.48249,-2.10561,0.05241,1.57080,-3.01912,-0.09677,-0.44240,0.38761,,
2.3021,1,DESCENDING,-0.0000,1.35075,0.48249,-2.10564,0.05244,1.57080,-3.01912,-0.09677,-0.44240,0.38759,,
2.3030,1,DESCENDING,-0.0000,1.35075,0.48249,-2.10564,0.05244,1.57080,-3.01912,-0.09677,-0.44240,0.38759,,
2.3106,1,DESCENDING,-0.0000,1.35075,0.48249,-2.10565,0.05245,1.57080,-3.01912,-0.09677,-0.44240,0.38759,,
2.3278,1,DESCENDING,-0.0000,1.35075,0.48248,-2.10577,0.05258,1.57080,-3.01912,-0.09677,-0.44240,0.38752,,
2.3334,1,DESCENDING,-0.0000,1.35075,0.48248,-2.10580,0.05261,1.57080,-3.01912,-0.09677,-0.44240,0.38750,,
2.3477,1,DESCENDING,-0.0000,1.35075,0.48248,-2.10584,0.05265,1.57080,-3.01912,-0.09677,-0.44240,0.38747,,
2.3499,1,DESCENDING,-0.0000,1.35075,0.48248,-2.10584,0.05265,1.57080,-3.01912,-0.09677,-0.44240,0.38747,,
2.3502,1,DESCENDING,-0.0000,1.35075,0.48248,-2.10584,0.05265,1.57080,-3.01912,-0.09677,-0.44240,0.38747,,
2.3530,1,DESCENDING,-0.0000,1.35075,0.48248,-2.10587,0.05268,1.57080,-3.01912,-0.09677,-0.44240,0.38746,,
2.3581,1,DESCENDING,-0.0000,1.35075,0.48247,-2.10590,0.05271,1.57080,-3.01912,-0.09677,-0.44240,0.38744,,
2.3783,1,DESCENDING,-0.0000,1.35075,0.48247,-2.10597,0.05279,1.57080,-3.01912,-0.09677,-0.44240,0.38740,,
2.3838,1,DESCENDING,-0.0000,1.35075,0.48247,-2.10603,0.05285,1.57080,-3.01912,-0.09677,-0.44240,0.38736,,
2.3842,1,DESCENDING,-0.0000,1.35075,0.48247,-2.10603,0.05285,1.57080,-3.01912,-0.09677,-0.44240,0.38736,,
2.4283,1,DESCENDING,-0.0000,1.35075,0.48245,-2.10623,0.05306,1.57080,-3.01912,-0.09677,-0.44240,0.38725,,
2.4286,1,DESCENDING,-0.0000,1.35075,0.48245,-2.10623,0.05306,1.57080,-3.01912,-0.09677,-0.44240,0.38725,,
2.4294,1,DESCENDING,-0.0000,1.35075,0.48245,-2.10623,0.05306,1.57080,-3.01912,-0.09677,-0.44240,0.38725,,
2.4335,1,DESCENDING,-0.0000,1.35075,0.48245,-2.10624,0.05308,1.57080,-3.01912,-0.09677,-0.44240,0.38724,,
2.4525,1,DESCENDING,-0.0000,1.35075,0.48244,-2.10638,0.05322,1.57080,-3.01912,-0.09677,-0.44240,0.38716,,
2.4531,1,DESCENDING,-0.0000,1.35075,0.48244,-2.10638,0.05322,1.57080,-3.01912,-0.09677,-0.44240,0.38716,,
2.4534,1,DESCENDING,-0.0000,1.35075,0.48244,-2.10638,0.05322,1.57080,-3.01912,-0.09677,-0.44240,0.38716,,
2.4573,1,DESCENDING,-0.0000,1.35075,0.48244,-2.10638,0.05322,1.57080,-3.01912,-0.09677,-0.44240,0.38716,,
2.4577,1,DESCENDING,-0.0000,1.35075,0.48244,-2.10638,0.05322,1.57080,-3.01912,-0.09677,-0.44240,0.38716,,
2.4594,1,DESCENDING,-0.0000,1.35075,0.48244,-2.10639,0.05323,1.57080,-3.01912,-0.09677,-0.44240,0.38716,,
2.4600,1,DESCENDING,-0.0000,1.35075,0.48244,-2.10639,0.05323,1.57080,-3.01912,-0.09677,-0.44240,0.38716,,
2.4698,1,DESCENDING,-0.0000,1.35075,0.48244,-2.10643,0.05327,1.57080,-3.01912,-0.09677,-0.44240,0.38713,,
2.4778,1,DESCENDING,-0.0000,1.35075,0.48244,-2.10648,0.05333,1.57080,-3.01912,-0.09677,-0.44240,0.38710,,
2.4884,1,DESCENDING,-0.0000,1.35075,0.48244,-2.10654,0.05340,1.57080,-3.01912,-0.09677,-0.44240,0.38706,,
2.4969,1,DESCENDING,-0.0000,1.35075,0.48243,-2.10656,0.05341,1.57080,-3.01912,-0.09677,-0.44240,0.38706,,
2.5074,1,DESCENDING,-0.0000,1.35075,0.48243,-2.10662,0.05348,1.57080,-3.01912,-0.09677,-0.44240,0.38702,,
2.5163,1,DESCENDING,-0.0000,1.35075,0.48243,-2.10665,0.05350,1.57080,-3.01912,-0.09677,-0.44240,0.38700,,
2.5286,1,DESCENDING,-0.0000,1.35075,0.48243,-2.10669,0.05355,1.57080,-3.01912,-0.09677,-0.44240,0.38698,,
2.5375,1,DESCENDING,-0.0000,1.35075,0.48242,-2.10675,0.05361,1.57080,-3.01912,-0.09677,-0.44240,0.38695,,
2.5466,1,DESCENDING,-0.0000,1.35075,0.48242,-2.10681,0.05368,1.57080,-3.01912,-0.09677,-0.44240,0.38691,,
2.5564,1,DESCENDING,-0.0000,1.35075,0.48242,-2.10683,0.05369,1.57080,-3.01912,-0.09677,-0.44240,0.38690,,
2.5778,1,DESCENDING,-0.0000,1.35075,0.48241,-2.10691,0.05379,1.57080,-3.01912,-0.09677,-0.44240,0.38685,,
2.5792,1,DESCENDING,-0.0000,1.35075,0.48241,-2.10692,0.05379,1.57080,-3.01912,-0.09677,-0.44240,0.38685,,
2.5915,1,DESCENDING,-0.0000,1.35075,0.48241,-2.10698,0.05386,1.57080,-3.01912,-0.09677,-0.44240,0.38681,,
2.5973,1,DESCENDING,-0.0000,1.35075,0.48241,-2.10702,0.05389,1.57080,-3.01912,-0.09677,-0.44240,0.38679,,
2.6089,1,DESCENDING,-0.0000,1.35075,0.48240,-2.10708,0.05396,1.57080,-3.01912,-0.09677,-0.44240,0.38675,,
2.6180,1,DESCENDING,-0.0000,1.35075,0.48240,-2.10709,0.05398,1.57080,-3.01912,-0.09677,-0.44240,0.38674,,
2.6306,1,DESCENDING,-0.0000,1.35075,0.48240,-2.10715,0.05404,1.57080,-3.01912,-0.09677,-0.44240,0.38671,,
2.6392,1,DESCENDING,-0.0000,1.35075,0.48240,-2.10718,0.05407,1.57080,-3.01912,-0.09677,-0.44240,0.38669,,
2.6921,1,DESCENDING,-0.0000,1.35075,0.48238,-2.10745,0.05435,1.57080,-3.01912,-0.09677,-0.44240,0.38654,,
2.7215,1,DESCENDING,-0.0000,1.35075,0.48237,-2.10758,0.05449,1.57080,-3.01912,-0.09677,-0.44240,0.38646,,
2.7259,1,DESCENDING,-0.0000,1.35075,0.48237,-2.10761,0.05452,1.57080,-3.01912,-0.09677,-0.44240,0.38644,,
2.7276,1,DESCENDING,-0.0000,1.35075,0.48237,-2.10761,0.05452,1.57080,-3.01912,-0.09677,-0.44240,0.38644,,
2.7421,1,DESCENDING,-0.0000,1.35075,0.48237,-2.10764,0.05456,1.57080,-3.01912,-0.09677,-0.44240,0.38642,,
2.7436,1,DESCENDING,-0.0000,1.35075,0.48237,-2.10766,0.05458,1.57080,-3.01912,-0.09677,-0.44240,0.38641,,
2.7525,1,DESCENDING,-0.0000,1.35075,0.48236,-2.10771,0.05463,1.57080,-3.01912,-0.09677,-0.44240,0.38638,,
2.7529,1,DESCENDING,-0.0000,1.35075,0.48236,-2.10771,0.05463,1.57080,-3.01912,-0.09677,-0.44240,0.38638,,
2.7533,1,DESCENDING,-0.0000,1.35075,0.48236,-2.10771,0.05463,1.57080,-3.01912,-0.09677,-0.44240,0.38638,,
2.7596,1,DESCENDING,-0.0000,1.35075,0.48236,-2.10772,0.05464,1.57080,-3.01912,-0.09677,-0.44240,0.38638,,
2.7667,1,DESCENDING,-0.0000,1.35075,0.48236,-2.10773,0.05465,1.57080,-3.01912,-0.09677,-0.44240,0.38637,,
2.7818,1,DESCENDING,-0.0000,1.35075,0.48236,-2.10785,0.05477,1.57080,-3.01912,-0.09677,-0.44240,0.38630,,
2.7878,1,DESCENDING,-0.0000,1.35075,0.48235,-2.10788,0.05481,1.57080,-3.01912,-0.09677,-0.44240,0.38629,,
2.7968,1,DESCENDING,-0.0000,1.35075,0.48235,-2.10789,0.05482,1.57080,-3.01912,-0.09677,-0.44240,0.38628,,
2.8066,1,DESCENDING,-0.0000,1.35075,0.48235,-2.10793,0.05486,1.57080,-3.01912,-0.09677,-0.44240,0.38626,,
2.8192,1,DESCENDING,-0.0000,1.35075,0.48235,-2.10798,0.05492,1.57080,-3.01912,-0.09677,-0.44240,0.38623,,
2.8393,1,DESCENDING,-0.0000,1.35075,0.48234,-2.10808,0.05502,1.57080,-3.01912,-0.09677,-0.44240,0.38617,,
2.8403,1,DESCENDING,-0.0000,1.35075,0.48234,-2.10811,0.05506,1.57080,-3.01912,-0.09677,-0.44240,0.38615,,
2.8464,1,DESCENDING,-0.0000,1.35075,0.48234,-2.10814,0.05509,1.57080,-3.01912,-0.09677,-0.44240,0.38613,,
2.8584,1,DESCENDING,-0.0000,1.35075,0.48234,-2.10816,0.05510,1.57080,-3.01912,-0.09677,-0.44240,0.38612,,
2.8676,1,DESCENDING,-0.0000,1.35075,0.48234,-2.10819,0.05514,1.57080,-3.01912,-0.09677,-0.44240,0.38610,,
2.8836,1,DESCENDING,-0.0000,1.35075,0.48233,-2.10825,0.05520,1.57080,-3.01912,-0.09677,-0.44240,0.38607,,
2.8902,1,DESCENDING,-0.0000,1.35075,0.48233,-2.10829,0.05524,1.57080,-3.01912,-0.09677,-0.44240,0.38605,,
2.9003,1,DESCENDING,-0.0000,1.35075,0.48232,-2.10838,0.05534,1.57080,-3.01912,-0.09677,-0.44240,0.38599,,
2.9064,1,DESCENDING,-0.0000,1.35075,0.48232,-2.10841,0.05537,1.57080,-3.01912,-0.09677,-0.44240,0.38597,,
2.9212,1,DESCENDING,-0.0000,1.35075,0.48232,-2.10844,0.05540,1.57080,-3.01912,-0.09677,-0.44240,0.38596,,
2.9333,1,DESCENDING,-0.0000,1.35075,0.48232,-2.10851,0.05548,1.57080,-3.01912,-0.09677,-0.44240,0.38592,,
2.9382,1,DESCENDING,-0.0000,1.35075,0.48232,-2.10851,0.05548,1.57080,-3.01912,-0.09677,-0.44240,0.38592,,
2.9479,1,DESCENDING,-0.0000,1.35075,0.48231,-2.10853,0.05550,1.57080,-3.01912,-0.09677,-0.44240,0.38590,,
2.9565,1,DESCENDING,-0.0000,1.35075,0.48231,-2.10861,0.05559,1.57080,-3.01912,-0.09677,-0.44240,0.38586,,
2.9666,1,DESCENDING,-0.0000,1.35075,0.48231,-2.10867,0.05565,1.57080,-3.01912,-0.09677,-0.44240,0.38582,,
2.9855,1,DESCENDING,-0.0000,1.35075,0.48230,-2.10873,0.05571,1.57080,-3.01912,-0.09677,-0.44240,0.38579,,
2.9868,1,DESCENDING,-0.0000,1.35075,0.48230,-2.10873,0.05571,1.57080,-3.01912,-0.09677,-0.44240,0.38579,,
2.9968,1,DESCENDING,-0.0000,1.35075,0.48230,-2.10878,0.05576,1.57080,-3.01912,-0.09677,-0.44240,0.38576,,
3.0091,1,DESCENDING,-0.0000,1.35075,0.48230,-2.10882,0.05581,1.57080,-3.01912,-0.09677,-0.44240,0.38573,,
3.0241,1,DESCENDING,-0.0000,1.35075,0.48229,-2.10894,0.05594,1.57080,-3.01912,-0.09677,-0.44240,0.38566,,
3.0327,1,DESCENDING,-0.0000,1.35075,0.48229,-2.10894,0.05594,1.57080,-3.01912,-0.09677,-0.44240,0.38566,,
3.0383,1,DESCENDING,-0.0000,1.35075,0.48229,-2.10895,0.05595,1.57080,-3.01912,-0.09677,-0.44240,0.38566,,
3.0530,1,DESCENDING,-0.0000,1.35075,0.48228,-2.10904,0.05605,1.57080,-3.01912,-0.09677,-0.44240,0.38560,,
3.0582,1,DESCENDING,-0.0000,1.35075,0.48228,-2.10904,0.05605,1.57080,-3.01912,-0.09677,-0.44240,0.38560,,
3.0669,1,DESCENDING,-0.0000,1.35075,0.48228,-2.10906,0.05607,1.57080,-3.01912,-0.09677,-0.44240,0.38559,,
3.1002,1,DESCENDING,-0.0000,1.35075,0.48227,-2.10924,0.05625,1.57080,-3.01912,-0.09677,-0.44240,0.38549,,
3.1032,1,DESCENDING,-0.0000,1.35075,0.48227,-2.10924,0.05625,1.57080,-3.01912,-0.09677,-0.44240,0.38549,,
3.1089,1,DESCENDING,-0.0000,1.35075,0.48227,-2.10928,0.05630,1.57080,-3.01912,-0.09677,-0.44240,0.38546,,
3.1106,1,DESCENDING,-0.0000,1.35075,0.48227,-2.10928,0.05630,1.57080,-3.01912,-0.09677,-0.44240,0.38546,,
3.1174,1,DESCENDING,-0.0000,1.35075,0.48227,-2.10931,0.05633,1.57080,-3.01912,-0.09677,-0.44240,0.38545,,
3.1293,1,DESCENDING,-0.0000,1.35075,0.48226,-2.10935,0.05637,1.57080,-3.01912,-0.09677,-0.44240,0.38542,,
3.1365,1,DESCENDING,-0.0000,1.35075,0.48226,-2.10941,0.05644,1.57080,-3.01912,-0.09677,-0.44240,0.38539,,
3.1474,1,DESCENDING,-0.0000,1.35075,0.48226,-2.10947,0.05650,1.57080,-3.01912,-0.09677,-0.44240,0.38535,,
3.1581,1,DESCENDING,-0.0000,1.35075,0.48225,-2.10949,0.05652,1.57080,-3.01912,-0.09677,-0.44240,0.38534,,
3.1695,1,DESCENDING,-0.0000,1.35075,0.48225,-2.10955,0.05658,1.57080,-3.01912,-0.09677,-0.44240,0.38531,,
3.1765,1,DESCENDING,-0.0000,1.35075,0.48225,-2.10957,0.05661,1.57080,-3.01912,-0.09677,-0.44240,0.38529,,
3.1903,1,DESCENDING,-0.0000,1.35075,0.48225,-2.10962,0.05666,1.57080,-3.01912,-0.09677,-0.44240,0.38527,,
3.1979,1,DESCENDING,-0.0000,1.35075,0.48224,-2.10968,0.05672,1.57080,-3.01912,-0.09677,-0.44240,0.38523,,
3.2065,1,DESCENDING,-0.0000,1.35075,0.48224,-2.10974,0.05679,1.57080,-3.01912,-0.09677,-0.44240,0.38520,,
3.2164,1,DESCENDING,-0.0000,1.35075,0.48224,-2.10976,0.05681,1.57080,-3.01912,-0.09677,-0.44240,0.38519,,
3.2325,1,DESCENDING,-0.0000,1.35075,0.48223,-2.10987,0.05692,1.57080,-3.01912,-0.09677,-0.44240,0.38512,,
3.2498,1,DESCENDING,-0.0000,1.35075,0.48223,-2.10991,0.05697,1.57080,-3.01912,-0.09677,-0.44240,0.38510,,
3.2509,1,DESCENDING,-0.0000,1.35075,0.48223,-2.10991,0.05697,1.57080,-3.01912,-0.09677,-0.44240,0.38510,,
3.2571,1,DESCENDING,-0.0000,1.35075,0.48222,-2.10997,0.05703,1.57080,-3.01912,-0.09677,-0.44240,0.38506,,
3.2666,1,DESCENDING,-0.0000,1.35075,0.48222,-2.11003,0.05709,1.57080,-3.01912,-0.09677,-0.44240,0.38503,,
3.2801,1,DESCENDING,-0.0000,1.35075,0.48222,-2.11007,0.05714,1.57080,-3.01912,-0.09677,-0.44240,0.38500,,
3.3003,1,DESCENDING,-0.0000,1.35075,0.48221,-2.11016,0.05724,1.57080,-3.01912,-0.09677,-0.44240,0.38495,,
3.3621,1,DESCENDING,-0.0000,1.35075,0.48219,-2.11045,0.05755,1.57080,-3.01912,-0.09677,-0.44240,0.38478,,
3.3724,1,DESCENDING,-0.0000,1.35075,0.48219,-2.11052,0.05761,1.57080,-3.01912,-0.09677,-0.44240,0.38474,,
3.3737,1,DESCENDING,-0.0000,1.35075,0.48219,-2.11052,0.05761,1.57080,-3.01912,-0.09677,-0.44240,0.38474,,
3.3770,1,DESCENDING,-0.0000,1.35075,0.48219,-2.11055,0.05764,1.57080,-3.01912,-0.09677,-0.44240,0.38472,,
3.3786,1,DESCENDING,-0.0000,1.35075,0.48219,-2.11055,0.05764,1.57080,-3.01912,-0.09677,-0.44240,0.38472,,
3.3789,1,DESCENDING,-0.0000,1.35075,0.48219,-2.11055,0.05764,1.57080,-3.01912,-0.09677,-0.44240,0.38472,,
3.3801,1,DESCENDING,-0.0000,1.35075,0.48218,-2.11058,0.05768,1.57080,-3.01912,-0.09677,-0.44240,0.38471,,
3.3900,1,DESCENDING,-0.0000,1.35075,0.48218,-2.11061,0.05771,1.57080,-3.01912,-0.09677,-0.44240,0.38469,,
3.3970,1,DESCENDING,-0.0000,1.35075,0.48218,-2.11063,0.05773,1.57080,-3.01912,-0.09677,-0.44240,0.38468,,
3.4065,1,DESCENDING,-0.0000,1.35075,0.48218,-2.11068,0.05778,1.57080,-3.01912,-0.09677,-0.44240,0.38465,,
3.4164,1,DESCENDING,-0.0000,1.35075,0.48217,-2.11077,0.05788,1.57080,-3.01912,-0.09677,-0.44240,0.38459,,
3.4262,1,DESCENDING,-0.0000,1.35075,0.48217,-2.11077,0.05789,1.57080,-3.01912,-0.09677,-0.44240,0.38459,,
3.4383,1,DESCENDING,-0.0000,1.35075,0.48217,-2.11082,0.05794,1.57080,-3.01912,-0.09677,-0.44240,0.38456,,
3.4526,1,DESCENDING,-0.0000,1.35075,0.48216,-2.11088,0.05800,1.57080,-3.01912,-0.09677,-0.44240,0.38453,,
3.4582,1,DESCENDING,-0.0000,1.35075,0.48216,-2.11089,0.05801,1.57080,-3.01912,-0.09677,-0.44240,0.38452,,
3.4668,1,DESCENDING,-0.0000,1.35075,0.48216,-2.11094,0.05807,1.57080,-3.01912,-0.09677,-0.44240,0.38449,,
3.4766,1,DESCENDING,-0.0000,1.35075,0.48215,-2.11103,0.05816,1.57080,-3.01912,-0.09677,-0.44240,0.38444,,
3.4956,1,DESCENDING,-0.0000,1.35075,0.48215,-2.11106,0.05820,1.57080,-3.01912,-0.09677,-0.44240,0.38442,,
3.5094,1,DESCENDING,-0.0000,1.35075,0.48215,-2.11114,0.05827,1.57080,-3.01912,-0.09677,-0.44240,0.38438,,
3.5102,1,DESCENDING,-0.0000,1.35075,0.48215,-2.11114,0.05827,1.57080,-3.01912,-0.09677,-0.44240,0.38438,,
3.5192,1,DESCENDING,-0.0000,1.35075,0.48215,-2.11116,0.05829,1.57080,-3.01912,-0.09677,-0.44240,0.38437,,
3.5263,1,DESCENDING,-0.0000,1.35075,0.48214,-2.11121,0.05835,1.57080,-3.01912,-0.09677,-0.44240,0.38434,,
3.5385,1,DESCENDING,-0.0000,1.35075,0.48214,-2.11127,0.05842,1.57080,-3.01912,-0.09677,-0.44240,0.38430,,
3.5469,1,DESCENDING,-0.0000,1.35075,0.48214,-2.11129,0.05844,1.57080,-3.01912,-0.09677,-0.44240,0.38429,,
3.5571,1,DESCENDING,-0.0000,1.35075,0.48213,-2.11137,0.05852,1.57080,-3.01912,-0.09677,-0.44240,0.38424,,
3.5670,1,DESCENDING,-0.0000,1.35075,0.48213,-2.11143,0.05858,1.57080,-3.01912,-0.09677,-0.44240,0.38421,,
3.5766,1,DESCENDING,-0.0000,1.35075,0.48213,-2.11145,0.05861,1.57080,-3.01912,-0.09677,-0.44240,0.38420,,
3.5860,1,DESCENDING,-0.0000,1.35075,0.48212,-2.11150,0.05866,1.57080,-3.01912,-0.09677,-0.44240,0.38417,,
3.5966,1,DESCENDING,-0.0000,1.35075,0.48212,-2.11159,0.05876,1.57080,-3.01912,-0.09677,-0.44240,0.38411,,
3.6076,1,DESCENDING,-0.0000,1.35075,0.48212,-2.11159,0.05876,1.57080,-3.01912,-0.09677,-0.44240,0.38411,,
3.6164,1,DESCENDING,-0.0000,1.35075,0.48211,-2.11164,0.05881,1.57080,-3.01912,-0.09677,-0.44240,0.38408,,
3.6288,1,DESCENDING,-0.0000,1.35075,0.48211,-2.11169,0.05886,1.57080,-3.01912,-0.09677,-0.44240,0.38405,,
3.6388,1,DESCENDING,-0.0000,1.35075,0.48211,-2.11171,0.05889,1.57080,-3.01912,-0.09677,-0.44240,0.38404,,
3.6476,1,DESCENDING,-0.0000,1.35075,0.48211,-2.11176,0.05894,1.57080,-3.01912,-0.09677,-0.44240,0.38401,,
3.6583,1,DESCENDING,-0.0000,1.35075,0.48210,-2.11185,0.05904,1.57080,-3.01912,-0.09677,-0.44240,0.38396,,
3.6691,1,DESCENDING,-0.0000,1.35075,0.48210,-2.11187,0.05905,1.57080,-3.01912,-0.09677,-0.44240,0.38395,,
3.6789,1,DESCENDING,-0.0000,1.35075,0.48210,-2.11191,0.05909,1.57080,-3.01912,-0.09677,-0.44240,0.38393,,
3.6860,1,DESCENDING,-0.0000,1.35075,0.48209,-2.11196,0.05915,1.57080,-3.01912,-0.09677,-0.44240,0.38390,,
3.7031,1,DESCENDING,-0.0000,1.35075,0.48209,-2.11200,0.05919,1.57080,-3.01912,-0.09677,-0.44240,0.38387,,
3.7061,1,DESCENDING,-0.0000,1.35075,0.48209,-2.11203,0.05922,1.57080,-3.01912,-0.09677,-0.44240,0.38386,,
3.7168,1,DESCENDING,-0.0000,1.35075,0.48208,-2.11212,0.05932,1.57080,-3.01912,-0.09677,-0.44240,0.38380,,
3.7259,1,DESCENDING,-0.0000,1.35075,0.48208,-2.11212,0.05933,1.57080,-3.01912,-0.09677,-0.44240,0.38380,,
3.7369,1,DESCENDING,-0.0000,1.35075,0.48208,-2.11217,0.05938,1.57080,-3.01912,-0.09677,-0.44240,0.38377,,
3.7498,1,DESCENDING,-0.0000,1.35075,0.48208,-2.11222,0.05943,1.57080,-3.01912,-0.09677,-0.44240,0.38374,,
3.7662,1,DESCENDING,-0.0000,1.35075,0.48207,-2.11229,0.05951,1.57080,-3.01912,-0.09677,-0.44240,0.38370,,
3.7668,1,DESCENDING,-0.0000,1.35075,0.48207,-2.11229,0.05951,1.57080,-3.01912,-0.09677,-0.44240,0.38370,,
3.7762,1,DESCENDING,-0.0000,1.35075,0.48207,-2.11239,0.05961,1.57080,-3.01912,-0.09677,-0.44240,0.38365,,
3.8183,1,DESCENDING,-0.0000,1.35075,0.48206,-2.11251,0.05974,1.57080,-3.01912,-0.09677,-0.44240,0.38357,,
3.8187,1,DESCENDING,-0.0000,1.35075,0.48206,-2.11251,0.05974,1.57080,-3.01912,-0.09677,-0.44240,0.38357,,
3.8527,1,DESCENDING,-0.0000,1.35075,0.48205,-2.11268,0.05992,1.57080,-3.01912,-0.09677,-0.44240,0.38347,,
3.8684,1,DESCENDING,-0.0000,1.35075,0.48204,-2.11275,0.06000,1.57080,-3.01912,-0.09677,-0.44240,0.38343,,
3.8689,1,DESCENDING,-0.0000,1.35075,0.48204,-2.11275,0.06000,1.57080,-3.01912,-0.09677,-0.44240,0.38343,,
3.8774,1,DESCENDING,-0.0000,1.35075,0.48204,-2.11277,0.06002,1.57080,-3.01912,-0.09677,-0.44240,0.38342,,
3.8866,1,DESCENDING,-0.0000,1.35075,0.48204,-2.11282,0.06007,1.57080,-3.01912,-0.09677,-0.44240,0.38339,,
3.9027,1,DESCENDING,-0.0000,1.35075,0.48203,-2.11292,0.06017,1.57080,-3.01912,-0.09677,-0.44240,0.38333,,
3.9085,1,DESCENDING,-0.0000,1.35075,0.48203,-2.11294,0.06019,1.57080,-3.01912,-0.09677,-0.44240,0.38332,,
3.9163,1,DESCENDING,-0.0000,1.35075,0.48202,-2.11299,0.06025,1.57080,-3.01912,-0.09677,-0.44240,0.38329,,
3.9290,1,DESCENDING,-0.0000,1.35075,0.48202,-2.11308,0.06034,1.57080,-3.01912,-0.09677,-0.44240,0.38324,,
3.9373,1,DESCENDING,-0.0000,1.35075,0.48202,-2.11308,0.06035,1.57080,-3.01912,-0.09677,-0.44240,0.38324,,
3.9487,1,DESCENDING,-0.0000,1.35075,0.48201,-2.11313,0.06040,1.57080,-3.01912,-0.09677,-0.44240,0.38321,,
3.9627,1,DESCENDING,-0.0000,1.35075,0.48201,-2.11318,0.06045,1.57080,-3.01912,-0.09677,-0.44240,0.38318,,
3.9707,1,DESCENDING,-0.0000,1.35075,0.48201,-2.11320,0.06047,1.57080,-3.01912,-0.09677,-0.44240,0.38317,,
3.9764,1,DESCENDING,-0.0000,1.35075,0.48201,-2.11325,0.06053,1.57080,-3.01912,-0.09677,-0.44240,0.38314,,
3.9885,1,DESCENDING,-0.0000,1.35075,0.48200,-2.11331,0.06059,1.57080,-3.01912,-0.09677,-0.44240,0.38310,,
4.0022,1,DESCENDING,-0.0000,1.35075,0.48200,-2.11335,0.06064,1.57080,-3.01912,-0.09677,-0.44240,0.38308,,
4.0100,1,DESCENDING,-0.0000,1.35075,0.48200,-2.11341,0.06070,1.57080,-3.01912,-0.09677,-0.44240,0.38305,,
4.0177,1,DESCENDING,-0.0000,1.35075,0.48199,-2.11347,0.06076,1.57080,-3.01912,-0.09677,-0.44240,0.38301,,
4.0304,1,DESCENDING,-0.0000,1.35075,0.48199,-2.11349,0.06078,1.57080,-3.01912,-0.09677,-0.44240,0.38300,,
4.0385,1,DESCENDING,-0.0000,1.35075,0.48199,-2.11352,0.06082,1.57080,-3.01912,-0.09677,-0.44240,0.38298,,
4.0483,1,DESCENDING,-0.0000,1.35075,0.48198,-2.11360,0.06090,1.57080,-3.01912,-0.09677,-0.44240,0.38293,,
4.0579,1,DESCENDING,-0.0000,1.35075,0.48198,-2.11360,0.06091,1.57080,-3.01912,-0.09677,-0.44240,0.38293,,
4.0678,1,DESCENDING,-0.0000,1.35075,0.48198,-2.11363,0.06094,1.57080,-3.01912,-0.09677,-0.44240,0.38291,,
4.0766,1,DESCENDING,-0.0000,1.35075,0.48198,-2.11371,0.06102,1.57080,-3.01912,-0.09677,-0.44240,0.38287,,
4.0879,1,DESCENDING,-0.0000,1.35075,0.48197,-2.11373,0.06104,1.57080,-3.01912,-0.09677,-0.44240,0.38286,,
4.1045,1,DESCENDING,-0.0000,1.35075,0.48197,-2.11384,0.06116,1.57080,-3.01912,-0.09677,-0.44240,0.38279,,
4.1126,1,DESCENDING,-0.0000,1.35075,0.48196,-2.11387,0.06119,1.57080,-3.01912,-0.09677,-0.44240,0.38277,,
4.1173,1,DESCENDING,-0.0000,1.35075,0.48196,-2.11388,0.06120,1.57080,-3.01912,-0.09677,-0.44240,0.38277,,
4.1260,1,DESCENDING,-0.0000,1.35075,0.48196,-2.11390,0.06123,1.57080,-3.01912,-0.09677,-0.44240,0.38276,,
4.1375,1,DESCENDING,-0.0000,1.35075,0.48196,-2.11397,0.06130,1.57080,-3.01912,-0.09677,-0.44240,0.38272,,
4.1510,1,DESCENDING,-0.0000,1.35075,0.48196,-2.11399,0.06132,1.57080,-3.01912,-0.09677,-0.44240,0.38270,,
4.1599,1,DESCENDING,-0.0000,1.35075,0.48195,-2.11408,0.06141,1.57080,-3.01912,-0.09677,-0.44240,0.38266,,
4.1686,1,DESCENDING,-0.0000,1.35075,0.48195,-2.11414,0.06148,1.57080,-3.01912,-0.09677,-0.44240,0.38262,,
4.1789,1,DESCENDING,-0.0000,1.35075,0.48195,-2.11414,0.06148,1.57080,-3.01912,-0.09677,-0.44240,0.38262,,
4.1864,1,DESCENDING,-0.0000,1.35075,0.48194,-2.11417,0.06151,1.57080,-3.01912,-0.09677,-0.44240,0.38260,,
4.2003,1,DESCENDING,-0.0000,1.35075,0.48194,-2.11424,0.06158,1.57080,-3.01912,-0.09677,-0.44240,0.38256,,
4.2097,1,DESCENDING,-0.0000,1.35075,0.48194,-2.11426,0.06161,1.57080,-3.01912,-0.09677,-0.44240,0.38255,,
4.2164,1,DESCENDING,-0.0000,1.35075,0.48193,-2.11431,0.06166,1.57080,-3.01912,-0.09677,-0.44240,0.38252,,
4.2276,1,DESCENDING,-0.0000,1.35075,0.48193,-2.11437,0.06173,1.57080,-3.01912,-0.09677,-0.44240,0.38248,,
4.2363,1,DESCENDING,-0.0000,1.35075,0.48193,-2.11441,0.06176,1.57080,-3.01912,-0.09677,-0.44240,0.38246,,
4.2467,1,DESCENDING,-0.0000,1.35075,0.48192,-2.11443,0.06179,1.57080,-3.01912,-0.09677,-0.44240,0.38245,,
4.2567,1,DESCENDING,-0.0000,1.35075,0.48192,-2.11450,0.06187,1.57080,-3.01912,-0.09677,-0.44240,0.38240,,
4.2694,1,DESCENDING,-0.0000,1.35075,0.48192,-2.11452,0.06189,1.57080,-3.01912,-0.09677,-0.44240,0.38239,,
4.2780,1,DESCENDING,-0.0000,1.35075,0.48192,-2.11457,0.06194,1.57080,-3.01912,-0.09677,-0.44240,0.38236,,
4.2881,1,DESCENDING,-0.0000,1.35075,0.48191,-2.11467,0.06204,1.57080,-3.01912,-0.09677,-0.44240,0.38231,,
4.2973,1,DESCENDING,-0.0000,1.35075,0.48191,-2.11467,0.06205,1.57080,-3.01912,-0.09677,-0.44240,0.38231,,
4.3124,1,DESCENDING,-0.0000,1.35075,0.48191,-2.11472,0.06210,1.57080,-3.01912,-0.09677,-0.44240,0.38228,,
4.3300,1,DESCENDING,-0.0000,1.35075,0.48190,-2.11479,0.06217,1.57080,-3.01912,-0.09677,-0.44240,0.38224,,
4.3304,1,DESCENDING,-0.0000,1.35075,0.48190,-2.11479,0.06217,1.57080,-3.01912,-0.09677,-0.44240,0.38224,,
4.3373,1,DESCENDING,-0.0000,1.35075,0.48190,-2.11484,0.06223,1.57080,-3.01912,-0.09677,-0.44240,0.38221,,
4.3465,1,DESCENDING,-0.0000,1.35075,0.48189,-2.11490,0.06229,1.57080,-3.01912,-0.09677,-0.44240,0.38217,,
4.3580,1,DESCENDING,-0.0000,1.35075,0.48189,-2.11494,0.06233,1.57080,-3.01912,-0.09677,-0.44240,0.38215,,
4.3693,1,DESCENDING,-0.0000,1.35075,0.48189,-2.11500,0.06240,1.57080,-3.01912,-0.09677,-0.44240,0.38211,,
4.3785,1,DESCENDING,-0.0000,1.35075,0.48188,-2.11506,0.06247,1.57080,-3.01912,-0.09677,-0.44240,0.38208,,
4.3862,1,DESCENDING,-0.0000,1.35075,0.48188,-2.11507,0.06247,1.57080,-3.01912,-0.09677,-0.44240,0.38207,,
4.3979,1,DESCENDING,-0.0000,1.35075,0.48188,-2.11513,0.06254,1.57080,-3.01912,-0.09677,-0.44240,0.38204,,
4.4213,1,DESCENDING,-0.0000,1.35075,0.48187,-2.11524,0.06266,1.57080,-3.01912,-0.09677,-0.44240,0.38197,,
4.4216,1,DESCENDING,-0.0000,1.35075,0.48187,-2.11524,0.06266,1.57080,-3.01912,-0.09677,-0.44240,0.38197,,
4.4262,1,DESCENDING,-0.0000,1.35075,0.48187,-2.11526,0.06268,1.57080,-3.01912,-0.09677,-0.44240,0.38196,,
4.4417,1,DESCENDING,-0.0000,1.35075,0.48186,-2.11538,0.06281,1.57080,-3.01912,-0.09677,-0.44240,0.38189,,
4.4484,1,DESCENDING,-0.0000,1.35075,0.48186,-2.11539,0.06281,1.57080,-3.01912,-0.09677,-0.44240,0.38189,,
4.4578,1,DESCENDING,-0.0000,1.35075,0.48186,-2.11541,0.06284,1.57080,-3.01912,-0.09677,-0.44240,0.38187,,
4.4670,1,DESCENDING,-0.0000,1.35075,0.48185,-2.11546,0.06289,1.57080,-3.01912,-0.09677,-0.44240,0.38184,,
4.4772,1,DESCENDING,-0.0000,1.35075,0.48185,-2.11549,0.06292,1.57080,-3.01912,-0.09677,-0.44240,0.38183,,
4.4860,1,DESCENDING,-0.0000,1.35075,0.48185,-2.11553,0.06296,1.57080,-3.01912,-0.09677,-0.44240,0.38180,,
4.4973,1,DESCENDING,-0.0000,1.35075,0.48184,-2.11562,0.06306,1.57080,-3.01912,-0.09677,-0.44240,0.38175,,
4.5170,1,DESCENDING,-0.0000,1.35075,0.48184,-2.11568,0.06312,1.57080,-3.01912,-0.09677,-0.44240,0.38171,,
4.5175,1,DESCENDING,-0.0000,1.35075,0.48184,-2.11568,0.06312,1.57080,-3.01912,-0.09677,-0.44240,0.38171,,
4.5264,1,DESCENDING,-0.0000,1.35075,0.48183,-2.11572,0.06317,1.57080,-3.01912,-0.09677,-0.44240,0.38169,,
4.5487,1,DESCENDING,-0.0000,1.35075,0.48183,-2.11582,0.06328,1.57080,-3.01912,-0.09677,-0.44240,0.38163,,
4.5603,1,DESCENDING,-0.0000,1.35075,0.48182,-2.11591,0.06338,1.57080,-3.01912,-0.09677,-0.44240,0.38158,,
4.5703,1,DESCENDING,-0.0000,1.35075,0.48182,-2.11592,0.06338,1.57080,-3.01912,-0.09677,-0.44240,0.38157,,
4.5778,1,DESCENDING,-0.0000,1.35075,0.48182,-2.11594,0.06341,1.57080,-3.01912,-0.09677,-0.44240,0.38156,,
4.5884,1,DESCENDING,-0.0000,1.35075,0.48181,-2.11601,0.06348,1.57080,-3.01912,-0.09677,-0.44240,0.38152,,
4.5967,1,DESCENDING,-0.0000,1.35075,0.48181,-2.11602,0.06349,1.57080,-3.01912,-0.09677,-0.44240,0.38151,,
4.6064,1,DESCENDING,-0.0000,1.35075,0.48181,-2.11606,0.06353,1.57080,-3.01912,-0.09677,-0.44240,0.38149,,
4.6212,1,DESCENDING,-0.0000,1.35075,0.48180,-2.11618,0.06366,1.57080,-3.01912,-0.09677,-0.44240,0.38142,,
4.6303,1,DESCENDING,-0.0000,1.35075,0.48180,-2.11618,0.06366,1.57080,-3.01912,-0.09677,-0.44240,0.38142,,
4.6366,1,DESCENDING,-0.0000,1.35075,0.48180,-2.11621,0.06369,1.57080,-3.01912,-0.09677,-0.44240,0.38140,,
4.6465,1,DESCENDING,-0.0000,1.35075,0.48180,-2.11625,0.06374,1.57080,-3.01912,-0.09677,-0.44240,0.38138,,
4.6575,1,DESCENDING,-0.0000,1.35075,0.48179,-2.11628,0.06377,1.57080,-3.01912,-0.09677,-0.44240,0.38136,,
4.6662,1,DESCENDING,-0.0000,1.35075,0.48179,-2.11632,0.06381,1.57080,-3.01912,-0.09677,-0.44240,0.38134,,
4.6789,1,DESCENDING,-0.0000,1.35075,0.48178,-2.11641,0.06391,1.57080,-3.01912,-0.09677,-0.44240,0.38128,,
4.6872,1,DESCENDING,-0.0000,1.35075,0.48178,-2.11644,0.06394,1.57080,-3.01912,-0.09677,-0.44240,0.38127,,
4.6971,1,DESCENDING,-0.0000,1.35075,0.48178,-2.11647,0.06398,1.57080,-3.01912,-0.09677,-0.44240,0.38125,,
4.7062,1,DESCENDING,-0.0000,1.35075,0.48178,-2.11652,0.06402,1.57080,-3.01912,-0.09677,-0.44240,0.38122,,
4.7215,1,DESCENDING,-0.0000,1.35075,0.48177,-2.11656,0.06407,1.57080,-3.01912,-0.09677,-0.44240,0.38119,,
4.7268,1,DESCENDING,-0.0000,1.35075,0.48177,-2.11659,0.06410,1.57080,-3.01912,-0.09677,-0.44240,0.38118,,
4.7377,1,DESCENDING,-0.0000,1.35075,0.48177,-2.11668,0.06420,1.57080,-3.01912,-0.09677,-0.44240,0.38113,,
4.7472,1,DESCENDING,-0.0000,1.35075,0.48176,-2.11668,0.06420,1.57080,-3.01912,-0.09677,-0.44240,0.38113,,
4.7571,1,DESCENDING,-0.0000,1.35075,0.48176,-2.11674,0.06427,1.57080,-3.01912,-0.09677,-0.44240,0.38109,,
4.7683,1,DESCENDING,-0.0000,1.35075,0.48176,-2.11680,0.06433,1.57080,-3.01912,-0.09677,-0.44240,0.38105,,
4.7764,1,DESCENDING,-0.0000,1.35075,0.48175,-2.11683,0.06436,1.57080,-3.01912,-0.09677,-0.44240,0.38104,,
4.7915,1,DESCENDING,-0.0000,1.35075,0.48175,-2.11690,0.06444,1.57080,-3.01912,-0.09677,-0.44240,0.38099,,
4.7966,1,DESCENDING,-0.0000,1.35075,0.48175,-2.11693,0.06447,1.57080,-3.01912,-0.09677,-0.44240,0.38098,,
4.8069,1,DESCENDING,-0.0000,1.35075,0.48174,-2.11699,0.06454,1.57080,-3.01912,-0.09677,-0.44240,0.38094,,
4.8295,1,DESCENDING,-0.0000,1.35075,0.48173,-2.11710,0.06465,1.57080,-3.01912,-0.09677,-0.44240,0.38088,,
4.8301,1,DESCENDING,-0.0000,1.35075,0.48173,-2.11710,0.06465,1.57080,-3.01912,-0.09677,-0.44240,0.38088,,
4.8361,1,DESCENDING,-0.0000,1.35075,0.48173,-2.11710,0.06465,1.57080,-3.01912,-0.09677,-0.44240,0.38088,,
4.8461,1,DESCENDING,-0.0000,1.35075,0.48173,-2.11714,0.06469,1.57080,-3.01912,-0.09677,-0.44240,0.38086,,
4.8584,1,DESCENDING,-0.0000,1.35075,0.48173,-2.11723,0.06479,1.57080,-3.01912,-0.09677,-0.44240,0.38080,,
4.8679,1,DESCENDING,-0.0000,1.35075,0.48172,-2.11726,0.06482,1.57080,-3.01912,-0.09677,-0.44240,0.38079,,
4.8763,1,DESCENDING,-0.0000,1.35075,0.48172,-2.11727,0.06484,1.57080,-3.01912,-0.09677,-0.44240,0.38078,,
4.8882,1,DESCENDING,-0.0000,1.35075,0.48172,-2.11733,0.06490,1.57080,-3.01912,-0.09677,-0.44240,0.38074,,
4.8976,1,DESCENDING,-0.0000,1.35075,0.48171,-2.11737,0.06494,1.57080,-3.01912,-0.09677,-0.44240,0.38072,,
4.9099,1,DESCENDING,-0.0000,1.35075,0.48171,-2.11743,0.06501,1.57080,-3.01912,-0.09677,-0.44240,0.38068,,
4.9165,1,DESCENDING,-0.0000,1.35075,0.48171,-2.11746,0.06504,1.57080,-3.01912,-0.09677,-0.44240,0.38067,,
4.9318,1,DESCENDING,-0.0000,1.35075,0.48170,-2.11753,0.06511,1.57080,-3.01912,-0.09677,-0.44240,0.38063,,
4.9364,1,DESCENDING,-0.0000,1.35075,0.48170,-2.11754,0.06512,1.57080,-3.01912,-0.09677,-0.44240,0.38062,,
4.9667,1,DESCENDING,-0.0000,1.35075,0.48169,-2.11767,0.06526,1.57080,-3.01912,-0.09677,-0.44240,0.38054,,
4.9694,1,DESCENDING,-0.0000,1.35075,0.48169,-2.11770,0.06529,1.57080,-3.01912,-0.09677,-0.44240,0.38053,,
4.9787,1,DESCENDING,-0.0000,1.35075,0.48169,-2.11776,0.06536,1.57080,-3.01912,-0.09677,-0.44240,0.38049,,
4.9998,1,DESCENDING,-0.0000,1.35075,0.48168,-2.11782,0.06542,1.57080,-3.01912,-0.09677,-0.44240,0.38046,,
5.0072,1,DESCENDING,-0.0000,1.35075,0.48168,-2.11786,0.06547,1.57080,-3.01912,-0.09677,-0.44240,0.38043,,
5.0161,1,DESCENDING,-0.0000,1.35075,0.48168,-2.11789,0.06550,1.57080,-3.01912,-0.09677,-0.44240,0.38041,,
5.0403,1,DESCENDING,-0.0000,1.35075,0.48167,-2.11802,0.06564,1.57080,-3.01912,-0.09677,-0.44240,0.38034,,
5.0408,1,DESCENDING,-0.0000,1.35075,0.48167,-2.11802,0.06564,1.57080,-3.01912,-0.09677,-0.44240,0.38034,,
5.0501,1,DESCENDING,-0.0000,1.35075,0.48166,-2.11806,0.06568,1.57080,-3.01912,-0.09677,-0.44240,0.38032,,
5.0574,1,DESCENDING,-0.0000,1.35075,0.48166,-2.11808,0.06571,1.57080,-3.01912,-0.09677,-0.44240,0.38030,,
5.0661,1,DESCENDING,-0.0000,1.35075,0.48166,-2.11813,0.06575,1.57080,-3.01912,-0.09677,-0.44240,0.38027,,
5.0901,1,DESCENDING,-0.0000,1.35075,0.48165,-2.11823,0.06586,1.57080,-3.01912,-0.09677,-0.44240,0.38022,,
5.0912,1,DESCENDING,-0.0000,1.35075,0.48165,-2.11823,0.06586,1.57080,-3.01912,-0.09677,-0.44240,0.38022,,
5.0965,1,DESCENDING,-0.0000,1.35075,0.48165,-2.11826,0.06589,1.57080,-3.01912,-0.09677,-0.44240,0.38020,,
5.1507,1,DESCENDING,-0.0000,1.35075,0.48163,-2.11849,0.06614,1.57080,-3.01912,-0.09677,-0.44240,0.38006,,
5.1512,1,DESCENDING,-0.0000,1.35075,0.48163,-2.11849,0.06614,1.57080,-3.01912,-0.09677,-0.44240,0.38006,,
5.1527,1,DESCENDING,-0.0000,1.35075,0.48163,-2.11849,0.06614,1.57080,-3.01912,-0.09677,-0.44240,0.38006,,
5.1540,1,DESCENDING,-0.0000,1.35075,0.48163,-2.11852,0.06618,1.57080,-3.01912,-0.09677,-0.44240,0.38004,,
5.1701,1,DESCENDING,-0.0000,1.35075,0.48162,-2.11859,0.06625,1.57080,-3.01912,-0.09677,-0.44240,0.38000,,
5.1709,1,DESCENDING,-0.0000,1.35075,0.48162,-2.11859,0.06625,1.57080,-3.01912,-0.09677,-0.44240,0.38000,,
5.1843,1,DESCENDING,-0.0000,1.35075,0.48162,-2.11863,0.06630,1.57080,-3.01912,-0.09677,-0.44240,0.37998,,
5.2211,1,DESCENDING,-0.0000,1.35075,0.48161,-2.11882,0.06649,1.57080,-3.01912,-0.09677,-0.44240,0.37987,,
5.2229,1,DESCENDING,-0.0000,1.35075,0.48160,-2.11885,0.06653,1.57080,-3.01912,-0.09677,-0.44240,0.37985,,
5.2402,1,DESCENDING,-0.0000,1.35075,0.48160,-2.11888,0.06656,1.57080,-3.01912,-0.09677,-0.44240,0.37983,,
5.2421,1,DESCENDING,-0.0000,1.35075,0.48160,-2.11890,0.06658,1.57080,-3.01912,-0.09677,-0.44240,0.37982,,
5.2426,1,DESCENDING,-0.0000,1.35075,0.48160,-2.11890,0.06658,1.57080,-3.01912,-0.09677,-0.44240,0.37982,,
5.2473,1,DESCENDING,-0.0000,1.35075,0.48160,-2.11892,0.06661,1.57080,-3.01912,-0.09677,-0.44240,0.37981,,
5.2593,1,DESCENDING,-0.0000,1.35075,0.48160,-2.11895,0.06664,1.57080,-3.01912,-0.09677,-0.44240,0.37979,,
5.2681,1,DESCENDING,-0.0000,1.35075,0.48159,-2.11899,0.06668,1.57080,-3.01912,-0.09677,-0.44240,0.37977,,
5.2816,1,DESCENDING,-0.0000,1.35075,0.48159,-2.11908,0.06678,1.57080,-3.01912,-0.09677,-0.44240,0.37971,,
5.2863,1,DESCENDING,-0.0000,1.35075,0.48158,-2.11911,0.06681,1.57080,-3.01912,-0.09677,-0.44240,0.37970,,
5.2976,1,DESCENDING,-0.0000,1.35075,0.48158,-2.11913,0.06683,1.57080,-3.01912,-0.09677,-0.44240,0.37969,,
5.3063,1,DESCENDING,-0.0000,1.35075,0.48158,-2.11919,0.06689,1.57080,-3.01912,-0.09677,-0.44240,0.37965,,
5.3200,1,DESCENDING,-0.0000,1.35075,0.48158,-2.11922,0.06693,1.57080,-3.01912,-0.09677,-0.44240,0.37963,,
5.3362,1,DESCENDING,-0.0000,1.35075,0.48157,-2.11931,0.06703,1.57080,-3.01912,-0.09677,-0.44240,0.37958,,
5.3370,1,DESCENDING,-0.0000,1.35075,0.48157,-2.11931,0.06703,1.57080,-3.01912,-0.09677,-0.44240,0.37958,,
5.3479,1,DESCENDING,-0.0000,1.35075,0.48156,-2.11938,0.06710,1.57080,-3.01912,-0.09677,-0.44240,0.37954,,
5.3579,1,DESCENDING,-0.0000,1.35075,0.48156,-2.11941,0.06713,1.57080,-3.01912,-0.09677,-0.44240,0.37952,,
5.3901,1,DESCENDING,-0.0000,1.35075,0.48155,-2.11955,0.06728,1.57080,-3.01912,-0.09677,-0.44240,0.37944,,
5.3986,1,DESCENDING,-0.0000,1.35075,0.48155,-2.11961,0.06735,1.57080,-3.01912,-0.09677,-0.44240,0.37940,,
5.4004,1,DESCENDING,-0.0000,1.35075,0.48155,-2.11961,0.06735,1.57080,-3.01912,-0.09677,-0.44240,0.37940,,
5.4026,1,DESCENDING,-0.0000,1.35075,0.48154,-2.11964,0.06738,1.57080,-3.01912,-0.09677,-0.44240,0.37938,,
5.4088,1,DESCENDING,-0.0000,1.35075,0.48154,-2.11964,0.06738,1.57080,-3.01912,-0.09677,-0.44240,0.37938,,
5.4171,1,DESCENDING,-0.0000,1.35075,0.48154,-2.11966,0.06740,1.57080,-3.01912,-0.09677,-0.44240,0.37938,,
5.4270,1,DESCENDING,-0.0000,1.35075,0.48154,-2.11972,0.06746,1.57080,-3.01912,-0.09677,-0.44240,0.37934,,
5.4472,1,DESCENDING,-0.0000,1.35075,0.48153,-2.11978,0.06754,1.57080,-3.01912,-0.09677,-0.44240,0.37930,,
5.4574,1,DESCENDING,-0.0000,1.35075,0.48153,-2.11984,0.06760,1.57080,-3.01912,-0.09677,-0.44240,0.37927,,
5.4682,1,DESCENDING,-0.0000,1.35075,0.48152,-2.11991,0.06766,1.57080,-3.01912,-0.09677,-0.44240,0.37923,,
5.4772,1,DESCENDING,-0.0000,1.35075,0.48152,-2.11992,0.06768,1.57080,-3.01912,-0.09677,-0.44240,0.37922,,
5.4912,1,DESCENDING,-0.0000,1.35075,0.48152,-2.12001,0.06777,1.57080,-3.01912,-0.09677,-0.44240,0.37917,,
5.4995,1,DESCENDING,-0.0000,1.35075,0.48152,-2.12001,0.06778,1.57080,-3.01912,-0.09677,-0.44240,0.37917,,
5.5087,1,DESCENDING,-0.0000,1.35075,0.48151,-2.12005,0.06782,1.57080,-3.01912,-0.09677,-0.44240,0.37914,,
5.5205,1,DESCENDING,-0.0000,1.35075,0.48151,-2.12014,0.06792,1.57080,-3.01912,-0.09677,-0.44240,0.37909,,
5.5290,1,DESCENDING,-0.0000,1.35075,0.48150,-2.12017,0.06795,1.57080,-3.01912,-0.09677,-0.44240,0.37907,,
5.5566,1,DESCENDING,-0.0000,1.35075,0.48149,-2.12030,0.06809,1.57080,-3.01912,-0.09677,-0.44240,0.37900,,
5.5613,1,DESCENDING,-0.0000,1.35075,0.48149,-2.12030,0.06809,1.57080,-3.01912,-0.09677,-0.44240,0.37899,,
5.5618,1,DESCENDING,-0.0000,1.35075,0.48149,-2.12030,0.06809,1.57080,-3.01912,-0.09677,-0.44240,0.37899,,
5.5670,1,DESCENDING,-0.0000,1.35075,0.48149,-2.12034,0.06813,1.57080,-3.01912,-0.09677,-0.44240,0.37897,,
5.5764,1,DESCENDING,-0.0000,1.35075,0.48149,-2.12040,0.06819,1.57080,-3.01912,-0.09677,-0.44240,0.37894,,
5.5874,1,DESCENDING,-0.0000,1.35075,0.48148,-2.12046,0.06826,1.57080,-3.01912,-0.09677,-0.44240,0.37890,,
5.6018,1,DESCENDING,-0.0000,1.35075,0.48148,-2.12050,0.06830,1.57080,-3.01912,-0.09677,-0.44240,0.37888,,
5.6124,1,DESCENDING,-0.0000,1.35075,0.48147,-2.12059,0.06840,1.57080,-3.01912,-0.09677,-0.44240,0.37883,,
5.6167,1,DESCENDING,-0.0000,1.35075,0.48147,-2.12059,0.06840,1.57080,-3.01912,-0.09677,-0.44240,0.37883,,
5.6267,1,DESCENDING,-0.0000,1.35075,0.48147,-2.12063,0.06844,1.57080,-3.01912,-0.09677,-0.44240,0.37880,,
5.6501,1,DESCENDING,-0.0000,1.35075,0.48146,-2.12075,0.06858,1.57080,-3.01912,-0.09677,-0.44240,0.37873,,
5.6512,1,DESCENDING,-0.0000,1.35075,0.48146,-2.12075,0.06858,1.57080,-3.01912,-0.09677,-0.44240,0.37873,,
5.6562,1,DESCENDING,-0.0000,1.35075,0.48146,-2.12077,0.06859,1.57080,-3.01912,-0.09677,-0.44240,0.37872,,
5.6694,1,DESCENDING,-0.0000,1.35075,0.48145,-2.12084,0.06868,1.57080,-3.01912,-0.09677,-0.44240,0.37868,,
5.6781,1,DESCENDING,-0.0000,1.35075,0.48145,-2.12088,0.06871,1.57080,-3.01912,-0.09677,-0.44240,0.37866,,
5.6870,1,DESCENDING,-0.0000,1.35075,0.48145,-2.12092,0.06875,1.57080,-3.01912,-0.09677,-0.44240,0.37863,,
5.6973,1,DESCENDING,-0.0000,1.35075,0.48144,-2.12097,0.06881,1.57080,-3.01912,-0.09677,-0.44240,0.37860,,
5.7073,1,DESCENDING,-0.0000,1.35075,0.48144,-2.12103,0.06888,1.57080,-3.01912,-0.09677,-0.44240,0.37856,,
5.7168,1,DESCENDING,-0.0000,1.35075,0.48144,-2.12105,0.06890,1.57080,-3.01912,-0.09677,-0.44240,0.37855,,
5.7293,1,DESCENDING,-0.0000,1.35075,0.48143,-2.12113,0.06899,1.57080,-3.01912,-0.09677,-0.44240,0.37851,,
5.7362,1,DESCENDING,-0.0000,1.35075,0.48142,-2.12119,0.06905,1.57080,-3.01912,-0.09677,-0.44240,0.37847,,
5.7625,1,DESCENDING,-0.0000,1.35075,0.48142,-2.12129,0.06916,1.57080,-3.01912,-0.09677,-0.44240,0.37841,,
5.7637,1,DESCENDING,-0.0000,1.35075,0.48142,-2.12129,0.06916,1.57080,-3.01912,-0.09677,-0.44240,0.37841,,
5.7669,1,DESCENDING,-0.0000,1.35075,0.48142,-2.12129,0.06916,1.57080,-3.01912,-0.09677,-0.44240,0.37841,,
5.7766,1,DESCENDING,-0.0000,1.35075,0.48141,-2.12132,0.06918,1.57080,-3.01912,-0.09677,-0.44240,0.37840,,
5.7934,1,DESCENDING,-0.0000,1.35075,0.48141,-2.12143,0.06931,1.57080,-3.01912,-0.09677,-0.44240,0.37833,,
5.7996,1,DESCENDING,-0.0000,1.35075,0.48140,-2.12146,0.06934,1.57080,-3.01912,-0.09677,-0.44240,0.37831,,
5.8089,1,DESCENDING,-0.0000,1.35075,0.48140,-2.12147,0.06935,1.57080,-3.01912,-0.09677,-0.44240,0.37831,,
5.8167,1,DESCENDING,-0.0000,1.35075,0.48140,-2.12151,0.06939,1.57080,-3.01912,-0.09677,-0.44240,0.37828,,
5.8270,1,DESCENDING,-0.0000,1.35075,0.48140,-2.12156,0.06945,1.57080,-3.01912,-0.09677,-0.44240,0.37826,,
5.8372,1,DESCENDING,-0.0000,1.35075,0.48139,-2.12158,0.06947,1.57080,-3.01912,-0.09677,-0.44240,0.37824,,
5.8489,1,DESCENDING,-0.0000,1.35075,0.48139,-2.12166,0.06956,1.57080,-3.01912,-0.09677,-0.44240,0.37820,,
5.8564,1,DESCENDING,-0.0000,1.35075,0.48138,-2.12172,0.06962,1.57080,-3.01912,-0.09677,-0.44240,0.37816,,
5.8743,1,DESCENDING,-0.0000,1.35075,0.48138,-2.12177,0.06968,1.57080,-3.01912,-0.09677,-0.44240,0.37813,,
5.8791,1,DESCENDING,-0.0000,1.35075,0.48138,-2.12180,0.06970,1.57080,-3.01912,-0.09677,-0.44240,0.37812,,
5.8910,1,DESCENDING,-0.0000,1.35075,0.48137,-2.12183,0.06974,1.57080,-3.01912,-0.09677,-0.44240,0.37810,,
5.9018,1,DESCENDING,-0.0000,1.35075,0.48137,-2.12187,0.06978,1.57080,-3.01912,-0.09677,-0.44240,0.37807,,
5.9151,1,DESCENDING,-0.0000,1.35075,0.48136,-2.12199,0.06991,1.57080,-3.01912,-0.09677,-0.44240,0.37800,,
5.9167,1,DESCENDING,-0.0000,1.35075,0.48136,-2.12199,0.06991,1.57080,-3.01912,-0.09677,-0.44240,0.37800,,
5.9280,1,DESCENDING,-0.0000,1.35075,0.48136,-2.12201,0.06993,1.57080,-3.01912,-0.09677,-0.44240,0.37799,,
5.9555,1,DESCENDING,-0.0000,1.35075,0.48135,-2.12213,0.07007,1.57080,-3.01912,-0.09677,-0.44240,0.37792,,
5.9636,1,DESCENDING,-0.0000,1.35075,0.48135,-2.12218,0.07012,1.57080,-3.01912,-0.09677,-0.44240,0.37789,,
5.9670,1,DESCENDING,-0.0000,1.35075,0.48134,-2.12221,0.07015,1.57080,-3.01912,-0.09677,-0.44240,0.37787,,
5.9763,1,DESCENDING,-0.0000,1.35075,0.48134,-2.12227,0.07022,1.57080,-3.01912,-0.09677,-0.44240,0.37783,,
5.9892,1,DESCENDING,-0.0000,1.35075,0.48134,-2.12229,0.07024,1.57080,-3.01912,-0.09677,-0.44240,0.37782,,
5.9984,1,DESCENDING,-0.0000,1.35075,0.48133,-2.12237,0.07032,1.57080,-3.01912,-0.09677,-0.44240,0.37778,,
6.0103,1,DESCENDING,-0.0000,1.35075,0.48133,-2.12241,0.07036,1.57080,-3.01912,-0.09677,-0.44240,0.37775,,
6.0203,1,DESCENDING,-0.0000,1.35075,0.48132,-2.12244,0.07040,1.57080,-3.01912,-0.09677,-0.44240,0.37773,,
6.0264,1,DESCENDING,-0.0000,1.35075,0.48132,-2.12250,0.07046,1.57080,-3.01912,-0.09677,-0.44240,0.37770,,
6.0382,1,DESCENDING,-0.0000,1.35075,0.48132,-2.12256,0.07053,1.57080,-3.01912,-0.09677,-0.44240,0.37766,,
6.0538,1,DESCENDING,-0.0000,1.35075,0.48131,-2.12260,0.07057,1.57080,-3.01912,-0.09677,-0.44240,0.37764,,
6.0596,1,DESCENDING,-0.0000,1.35075,0.48131,-2.12266,0.07064,1.57080,-3.01912,-0.09677,-0.44240,0.37761,,
6.0723,1,DESCENDING,-0.0000,1.35075,0.48130,-2.12270,0.07067,1.57080,-3.01912,-0.09677,-0.44240,0.37759,,
6.0800,1,DESCENDING,-0.0000,1.35075,0.48130,-2.12273,0.07071,1.57080,-3.01912,-0.09677,-0.44240,0.37756,,
6.0880,1,DESCENDING,-0.0000,1.35075,0.48130,-2.12279,0.07077,1.57080,-3.01912,-0.09677,-0.44240,0.37753,,
6.0966,1,DESCENDING,-0.0000,1.35075,0.48129,-2.12285,0.07084,1.57080,-3.01912,-0.09677,-0.44240,0.37749,,
6.1106,1,DESCENDING,-0.0000,1.35075,0.48129,-2.12289,0.07088,1.57080,-3.01912,-0.09677,-0.44240,0.37747,,
6.1200,1,DESCENDING,-0.0000,1.35075,0.48128,-2.12295,0.07095,1.57080,-3.01912,-0.09677,-0.44240,0.37744,,
6.1265,1,DESCENDING,-0.0000,1.35075,0.48128,-2.12298,0.07098,1.57080,-3.01912,-0.09677,-0.44240,0.37742,,
6.1623,1,DESCENDING,-0.0000,1.35075,0.48127,-2.12314,0.07116,1.57080,-3.01912,-0.09677,-0.44240,0.37732,,
6.1698,1,DESCENDING,-0.0000,1.35075,0.48127,-2.12316,0.07117,1.57080,-3.01912,-0.09677,-0.44240,0.37731,,
6.1910,1,DESCENDING,-0.0000,1.35075,0.48126,-2.12330,0.07132,1.57080,-3.01912,-0.09677,-0.44240,0.37723,,
6.1988,1,DESCENDING,-0.0000,1.35075,0.48125,-2.12331,0.07134,1.57080,-3.01912,-0.09677,-0.44240,0.37722,,
6.1992,1,DESCENDING,-0.0000,1.35075,0.48125,-2.12331,0.07134,1.57080,-3.01912,-0.09677,-0.44240,0.37722,,
6.2077,1,DESCENDING,-0.0000,1.35075,0.48125,-2.12335,0.07138,1.57080,-3.01912,-0.09677,-0.44240,0.37720,,
6.2194,1,DESCENDING,-0.0000,1.35075,0.48125,-2.12340,0.07143,1.57080,-3.01912,-0.09677,-0.44240,0.37717,,
6.2282,1,DESCENDING,-0.0000,1.35075,0.48125,-2.12342,0.07146,1.57080,-3.01912,-0.09677,-0.44240,0.37716,,
6.2372,1,DESCENDING,-0.0000,1.35075,0.48124,-2.12347,0.07151,1.57080,-3.01912,-0.09677,-0.44240,0.37713,,
6.2594,1,DESCENDING,-0.0000,1.35075,0.48123,-2.12357,0.07162,1.57080,-3.01912,-0.09677,-0.44240,0.37707,,
6.2602,1,DESCENDING,-0.0000,1.35075,0.48123,-2.12357,0.07162,1.57080,-3.01912,-0.09677,-0.44240,0.37707,,
6.2665,1,DESCENDING,-0.0000,1.35075,0.48123,-2.12361,0.07166,1.57080,-3.01912,-0.09677,-0.44240,0.37705,,
6.2765,1,DESCENDING,-0.0000,1.35075,0.48123,-2.12366,0.07172,1.57080,-3.01912,-0.09677,-0.44240,0.37702,,
6.2877,1,DESCENDING,-0.0000,1.35075,0.48122,-2.12368,0.07174,1.57080,-3.01912,-0.09677,-0.44240,0.37700,,
6.2965,1,DESCENDING,-0.0000,1.35075,0.48122,-2.12373,0.07179,1.57080,-3.01912,-0.09677,-0.44240,0.37697,,
6.3117,1,DESCENDING,-0.0000,1.35075,0.48121,-2.12382,0.07189,1.57080,-3.01912,-0.09677,-0.44240,0.37692,,
6.3188,1,DESCENDING,-0.0000,1.35075,0.48121,-2.12384,0.07191,1.57080,-3.01912,-0.09677,-0.44240,0.37691,,
6.3276,1,DESCENDING,-0.0000,1.35075,0.48121,-2.12388,0.07195,1.57080,-3.01912,-0.09677,-0.44240,0.37689,,
6.3362,1,DESCENDING,-0.0000,1.35075,0.48120,-2.12393,0.07200,1.57080,-3.01912,-0.09677,-0.44240,0.37686,,
6.3466,1,DESCENDING,-0.0000,1.35075,0.48120,-2.12395,0.07203,1.57080,-3.01912,-0.09677,-0.44240,0.37685,,
6.3714,1,DESCENDING,-0.0000,1.35075,0.48119,-2.12409,0.07218,1.57080,-3.01912,-0.09677,-0.44240,0.37676,,
6.3782,1,DESCENDING,-0.0000,1.35075,0.48119,-2.12410,0.07220,1.57080,-3.01912,-0.09677,-0.44240,0.37676,,
6.3870,1,DESCENDING,-0.0000,1.35075,0.48119,-2.12414,0.07223,1.57080,-3.01912,-0.09677,-0.44240,0.37673,,
6.3996,1,DESCENDING,-0.0000,1.35075,0.48118,-2.12419,0.07229,1.57080,-3.01912,-0.09677,-0.44240,0.37670,,
6.4071,1,DESCENDING,-0.0000,1.35075,0.48118,-2.12421,0.07231,1.57080,-3.01912,-0.09677,-0.44240,0.37669,,
6.4200,1,DESCENDING,-0.0000,1.35075,0.48117,-2.12429,0.07240,1.57080,-3.01912,-0.09677,-0.44240,0.37664,,
6.4278,1,DESCENDING,-0.0000,1.35075,0.48117,-2.12435,0.07247,1.57080,-3.01912,-0.09677,-0.44240,0.37661,,
6.4372,1,DESCENDING,-0.0000,1.35075,0.48117,-2.12436,0.07247,1.57080,-3.01912,-0.09677,-0.44240,0.37661,,
6.4466,1,DESCENDING,-0.0000,1.35075,0.48117,-2.12440,0.07252,1.57080,-3.01912,-0.09677,-0.44240,0.37658,,
6.4683,1,DESCENDING,-0.0000,1.35075,0.48116,-2.12447,0.07260,1.57080,-3.01912,-0.09677,-0.44240,0.37654,,
6.4696,1,DESCENDING,-0.0000,1.35075,0.48116,-2.12447,0.07260,1.57080,-3.01912,-0.09677,-0.44240,0.37654,,
6.4782,1,DESCENDING,-0.0000,1.35075,0.48115,-2.12455,0.07268,1.57080,-3.01912,-0.09677,-0.44240,0.37649,,
6.4891,1,DESCENDING,-0.0000,1.35075,0.48115,-2.12462,0.07275,1.57080,-3.01912,-0.09677,-0.44240,0.37645,,
6.4966,1,DESCENDING,-0.0000,1.35075,0.48115,-2.12462,0.07275,1.57080,-3.01912,-0.09677,-0.44240,0.37645,,
6.5080,1,DESCENDING,-0.0000,1.35075,0.48114,-2.12467,0.07281,1.57080,-3.01912,-0.09677,-0.44240,0.37642,,
6.5269,1,DESCENDING,-0.0000,1.35075,0.48114,-2.12474,0.07288,1.57080,-3.01912,-0.09677,-0.44240,0.37638,,
6.5300,1,DESCENDING,-0.0000,1.35075,0.48114,-2.12474,0.07288,1.57080,-3.01912,-0.09677,-0.44240,0.37638,,
6.5364,1,DESCENDING,-0.0000,1.35075,0.48113,-2.12479,0.07294,1.57080,-3.01912,-0.09677,-0.44240,0.37635,,
6.5489,1,DESCENDING,-0.0000,1.35075,0.48113,-2.12488,0.07304,1.57080,-3.01912,-0.09677,-0.44240,0.37630,,
6.5645,1,DESCENDING,-0.0000,1.35075,0.48112,-2.12491,0.07307,1.57080,-3.01912,-0.09677,-0.44240,0.37628,,
6.5708,1,DESCENDING,-0.0000,1.35075,0.48112,-2.12495,0.07312,1.57080,-3.01912,-0.09677,-0.44240,0.37625,,
6.5784,1,DESCENDING,-0.0000,1.35075,0.48112,-2.12498,0.07315,1.57080,-3.01912,-0.09677,-0.44240,0.37624,,
6.5866,1,DESCENDING,-0.0000,1.35075,0.48112,-2.12500,0.07317,1.57080,-3.01912,-0.09677,-0.44240,0.37623,,
6.5990,1,DESCENDING,-0.0000,1.35075,0.48111,-2.12508,0.07325,1.57080,-3.01912,-0.09677,-0.44240,0.37618,,
6.6112,1,DESCENDING,-0.0000,1.35075,0.48110,-2.12514,0.07332,1.57080,-3.01912,-0.09677,-0.44240,0.37614,,
6.6185,1,DESCENDING,-0.0000,1.35075,0.48110,-2.12516,0.07334,1.57080,-3.01912,-0.09677,-0.44240,0.37613,,
6.6289,1,DESCENDING,-0.0000,1.35075,0.48110,-2.12521,0.07340,1.57080,-3.01912,-0.09677,-0.44240,0.37610,,
6.6409,1,DESCENDING,-0.0000,1.35075,0.48109,-2.12527,0.07346,1.57080,-3.01912,-0.09677,-0.44240,0.37607,,
6.6472,1,DESCENDING,-0.0000,1.35075,0.48109,-2.12529,0.07348,1.57080,-3.01912,-0.09677,-0.44240,0.37605,,
6.6575,1,DESCENDING,-0.0000,1.35075,0.48109,-2.12534,0.07353,1.57080,-3.01912,-0.09677,-0.44240,0.37603,,
6.6671,1,DESCENDING,-0.0000,1.35075,0.48108,-2.12543,0.07363,1.57080,-3.01912,-0.09677,-0.44240,0.37597,,
6.6771,1,DESCENDING,-0.0000,1.35075,0.48108,-2.12544,0.07364,1.57080,-3.01912,-0.09677,-0.44240,0.37597,,
6.6876,1,DESCENDING,-0.0000,1.35075,0.48107,-2.12550,0.07371,1.57080,-3.01912,-0.09677,-0.44240,0.37593,,
6.6969,1,DESCENDING,-0.0000,1.35075,0.48107,-2.12556,0.07377,1.57080,-3.01912,-0.09677,-0.44240,0.37590,,
6.7102,1,DESCENDING,-0.0000,1.35075,0.48107,-2.12560,0.07382,1.57080,-3.01912,-0.09677,-0.44240,0.37587,,
6.7205,1,DESCENDING,-0.0000,1.35075,0.48106,-2.12566,0.07388,1.57080,-3.01912,-0.09677,-0.44240,0.37584,,
6.7282,1,DESCENDING,-0.0000,1.35075,0.48106,-2.12572,0.07394,1.57080,-3.01912,-0.09677,-0.44240,0.37580,,
6.7374,1,DESCENDING,-0.0000,1.35075,0.48106,-2.12572,0.07395,1.57080,-3.01912,-0.09677,-0.44240,0.37580,,
6.7469,1,DESCENDING,-0.0000,1.35075,0.48105,-2.12579,0.07402,1.57080,-3.01912,-0.09677,-0.44240,0.37576,,
6.7591,1,DESCENDING,-0.0000,1.35075,0.48104,-2.12585,0.07408,1.57080,-3.01912,-0.09677,-0.44240,0.37573,,
6.7745,1,DESCENDING,-0.0000,1.35075,0.48104,-2.12591,0.07416,1.57080,-3.01912,-0.09677,-0.44240,0.37569,,
6.7793,1,DESCENDING,-0.0000,1.35075,0.48104,-2.12594,0.07419,1.57080,-3.01912,-0.09677,-0.44240,0.37567,,
6.7891,1,DESCENDING,-0.0000,1.35075,0.48103,-2.12600,0.07426,1.57080,-3.01912,-0.09677,-0.44240,0.37563,,
6.7968,1,DESCENDING,-0.0000,1.35075,0.48103,-2.12601,0.07426,1.57080,-3.01912,-0.09677,-0.44240,0.37563,,
6.8074,1,DESCENDING,-0.0000,1.35075,0.48103,-2.12607,0.07433,1.57080,-3.01912,-0.09677,-0.44240,0.37559,,
6.8223,1,DESCENDING,-0.0000,1.35075,0.48102,-2.12616,0.07443,1.57080,-3.01912,-0.09677,-0.44240,0.37554,,
6.8305,1,DESCENDING,-0.0000,1.35075,0.48102,-2.12618,0.07444,1.57080,-3.01912,-0.09677,-0.44240,0.37553,,
6.8403,1,DESCENDING,-0.0000,1.35075,0.48101,-2.12621,0.07448,1.57080,-3.01912,-0.09677,-0.44240,0.37551,,
6.8465,1,DESCENDING,-0.0000,1.35075,0.48101,-2.12626,0.07454,1.57080,-3.01912,-0.09677,-0.44240,0.37548,,
6.8585,1,DESCENDING,-0.0000,1.35075,0.48101,-2.12629,0.07456,1.57080,-3.01912,-0.09677,-0.44240,0.37547,,
6.8715,1,DESCENDING,-0.0000,1.35075,0.48100,-2.12637,0.07465,1.57080,-3.01912,-0.09677,-0.44240,0.37542,,
6.8785,1,DESCENDING,-0.0000,1.35075,0.48100,-2.12640,0.07468,1.57080,-3.01912,-0.09677,-0.44240,0.37540,,
6.8906,1,DESCENDING,-0.0000,1.35075,0.48099,-2.12644,0.07473,1.57080,-3.01912,-0.09677,-0.44240,0.37538,,
6.8979,1,DESCENDING,-0.0000,1.35075,0.48099,-2.12646,0.07476,1.57080,-3.01912,-0.09677,-0.44240,0.37536,,
6.9109,1,DESCENDING,-0.0000,1.35075,0.48098,-2.12655,0.07485,1.57080,-3.01912,-0.09677,-0.44240,0.37531,,
6.9187,1,DESCENDING,-0.0000,1.35075,0.48098,-2.12657,0.07487,1.57080,-3.01912,-0.09677,-0.44240,0.37530,,
6.9269,1,DESCENDING,-0.0000,1.35075,0.48098,-2.12662,0.07493,1.57080,-3.01912,-0.09677,-0.44240,0.37527,,
6.9397,1,DESCENDING,-0.0000,1.35075,0.48097,-2.12671,0.07503,1.57080,-3.01912,-0.09677,-0.44240,0.37521,,
6.9473,1,DESCENDING,-0.0000,1.35075,0.48097,-2.12672,0.07503,1.57080,-3.01912,-0.09677,-0.44240,0.37521,,
6.9585,1,DESCENDING,-0.0000,1.35075,0.48097,-2.12676,0.07508,1.57080,-3.01912,-0.09677,-0.44240,0.37518,,
6.9666,1,DESCENDING,-0.0000,1.35075,0.48096,-2.12681,0.07514,1.57080,-3.01912,-0.09677,-0.44240,0.37515,,
6.9806,1,DESCENDING,-0.0000,1.35075,0.48096,-2.12684,0.07516,1.57080,-3.01912,-0.09677,-0.44240,0.37514,,
6.9867,1,DESCENDING,-0.0000,1.35075,0.48096,-2.12689,0.07521,1.57080,-3.01912,-0.09677,-0.44240,0.37511,,
7.0009,1,DESCENDING,-0.0000,1.35075,0.48095,-2.12698,0.07531,1.57080,-3.01912,-0.09677,-0.44240,0.37506,,
7.0086,1,DESCENDING,-0.0000,1.35075,0.48095,-2.12698,0.07532,1.57080,-3.01912,-0.09677,-0.44240,0.37506,,
7.0201,1,DESCENDING,-0.0000,1.35075,0.48094,-2.12703,0.07537,1.57080,-3.01912,-0.09677,-0.44240,0.37503,,
7.0287,1,DESCENDING,-0.0000,1.35075,0.48094,-2.12708,0.07542,1.57080,-3.01912,-0.09677,-0.44240,0.37500,,
7.0381,1,DESCENDING,-0.0000,1.35075,0.48094,-2.12708,0.07543,1.57080,-3.01912,-0.09677,-0.44240,0.37499,,
7.0472,1,DESCENDING,-0.0000,1.35075,0.48093,-2.12715,0.07550,1.57080,-3.01912,-0.09677,-0.44240,0.37496,,
7.0564,1,DESCENDING,-0.0000,1.35075,0.48093,-2.12721,0.07557,1.57080,-3.01912,-0.09677,-0.44240,0.37492,,
7.0677,1,DESCENDING,-0.0000,1.35075,0.48092,-2.12724,0.07560,1.57080,-3.01912,-0.09677,-0.44240,0.37490,,
7.0773,1,DESCENDING,-0.0000,1.35075,0.48092,-2.12727,0.07563,1.57080,-3.01912,-0.09677,-0.44240,0.37488,,
7.0868,1,DESCENDING,-0.0000,1.35075,0.48092,-2.12734,0.07571,1.57080,-3.01912,-0.09677,-0.44240,0.37484,,
7.0987,1,DESCENDING,-0.0000,1.35075,0.48091,-2.12736,0.07573,1.57080,-3.01912,-0.09677,-0.44240,0.37483,,
7.1066,1,DESCENDING,-0.0000,1.35075,0.48091,-2.12741,0.07578,1.57080,-3.01912,-0.09677,-0.44240,0.37480,,
7.1208,1,DESCENDING,-0.0000,1.35075,0.48090,-2.12750,0.07588,1.57080,-3.01912,-0.09677,-0.44240,0.37475,,
7.1285,1,DESCENDING,-0.0000,1.35075,0.48090,-2.12751,0.07589,1.57080,-3.01912,-0.09677,-0.44240,0.37474,,
7.1380,1,DESCENDING,-0.0000,1.35075,0.48090,-2.12753,0.07592,1.57080,-3.01912,-0.09677,-0.44240,0.37473,,
7.1512,1,DESCENDING,-0.0000,1.35075,0.48089,-2.12760,0.07599,1.57080,-3.01912,-0.09677,-0.44240,0.37469,,
7.1563,1,DESCENDING,-0.0000,1.35075,0.48089,-2.12761,0.07600,1.57080,-3.01912,-0.09677,-0.44240,0.37468,,
7.1679,1,DESCENDING,-0.0000,1.35075,0.48089,-2.12767,0.07607,1.57080,-3.01912,-0.09677,-0.44240,0.37465,,
7.1776,1,DESCENDING,-0.0000,1.35075,0.48088,-2.12774,0.07614,1.57080,-3.01912,-0.09677,-0.44240,0.37461,,
7.1880,1,DESCENDING,-0.0000,1.35075,0.48088,-2.12777,0.07617,1.57080,-3.01912,-0.09677,-0.44240,0.37459,,
7.1974,1,DESCENDING,-0.0000,1.35075,0.48088,-2.12780,0.07620,1.57080,-3.01912,-0.09677,-0.44240,0.37457,,
7.2059,1,DESCENDING,-0.0000,1.35075,0.48087,-2.12784,0.07625,1.57080,-3.01912,-0.09677,-0.44240,0.37455,,
7.2173,1,DESCENDING,-0.0000,1.35075,0.48087,-2.12787,0.07629,1.57080,-3.01912,-0.09677,-0.44240,0.37453,,
7.2409,1,DESCENDING,-0.0000,1.35075,0.48086,-2.12803,0.07646,1.57080,-3.01912,-0.09677,-0.44240,0.37444,,
7.2470,1,DESCENDING,-0.0000,1.35075,0.48086,-2.12803,0.07646,1.57080,-3.01912,-0.09677,-0.44240,0.37443,,
7.2480,1,DESCENDING,-0.0000,1.35075,0.48086,-2.12803,0.07646,1.57080,-3.01912,-0.09677,-0.44240,0.37443,,
7.2562,1,DESCENDING,-0.0000,1.35075,0.48085,-2.12806,0.07649,1.57080,-3.01912,-0.09677,-0.44240,0.37442,,
7.2674,1,DESCENDING,-0.0000,1.35075,0.48085,-2.12813,0.07657,1.57080,-3.01912,-0.09677,-0.44240,0.37438,,
7.2935,1,DESCENDING,-0.0000,1.35075,0.48084,-2.12823,0.07668,1.57080,-3.01912,-0.09677,-0.44240,0.37432,,
7.3029,1,DESCENDING,-0.0000,1.35075,0.48083,-2.12829,0.07674,1.57080,-3.01912,-0.09677,-0.44240,0.37428,,
7.3121,1,DESCENDING,-0.0000,1.35075,0.48083,-2.12831,0.07676,1.57080,-3.01912,-0.09677,-0.44240,0.37427,,
7.3209,1,DESCENDING,-0.0000,1.35075,0.48083,-2.12834,0.07680,1.57080,-3.01912,-0.09677,-0.44240,0.37425,,
7.3513,1,DESCENDING,-0.0000,1.35075,0.48082,-2.12849,0.07696,1.57080,-3.01912,-0.09677,-0.44240,0.37416,,
7.3556,1,DESCENDING,-0.0000,1.35075,0.48081,-2.12853,0.07700,1.57080,-3.01912,-0.09677,-0.44240,0.37414,,
7.3683,1,DESCENDING,-0.0000,1.35075,0.48081,-2.12856,0.07703,1.57080,-3.01912,-0.09677,-0.44240,0.37412,,
7.3816,1,DESCENDING,-0.0000,1.35075,0.48081,-2.12861,0.07708,1.57080,-3.01912,-0.09677,-0.44240,0.37409,,
7.3898,1,DESCENDING,-0.0000,1.35075,0.48080,-2.12866,0.07714,1.57080,-3.01912,-0.09677,-0.44240,0.37406,,
7.4032,1,DESCENDING,-0.0000,1.35075,0.48080,-2.12870,0.07718,1.57080,-3.01912,-0.09677,-0.44240,0.37404,,
7.4095,1,DESCENDING,-0.0000,1.35075,0.48080,-2.12873,0.07721,1.57080,-3.01912,-0.09677,-0.44240,0.37402,,
7.4177,1,DESCENDING,-0.0000,1.35075,0.48079,-2.12879,0.07728,1.57080,-3.01912,-0.09677,-0.44240,0.37399,,
7.4281,1,DESCENDING,-0.0000,1.35075,0.48079,-2.12882,0.07732,1.57080,-3.01912,-0.09677,-0.44240,0.37397,,
7.4362,1,DESCENDING,-0.0000,1.35075,0.48078,-2.12885,0.07735,1.57080,-3.01912,-0.09677,-0.44240,0.37395,,
7.4514,1,DESCENDING,-0.0000,1.35075,0.48078,-2.12892,0.07742,1.57080,-3.01912,-0.09677,-0.44240,0.37391,,
7.4560,1,DESCENDING,-0.0000,1.35075,0.48078,-2.12893,0.07743,1.57080,-3.01912,-0.09677,-0.44240,0.37391,,
7.4662,1,DESCENDING,-0.0000,1.35075,0.48077,-2.12896,0.07747,1.57080,-3.01912,-0.09677,-0.44240,0.37388,,
7.4872,1,DESCENDING,-0.0000,1.35075,0.48076,-2.12909,0.07761,1.57080,-3.01912,-0.09677,-0.44240,0.37381,,
7.4925,1,DESCENDING,-0.0000,1.35075,0.48076,-2.12910,0.07762,1.57080,-3.01912,-0.09677,-0.44240,0.37380,,
7.4972,1,DESCENDING,-0.0000,1.35075,0.48076,-2.12911,0.07763,1.57080,-3.01912,-0.09677,-0.44240,0.37379,,
7.5076,1,DESCENDING,-0.0000,1.35075,0.48075,-2.12918,0.07771,1.57080,-3.01912,-0.09677,-0.44240,0.37375,,
7.5160,1,DESCENDING,-0.0000,1.35075,0.48075,-2.12919,0.07772,1.57080,-3.01912,-0.09677,-0.44240,0.37375,,
7.5302,1,DESCENDING,-0.0000,1.35075,0.48075,-2.12925,0.07779,1.57080,-3.01912,-0.09677,-0.44240,0.37371,,
7.5393,1,DESCENDING,-0.0000,1.35075,0.48074,-2.12935,0.07789,1.57080,-3.01912,-0.09677,-0.44240,0.37366,,
7.5507,1,DESCENDING,-0.0000,1.35075,0.48074,-2.12935,0.07789,1.57080,-3.01912,-0.09677,-0.44240,0.37365,,
7.5642,1,DESCENDING,-0.0000,1.35075,0.48073,-2.12942,0.07797,1.57080,-3.01912,-0.09677,-0.44240,0.37361,,
7.5712,1,DESCENDING,-0.0000,1.35075,0.48073,-2.12945,0.07800,1.57080,-3.01912,-0.09677,-0.44240,0.37360,,
7.5771,1,DESCENDING,-0.0000,1.35075,0.48073,-2.12945,0.07800,1.57080,-3.01912,-0.09677,-0.44240,0.37359,,
7.5867,1,DESCENDING,-0.0000,1.35075,0.48073,-2.12949,0.07804,1.57080,-3.01912,-0.09677,-0.44240,0.37357,,
7.5969,1,DESCENDING,-0.0000,1.35075,0.48072,-2.12958,0.07814,1.57080,-3.01912,-0.09677,-0.44240,0.37352,,
7.6080,1,DESCENDING,-0.0000,1.35075,0.48072,-2.12961,0.07818,1.57080,-3.01912,-0.09677,-0.44240,0.37350,,
7.6199,1,DESCENDING,-0.0000,1.35075,0.48071,-2.12966,0.07823,1.57080,-3.01912,-0.09677,-0.44240,0.37347,,
7.6321,1,DESCENDING,-0.0000,1.35075,0.48071,-2.12971,0.07828,1.57080,-3.01912,-0.09677,-0.44240,0.37344,,
7.6481,1,DESCENDING,-0.0000,1.35075,0.48070,-2.12978,0.07836,1.57080,-3.01912,-0.09677,-0.44240,0.37340,,
7.6492,1,DESCENDING,-0.0000,1.35075,0.48070,-2.12978,0.07836,1.57080,-3.01912,-0.09677,-0.44240,0.37340,,
7.6652,1,DESCENDING,-0.0000,1.35075,0.48069,-2.12987,0.07846,1.57080,-3.01912,-0.09677,-0.44240,0.37335,,
7.6673,1,DESCENDING,-0.0000,1.35075,0.48069,-2.12988,0.07847,1.57080,-3.01912,-0.09677,-0.44240,0.37334,,
7.6759,1,DESCENDING,-0.0000,1.35075,0.48069,-2.12991,0.07851,1.57080,-3.01912,-0.09677,-0.44240,0.37332,,
7.6913,1,DESCENDING,-0.0000,1.35075,0.48068,-2.13000,0.07860,1.57080,-3.01912,-0.09677,-0.44240,0.37327,,
7.7034,1,DESCENDING,-0.0000,1.35075,0.48068,-2.13004,0.07865,1.57080,-3.01912,-0.09677,-0.44240,0.37325,,
7.7113,1,DESCENDING,-0.0000,1.35075,0.48067,-2.13010,0.07871,1.57080,-3.01912,-0.09677,-0.44240,0.37321,,
7.7170,1,DESCENDING,-0.0000,1.35075,0.48067,-2.13013,0.07874,1.57080,-3.01912,-0.09677,-0.44240,0.37319,,
7.7263,1,DESCENDING,-0.0000,1.35075,0.48067,-2.13016,0.07877,1.57080,-3.01912,-0.09677,-0.44240,0.37318,,
7.7518,1,DESCENDING,-0.0000,1.35075,0.48065,-2.13032,0.07895,1.57080,-3.01912,-0.09677,-0.44240,0.37308,,
7.7523,1,DESCENDING,-0.0000,1.35075,0.48065,-2.13032,0.07895,1.57080,-3.01912,-0.09677,-0.44240,0.37308,,
7.7583,1,DESCENDING,-0.0000,1.35075,0.48065,-2.13032,0.07895,1.57080,-3.01912,-0.09677,-0.44240,0.37308,,
7.7680,1,DESCENDING,-0.0000,1.35075,0.48065,-2.13035,0.07898,1.57080,-3.01912,-0.09677,-0.44240,0.37306,,
7.7787,1,DESCENDING,-0.0000,1.35075,0.48065,-2.13039,0.07903,1.57080,-3.01912,-0.09677,-0.44240,0.37304,,
7.9905,1,DESCENDING,-0.0000,1.35075,0.48056,-2.13134,0.08006,1.57080,-3.01911,-0.09677,-0.44240,0.37248,,
7.9913,1,DESCENDING,-0.0000,1.35075,0.48056,-2.13137,0.08009,1.57080,-3.01911,-0.09677,-0.44240,0.37246,,
8.0380,1,DESCENDING,-0.0000,1.35075,0.48054,-2.13151,0.08025,1.57080,-3.01911,-0.09677,-0.44240,0.37238,,
8.0389,1,DESCENDING,-0.0000,1.35075,0.48054,-2.13154,0.08028,1.57080,-3.01911,-0.09677,-0.44240,0.37236,,
8.0919,1,DESCENDING,-0.0000,1.35075,0.48052,-2.13175,0.08051,1.57080,-3.01911,-0.09677,-0.44240,0.37223,,
8.0924,1,DESCENDING,-0.0000,1.35075,0.48052,-2.13175,0.08051,1.57080,-3.01911,-0.09677,-0.44240,0.37223,,
8.0928,1,DESCENDING,-0.0000,1.35075,0.48052,-2.13175,0.08051,1.57080,-3.01911,-0.09677,-0.44240,0.37223,,
8.1026,1,DESCENDING,-0.0000,1.35075,0.48052,-2.13180,0.08057,1.57080,-3.01911,-0.09677,-0.44240,0.37220,,
8.1221,1,DESCENDING,-0.0000,1.35075,0.48051,-2.13190,0.08067,1.57080,-3.01911,-0.09677,-0.44240,0.37215,,
8.1289,1,DESCENDING,-0.0000,1.35075,0.48051,-2.13192,0.08070,1.57080,-3.01911,-0.09677,-0.44240,0.37213,,
8.1294,1,DESCENDING,-0.0000,1.35075,0.48051,-2.13192,0.08070,1.57080,-3.01911,-0.09677,-0.44240,0.37213,,
8.1396,1,DESCENDING,-0.0000,1.35075,0.48050,-2.13199,0.08078,1.57080,-3.01911,-0.09677,-0.44240,0.37209,,
8.1480,1,DESCENDING,-0.0000,1.35075,0.48050,-2.13200,0.08078,1.57080,-3.01911,-0.09677,-0.44240,0.37209,,
8.1606,1,DESCENDING,-0.0000,1.35075,0.48049,-2.13206,0.08085,1.57080,-3.01911,-0.09677,-0.44240,0.37205,,
8.1679,1,DESCENDING,-0.0000,1.35075,0.48049,-2.13213,0.08092,1.57080,-3.01911,-0.09677,-0.44240,0.37201,,
8.1788,1,DESCENDING,-0.0000,1.35075,0.48048,-2.13216,0.08095,1.57080,-3.01911,-0.09677,-0.44240,0.37199,,
8.1875,1,DESCENDING,-0.0000,1.35075,0.48048,-2.13220,0.08100,1.57080,-3.01911,-0.09677,-0.44240,0.37197,,
8.2233,1,DESCENDING,-0.0000,1.35075,0.48046,-2.13238,0.08120,1.57080,-3.01911,-0.09677,-0.44240,0.37186,,
8.2257,1,DESCENDING,-0.0000,1.35075,0.48046,-2.13238,0.08120,1.57080,-3.01911,-0.09677,-0.44240,0.37186,,
8.2320,1,DESCENDING,-0.0000,1.35075,0.48046,-2.13244,0.08127,1.57080,-3.01911,-0.09677,-0.44240,0.37182,,
8.2371,1,DESCENDING,-0.0000,1.35075,0.48046,-2.13244,0.08127,1.57080,-3.01911,-0.09677,-0.44240,0.37182,,
8.2466,1,DESCENDING,-0.0000,1.35075,0.48045,-2.13246,0.08129,1.57080,-3.01911,-0.09677,-0.44240,0.37181,,
8.2606,1,DESCENDING,-0.0000,1.35075,0.48044,-2.13257,0.08141,1.57080,-3.01911,-0.09677,-0.44240,0.37175,,
8.2704,1,DESCENDING,-0.0000,1.35075,0.48044,-2.13257,0.08141,1.57080,-3.01911,-0.09677,-0.44240,0.37174,,
8.2781,1,DESCENDING,-0.0000,1.35075,0.48044,-2.13261,0.08145,1.57080,-3.01911,-0.09677,-0.44240,0.37172,,
8.2904,1,DESCENDING,-0.0000,1.35075,0.48043,-2.13270,0.08155,1.57080,-3.01911,-0.09677,-0.44240,0.37167,,
8.3049,1,DESCENDING,-0.0000,1.35075,0.48043,-2.13275,0.08160,1.57080,-3.01911,-0.09677,-0.44240,0.37164,,
8.3333,1,DESCENDING,-0.0000,1.35075,0.48042,-2.13288,0.08174,1.57080,-3.01911,-0.09677,-0.44240,0.37157,,
8.3337,1,DESCENDING,-0.0000,1.35075,0.48042,-2.13288,0.08174,1.57080,-3.01911,-0.09677,-0.44240,0.37157,,
8.3533,1,DESCENDING,-0.0000,1.35075,0.48040,-2.13301,0.08189,1.57080,-3.01911,-0.09677,-0.44240,0.37148,,
8.3660,1,DESCENDING,-0.0000,1.35075,0.48040,-2.13303,0.08191,1.57080,-3.01911,-0.09677,-0.44240,0.37147,,
8.3933,1,DESCENDING,-0.0000,1.35075,0.48039,-2.13318,0.08207,1.57080,-3.01911,-0.09677,-0.44240,0.37139,,
8.3997,1,DESCENDING,-0.0000,1.35075,0.48039,-2.13320,0.08210,1.57080,-3.01911,-0.09677,-0.44240,0.37137,,
8.4116,1,DESCENDING,-0.0000,1.35075,0.48038,-2.13327,0.08218,1.57080,-3.01911,-0.09677,-0.44240,0.37133,,
8.4140,1,DESCENDING,-0.0000,1.35075,0.48038,-2.13327,0.08218,1.57080,-3.01911,-0.09677,-0.44240,0.37133,,
8.4207,1,DESCENDING,-0.0000,1.35075,0.48038,-2.13328,0.08218,1.57080,-3.01911,-0.09677,-0.44240,0.37133,,
8.4210,1,DESCENDING,-0.0000,1.35075,0.48038,-2.13328,0.08218,1.57080,-3.01911,-0.09677,-0.44240,0.37133,,
8.4286,1,DESCENDING,-0.0000,1.35075,0.48037,-2.13332,0.08222,1.57080,-3.01911,-0.09677,-0.44240,0.37131,,
8.4369,1,DESCENDING,-0.0000,1.35075,0.48037,-2.13337,0.08229,1.57080,-3.01911,-0.09677,-0.44240,0.37127,,
8.4467,1,DESCENDING,-0.0000,1.35075,0.48037,-2.13340,0.08232,1.57080,-3.01911,-0.09677,-0.44240,0.37125,,
8.4563,1,DESCENDING,-0.0000,1.35075,0.48036,-2.13345,0.08236,1.57080,-3.01911,-0.09677,-0.44240,0.37123,,
8.4695,1,DESCENDING,-0.0000,1.35075,0.48035,-2.13353,0.08246,1.57080,-3.01911,-0.09677,-0.44240,0.37118,,
8.4771,1,DESCENDING,-0.0000,1.35075,0.48035,-2.13356,0.08249,1.57080,-3.01911,-0.09677,-0.44240,0.37116,,
8.4883,1,DESCENDING,-0.0000,1.35075,0.48035,-2.13360,0.08254,1.57080,-3.01911,-0.09677,-0.44240,0.37113,,
8.4964,1,DESCENDING,-0.0000,1.35075,0.48034,-2.13366,0.08260,1.57080,-3.01911,-0.09677,-0.44240,0.37110,,
8.5104,1,DESCENDING,-0.0000,1.35075,0.48034,-2.13370,0.08264,1.57080,-3.01911,-0.09677,-0.44240,0.37108,,
8.5181,1,DESCENDING,-0.0000,1.35075,0.48033,-2.13373,0.08268,1.57080,-3.01911,-0.09677,-0.44240,0.37106,,
8.5270,1,DESCENDING,-0.0000,1.35075,0.48033,-2.13379,0.08274,1.57080,-3.01911,-0.09677,-0.44240,0.37103,,
8.5367,1,DESCENDING,-0.0000,1.35075,0.48032,-2.13385,0.08281,1.57080,-3.01911,-0.09677,-0.44240,0.37099,,
8.5464,1,DESCENDING,-0.0000,1.35075,0.48032,-2.13387,0.08283,1.57080,-3.01911,-0.09677,-0.44240,0.37098,,
8.5573,1,DESCENDING,-0.0000,1.35075,0.48031,-2.13395,0.08291,1.57080,-3.01911,-0.09677,-0.44240,0.37093,,
8.5698,1,DESCENDING,-0.0000,1.35075,0.48031,-2.13398,0.08295,1.57080,-3.01911,-0.09677,-0.44240,0.37091,,
8.5782,1,DESCENDING,-0.0000,1.35075,0.48031,-2.13402,0.08299,1.57080,-3.01911,-0.09677,-0.44240,0.37089,,
8.5866,1,DESCENDING,-0.0000,1.35075,0.48030,-2.13407,0.08305,1.57080,-3.01911,-0.09677,-0.44240,0.37086,,
8.5967,1,DESCENDING,-0.0000,1.35075,0.48030,-2.13413,0.08312,1.57080,-3.01911,-0.09677,-0.44240,0.37082,,
8.6710,1,DESCENDING,-0.0000,1.35075,0.48026,-2.13446,0.08348,1.57080,-3.01911,-0.09677,-0.44240,0.37063,,
8.6769,1,DESCENDING,-0.0000,1.35075,0.48026,-2.13452,0.08354,1.57080,-3.01911,-0.09677,-0.44240,0.37059,,
8.6847,1,DESCENDING,-0.0000,1.35075,0.48025,-2.13458,0.08361,1.57080,-3.01911,-0.09677,-0.44240,0.37056,,
8.6975,1,DESCENDING,-0.0000,1.35075,0.48025,-2.13459,0.08362,1.57080,-3.01911,-0.09677,-0.44240,0.37055,,
8.7011,1,DESCENDING,-0.0000,1.35075,0.48025,-2.13461,0.08364,1.57080,-3.01911,-0.09677,-0.44240,0.37054,,
8.7521,1,DESCENDING,-0.0000,1.35075,0.48023,-2.13484,0.08390,1.57080,-3.01911,-0.09677,-0.44240,0.37040,,
8.7524,1,DESCENDING,-0.0000,1.35075,0.48023,-2.13484,0.08390,1.57080,-3.01911,-0.09677,-0.44240,0.37040,,
8.7535,1,DESCENDING,-0.0000,1.35075,0.48023,-2.13484,0.08390,1.57080,-3.01911,-0.09677,-0.44240,0.37040,,
8.7629,1,DESCENDING,-0.0000,1.35075,0.48023,-2.13487,0.08393,1.57080,-3.01911,-0.09677,-0.44240,0.37038,,
8.7679,1,DESCENDING,-0.0000,1.35075,0.48022,-2.13491,0.08397,1.57080,-3.01911,-0.09677,-0.44240,0.37036,,
8.7688,1,DESCENDING,-0.0000,1.35075,0.48022,-2.13491,0.08397,1.57080,-3.01911,-0.09677,-0.44240,0.37036,,
8.7692,1,DESCENDING,-0.0000,1.35075,0.48022,-2.13491,0.08397,1.57080,-3.01911,-0.09677,-0.44240,0.37036,,
8.7790,1,DESCENDING,-0.0000,1.35075,0.48022,-2.13494,0.08400,1.57080,-3.01911,-0.09677,-0.44240,0.37034,,
8.7803,1,DESCENDING,-0.0000,1.35075,0.48022,-2.13495,0.08401,1.57080,-3.01911,-0.09677,-0.44240,0.37034,,
8.7815,1,DESCENDING,-0.0000,1.35075,0.48022,-2.13495,0.08401,1.57080,-3.01911,-0.09677,-0.44240,0.37034,,
8.7886,1,DESCENDING,-0.0000,1.35075,0.48021,-2.13498,0.08405,1.57080,-3.01911,-0.09677,-0.44240,0.37032,,
8.7889,1,DESCENDING,-0.0000,1.35075,0.48021,-2.13498,0.08405,1.57080,-3.01911,-0.09677,-0.44240,0.37032,,
8.7897,1,DESCENDING,-0.0000,1.35075,0.48021,-2.13498,0.08405,1.57080,-3.01911,-0.09677,-0.44240,0.37032,,
8.7984,1,DESCENDING,-0.0000,1.35075,0.48021,-2.13504,0.08411,1.57080,-3.01911,-0.09677,-0.44240,0.37028,,
8.8081,1,DESCENDING,-0.0000,1.35075,0.48020,-2.13510,0.08418,1.57080,-3.01911,-0.09677,-0.44240,0.37024,,
8.8179,1,DESCENDING,-0.0000,1.35075,0.48020,-2.13512,0.08420,1.57080,-3.01911,-0.09677,-0.44240,0.37024,,
8.8264,1,DESCENDING,-0.0000,1.35075,0.48020,-2.13515,0.08424,1.57080,-3.01911,-0.09677,-0.44240,0.37021,,
8.8444,1,DESCENDING,-0.0000,1.35075,0.48019,-2.13522,0.08431,1.57080,-3.01911,-0.09677,-0.44240,0.37017,,
8.8483,1,DESCENDING,-0.0000,1.35075,0.48019,-2.13524,0.08434,1.57080,-3.01911,-0.09677,-0.44240,0.37016,,
8.8564,1,DESCENDING,-0.0000,1.35075,0.48018,-2.13530,0.08440,1.57080,-3.01911,-0.09677,-0.44240,0.37013,,
8.8705,1,DESCENDING,-0.0000,1.35075,0.48018,-2.13536,0.08447,1.57080,-3.01911,-0.09677,-0.44240,0.37009,,
8.8808,1,DESCENDING,-0.0000,1.35075,0.48017,-2.13539,0.08450,1.57080,-3.01911,-0.09677,-0.44240,0.37007,,
8.8867,1,DESCENDING,-0.0000,1.35075,0.48017,-2.13541,0.08452,1.57080,-3.01911,-0.09677,-0.44240,0.37006,,
8.8974,1,DESCENDING,-0.0000,1.35075,0.48017,-2.13546,0.08458,1.57080,-3.01911,-0.09677,-0.44240,0.37003,,
8.9221,1,DESCENDING,-0.0000,1.35075,0.48015,-2.13560,0.08472,1.57080,-3.01911,-0.09677,-0.44240,0.36995,,
8.9327,1,DESCENDING,-0.0000,1.35075,0.48015,-2.13563,0.08476,1.57080,-3.01911,-0.09677,-0.44240,0.36993,,
8.9331,1,DESCENDING,-0.0000,1.35075,0.48015,-2.13563,0.08476,1.57080,-3.01911,-0.09677,-0.44240,0.36993,,
8.9492,1,DESCENDING,-0.0000,1.35075,0.48014,-2.13570,0.08484,1.57080,-3.01911,-0.09677,-0.44240,0.36989,,
8.9499,1,DESCENDING,-0.0000,1.35075,0.48014,-2.13570,0.08484,1.57080,-3.01911,-0.09677,-0.44240,0.36989,,
8.9574,1,DESCENDING,-0.0000,1.35075,0.48014,-2.13573,0.08487,1.57080,-3.01911,-0.09677,-0.44240,0.36987,,
8.9678,1,DESCENDING,-0.0000,1.35075,0.48014,-2.13577,0.08491,1.57080,-3.01911,-0.09677,-0.44240,0.36985,,
8.9806,1,DESCENDING,-0.0000,1.35075,0.48013,-2.13586,0.08501,1.57080,-3.01911,-0.09677,-0.44240,0.36980,,
8.9878,1,DESCENDING,-0.0000,1.35075,0.48013,-2.13589,0.08504,1.57080,-3.01911,-0.09677,-0.44240,0.36978,,
8.9968,1,DESCENDING,-0.0000,1.35075,0.48012,-2.13590,0.08506,1.57080,-3.01911,-0.09677,-0.44240,0.36977,,
9.0078,1,DESCENDING,-0.0000,1.35075,0.48012,-2.13596,0.08513,1.57080,-3.01911,-0.09677,-0.44240,0.36973,,
9.0244,1,DESCENDING,-0.0000,1.35075,0.48011,-2.13601,0.08518,1.57080,-3.01911,-0.09677,-0.44240,0.36971,,
9.0291,1,DESCENDING,-0.0000,1.35075,0.48011,-2.13603,0.08520,1.57080,-3.01911,-0.09677,-0.44240,0.36969,,
9.0376,1,DESCENDING,-0.0000,1.35075,0.48011,-2.13609,0.08526,1.57080,-3.01911,-0.09677,-0.44240,0.36966,,
9.0488,1,DESCENDING,-0.0000,1.35075,0.48010,-2.13615,0.08533,1.57080,-3.01911,-0.09677,-0.44240,0.36962,,
9.0569,1,DESCENDING,-0.0000,1.35075,0.48010,-2.13617,0.08535,1.57080,-3.01911,-0.09677,-0.44240,0.36961,,
9.0682,1,DESCENDING,-0.0000,1.35075,0.48009,-2.13625,0.08544,1.57080,-3.01911,-0.09677,-0.44240,0.36956,,
9.0768,1,DESCENDING,-0.0000,1.35075,0.48009,-2.13628,0.08547,1.57080,-3.01911,-0.09677,-0.44240,0.36955,,
9.0907,1,DESCENDING,-0.0000,1.35075,0.48008,-2.13632,0.08552,1.57080,-3.01911,-0.09677,-0.44240,0.36952,,
9.0970,1,DESCENDING,-0.0000,1.35075,0.48008,-2.13638,0.08558,1.57080,-3.01911,-0.09677,-0.44240,0.36949,,
9.1097,1,DESCENDING,-0.0000,1.35075,0.48007,-2.13644,0.08564,1.57080,-3.01911,-0.09677,-0.44240,0.36945,,
9.1167,1,DESCENDING,-0.0000,1.35075,0.48007,-2.13646,0.08567,1.57080,-3.01911,-0.09677,-0.44240,0.36944,,
9.1323,1,DESCENDING,-0.0000,1.35075,0.48006,-2.13656,0.08579,1.57080,-3.01911,-0.09677,-0.44240,0.36938,,
9.1364,1,DESCENDING,-0.0000,1.35075,0.48006,-2.13656,0.08579,1.57080,-3.01911,-0.09677,-0.44240,0.36938,,
9.1512,1,DESCENDING,-0.0000,1.35075,0.48006,-2.13660,0.08583,1.57080,-3.01911,-0.09677,-0.44240,0.36935,,
9.1591,1,DESCENDING,-0.0000,1.35075,0.48005,-2.13666,0.08589,1.57080,-3.01911,-0.09677,-0.44240,0.36932,,
9.1768,1,DESCENDING,-0.0000,1.35075,0.48004,-2.13674,0.08598,1.57080,-3.01911,-0.09677,-0.44240,0.36927,,
9.1782,1,DESCENDING,-0.0000,1.35075,0.48004,-2.13674,0.08598,1.57080,-3.01911,-0.09677,-0.44240,0.36927,,
9.1887,1,DESCENDING,-0.0000,1.35075,0.48003,-2.13682,0.08607,1.57080,-3.01911,-0.09677,-0.44240,0.36922,,
9.1968,1,DESCENDING,-0.0000,1.35075,0.48003,-2.13685,0.08610,1.57080,-3.01911,-0.09677,-0.44240,0.36921,,
9.2069,1,DESCENDING,-0.0000,1.35075,0.48003,-2.13687,0.08612,1.57080,-3.01911,-0.09677,-0.44240,0.36920,,
9.2296,1,DESCENDING,-0.0000,1.35075,0.48002,-2.13701,0.08627,1.57080,-3.01911,-0.09677,-0.44240,0.36911,,
9.2372,1,DESCENDING,-0.0000,1.35075,0.48001,-2.13703,0.08629,1.57080,-3.01911,-0.09677,-0.44240,0.36910,,
9.2390,1,DESCENDING,-0.0000,1.35075,0.48001,-2.13703,0.08629,1.57080,-3.01911,-0.09677,-0.44240,0.36910,,
9.2487,1,DESCENDING,-0.0000,1.35075,0.48001,-2.13710,0.08638,1.57080,-3.01911,-0.09677,-0.44240,0.36906,,
9.2572,1,DESCENDING,-0.0000,1.35075,0.48000,-2.13713,0.08641,1.57080,-3.01911,-0.09677,-0.44240,0.36904,,
9.2666,1,DESCENDING,-0.0000,1.35075,0.48000,-2.13715,0.08643,1.57080,-3.01911,-0.09677,-0.44240,0.36903,,
9.2797,1,DESCENDING,-0.0000,1.35075,0.47999,-2.13723,0.08652,1.57080,-3.01911,-0.09677,-0.44240,0.36898,,
9.2873,1,DESCENDING,-0.0000,1.35075,0.47999,-2.13729,0.08659,1.57080,-3.01911,-0.09677,-0.44240,0.36894,,
9.2974,1,DESCENDING,-0.0000,1.35075,0.47998,-2.13731,0.08661,1.57080,-3.01911,-0.09677,-0.44240,0.36893,,
9.3075,1,DESCENDING,-0.0000,1.35075,0.47998,-2.13736,0.08666,1.57080,-3.01911,-0.09677,-0.44240,0.36890,,
9.3207,1,DESCENDING,-0.0000,1.35075,0.47997,-2.13745,0.08676,1.57080,-3.01911,-0.09677,-0.44240,0.36885,,
9.3280,1,DESCENDING,-0.0000,1.35075,0.47997,-2.13746,0.08678,1.57080,-3.01911,-0.09677,-0.44240,0.36884,,
9.3380,1,DESCENDING,-0.0000,1.35075,0.47997,-2.13750,0.08682,1.57080,-3.01911,-0.09677,-0.44240,0.36882,,
9.3490,1,DESCENDING,-0.0000,1.35075,0.47996,-2.13755,0.08687,1.57080,-3.01911,-0.09677,-0.44240,0.36879,,
9.3562,1,DESCENDING,-0.0000,1.35075,0.47996,-2.13757,0.08689,1.57080,-3.01911,-0.09677,-0.44240,0.36878,,
9.3726,1,DESCENDING,-0.0000,1.35075,0.47995,-2.13768,0.08702,1.57080,-3.01911,-0.09677,-0.44240,0.36871,,
9.3765,1,DESCENDING,-0.0000,1.35075,0.47994,-2.13771,0.08705,1.57080,-3.01911,-0.09677,-0.44240,0.36869,,
9.3938,1,DESCENDING,-0.0000,1.35075,0.47994,-2.13774,0.08708,1.57080,-3.01911,-0.09677,-0.44240,0.36868,,
9.4020,1,DESCENDING,-0.0000,1.35075,0.47994,-2.13779,0.08713,1.57080,-3.01911,-0.09677,-0.44240,0.36865,,
9.4093,1,DESCENDING,-0.0000,1.35075,0.47993,-2.13781,0.08716,1.57080,-3.01911,-0.09677,-0.44240,0.36863,,
9.4166,1,DESCENDING,-0.0000,1.35075,0.47993,-2.13783,0.08718,1.57080,-3.01911,-0.09677,-0.44240,0.36862,,
9.4404,1,DESCENDING,-0.0000,1.35075,0.47992,-2.13797,0.08734,1.57080,-3.01911,-0.09677,-0.44240,0.36854,,
9.4408,1,DESCENDING,-0.0000,1.35075,0.47992,-2.13797,0.08734,1.57080,-3.01911,-0.09677,-0.44240,0.36854,,
9.4462,1,DESCENDING,-0.0000,1.35075,0.47992,-2.13798,0.08734,1.57080,-3.01911,-0.09677,-0.44240,0.36854,,
9.6646,1,DESCENDING,-0.0000,1.35075,0.47982,-2.13893,0.08839,1.57080,-3.01911,-0.09677,-0.44240,0.36797,,
9.6652,1,DESCENDING,-0.0000,1.35075,0.47982,-2.13893,0.08839,1.57080,-3.01911,-0.09677,-0.44240,0.36797,,
9.6704,1,DESCENDING,-0.0000,1.35075,0.47982,-2.13896,0.08842,1.57080,-3.01911,-0.09677,-0.44240,0.36795,,
9.6711,1,DESCENDING,-0.0000,1.35075,0.47982,-2.13896,0.08842,1.57080,-3.01911,-0.09677,-0.44240,0.36795,,
9.6728,1,DESCENDING,-0.0000,1.35075,0.47981,-2.13899,0.08846,1.57080,-3.01911,-0.09677,-0.44240,0.36793,,
9.6731,1,DESCENDING,-0.0000,1.35075,0.47981,-2.13899,0.08846,1.57080,-3.01911,-0.09677,-0.44240,0.36793,,
9.7173,1,DESCENDING,-0.0000,1.35075,0.47980,-2.13914,0.08862,1.57080,-3.01911,-0.09677,-0.44240,0.36784,,
9.7282,1,DESCENDING,-0.0000,1.35075,0.47979,-2.13922,0.08871,1.57080,-3.01911,-0.09677,-0.44240,0.36780,,
9.7421,1,DESCENDING,-0.0000,1.35075,0.47978,-2.13928,0.08878,1.57080,-3.01911,-0.09677,-0.44240,0.36776,,
9.7915,1,DESCENDING,-0.0000,1.35075,0.47976,-2.13948,0.08900,1.57080,-3.01911,-0.09677,-0.44240,0.36764,,
9.7972,1,DESCENDING,-0.0000,1.35075,0.47976,-2.13954,0.08907,1.57080,-3.01911,-0.09677,-0.44240,0.36760,,
9.8021,1,DESCENDING,-0.0000,1.35075,0.47976,-2.13954,0.08907,1.57080,-3.01911,-0.09677,-0.44240,0.36760,,
9.8081,1,DESCENDING,-0.0000,1.35075,0.47976,-2.13956,0.08908,1.57080,-3.01911,-0.09677,-0.44240,0.36760,,
9.8216,1,DESCENDING,-0.0000,1.35075,0.47975,-2.13962,0.08915,1.57080,-3.01911,-0.09677,-0.44240,0.36756,,
9.8278,1,DESCENDING,-0.0000,1.35075,0.47975,-2.13964,0.08918,1.57080,-3.01911,-0.09677,-0.44240,0.36755,,
9.8315,1,DESCENDING,-0.0000,1.35075,0.47975,-2.13964,0.08918,1.57080,-3.01911,-0.09677,-0.44240,0.36755,,
9.8551,1,DESCENDING,-0.0000,1.35075,0.47973,-2.13977,0.08932,1.57080,-3.01911,-0.09677,-0.44240,0.36747,,
9.8658,1,DESCENDING,-0.0000,1.35075,0.47973,-2.13981,0.08936,1.57080,-3.01911,-0.09677,-0.44240,0.36745,,
9.8752,1,DESCENDING,-0.0000,1.35075,0.47973,-2.13984,0.08940,1.57080,-3.01911,-0.09677,-0.44240,0.36742,,
9.9085,1,DESCENDING,-0.0000,1.35075,0.47971,-2.14003,0.08960,1.57080,-3.01911,-0.09677,-0.44240,0.36732,,
9.9097,1,DESCENDING,-0.0000,1.35075,0.47971,-2.14003,0.08960,1.57080,-3.01911,-0.09677,-0.44240,0.36732,,
9.9104,1,DESCENDING,-0.0000,1.35075,0.47971,-2.14003,0.08960,1.57080,-3.01911,-0.09677,-0.44240,0.36732,,
9.9137,1,DESCENDING,-0.0000,1.35075,0.47970,-2.14006,0.08964,1.57080,-3.01911,-0.09677,-0.44240,0.36730,,
9.9141,1,DESCENDING,-0.0000,1.35075,0.47970,-2.14006,0.08964,1.57080,-3.01911,-0.09677,-0.44240,0.36730,,
9.9234,1,DESCENDING,-0.0000,1.35075,0.47970,-2.14009,0.08967,1.57080,-3.01911,-0.09677,-0.44240,0.36728,,
9.9240,1,DESCENDING,-0.0000,1.35075,0.47970,-2.14009,0.08967,1.57080,-3.01911,-0.09677,-0.44240,0.36728,,
9.9266,1,DESCENDING,-0.0000,1.35075,0.47970,-2.14009,0.08967,1.57080,-3.01911,-0.09677,-0.44240,0.36728,,
9.9280,1,DESCENDING,-0.0000,1.35075,0.47970,-2.14011,0.08969,1.57080,-3.01911,-0.09677,-0.44240,0.36727,,
9.9289,1,DESCENDING,-0.0000,1.35075,0.47970,-2.14011,0.08969,1.57080,-3.01911,-0.09677,-0.44240,0.36727,,
9.9294,1,DESCENDING,-0.0000,1.35075,0.47970,-2.14011,0.08969,1.57080,-3.01911,-0.09677,-0.44240,0.36727,,
9.9301,1,DESCENDING,-0.0000,1.35075,0.47970,-2.14011,0.08969,1.57080,-3.01911,-0.09677,-0.44240,0.36727,,
9.9512,1,DESCENDING,-0.0000,1.35075,0.47968,-2.14025,0.08984,1.57080,-3.01911,-0.09677,-0.44240,0.36719,,
9.9517,1,DESCENDING,-0.0000,1.35075,0.47968,-2.14025,0.08984,1.57080,-3.01911,-0.09677,-0.44240,0.36719,,
9.9575,1,DESCENDING,-0.0000,1.35075,0.47968,-2.14025,0.08985,1.57080,-3.01911,-0.09677,-0.44240,0.36718,,
9.9663,1,DESCENDING,-0.0000,1.35075,0.47968,-2.14028,0.08988,1.57080,-3.01911,-0.09677,-0.44240,0.36717,,
9.9785,1,DESCENDING,-0.0000,1.35075,0.47967,-2.14035,0.08995,1.57080,-3.01911,-0.09677,-0.44240,0.36713,,
9.9921,1,DESCENDING,-0.0000,1.35075,0.47967,-2.14039,0.09000,1.57080,-3.01911,-0.09677,-0.44240,0.36710,,
9.9967,1,DESCENDING,-0.0000,1.35075,0.47967,-2.14042,0.09003,1.57080,-3.01911,-0.09677,-0.44240,0.36708,,
10.0071,1,DESCENDING,-0.0000,1.35075,0.47966,-2.14048,0.09010,1.57080,-3.01911,-0.09677,-0.44240,0.36705,,
10.0192,1,DESCENDING,-0.0000,1.35075,0.47966,-2.14051,0.09014,1.57080,-3.01911,-0.09677,-0.44240,0.36703,,
10.0267,1,DESCENDING,-0.0000,1.35075,0.47965,-2.14054,0.09017,1.57080,-3.01911,-0.09677,-0.44240,0.36701,,
10.0370,1,DESCENDING,-0.0000,1.35075,0.47965,-2.14061,0.09024,1.57080,-3.01911,-0.09677,-0.44240,0.36697,,
10.0483,1,DESCENDING,-0.0000,1.35075,0.47964,-2.14063,0.09026,1.57080,-3.01911,-0.09677,-0.44240,0.36696,,
10.0603,1,DESCENDING,-0.0000,1.35075,0.47964,-2.14071,0.09035,1.57080,-3.01911,-0.09677,-0.44240,0.36691,,
10.0671,1,DESCENDING,-0.0000,1.35075,0.47963,-2.14074,0.09039,1.57080,-3.01911,-0.09677,-0.44240,0.36689,,
10.0766,1,DESCENDING,-0.0000,1.35075,0.47963,-2.14077,0.09043,1.57080,-3.01911,-0.09677,-0.44240,0.36687,,
10.0922,1,DESCENDING,-0.0000,1.35075,0.47962,-2.14084,0.09050,1.57080,-3.01911,-0.09677,-0.44240,0.36683,,
10.0997,1,DESCENDING,-0.0000,1.35075,0.47962,-2.14087,0.09053,1.57080,-3.01911,-0.09677,-0.44240,0.36681,,
10.1088,1,DESCENDING,-0.0000,1.35075,0.47962,-2.14089,0.09055,1.57080,-3.01911,-0.09677,-0.44240,0.36680,,
10.1180,1,DESCENDING,-0.0000,1.35075,0.47961,-2.14094,0.09061,1.57080,-3.01911,-0.09677,-0.44240,0.36677,,
10.1283,1,DESCENDING,-0.0000,1.35075,0.47960,-2.14103,0.09071,1.57080,-3.01911,-0.09677,-0.44240,0.36672,,
10.1492,1,DESCENDING,-0.0000,1.35075,0.47960,-2.14108,0.09077,1.57080,-3.01911,-0.09677,-0.44240,0.36669,,
10.1588,1,DESCENDING,-0.0000,1.35075,0.47959,-2.14113,0.09082,1.57080,-3.01911,-0.09677,-0.44240,0.36666,,
10.1600,1,DESCENDING,-0.0000,1.35075,0.47959,-2.14113,0.09082,1.57080,-3.01911,-0.09677,-0.44240,0.36666,,
10.1700,1,DESCENDING,-0.0000,1.35075,0.47959,-2.14115,0.09084,1.57080,-3.01911,-0.09677,-0.44240,0.36665,,
10.1765,1,DESCENDING,-0.0000,1.35075,0.47958,-2.14120,0.09090,1.57080,-3.01911,-0.09677,-0.44240,0.36662,,
10.1947,1,DESCENDING,-0.0000,1.35075,0.47957,-2.14129,0.09100,1.57080,-3.01911,-0.09677,-0.44240,0.36656,,
10.2013,1,DESCENDING,-0.0000,1.35075,0.47957,-2.14131,0.09101,1.57080,-3.01911,-0.09677,-0.44240,0.36655,,
10.2088,1,DESCENDING,-0.0000,1.35075,0.47957,-2.14134,0.09105,1.57080,-3.01911,-0.09677,-0.44240,0.36653,,
10.2172,1,DESCENDING,-0.0000,1.35075,0.47956,-2.14139,0.09111,1.57080,-3.01911,-0.09677,-0.44240,0.36650,,
10.2287,1,DESCENDING,-0.0000,1.35075,0.47956,-2.14141,0.09113,1.57080,-3.01911,-0.09677,-0.44240,0.36649,,
10.2408,1,DESCENDING,-0.0000,1.35075,0.47955,-2.14149,0.09122,1.57080,-3.01911,-0.09677,-0.44240,0.36644,,
10.2515,1,DESCENDING,-0.0000,1.35075,0.47955,-2.14155,0.09129,1.57080,-3.01911,-0.09677,-0.44240,0.36641,,
10.2567,1,DESCENDING,-0.0000,1.35075,0.47955,-2.14156,0.09129,1.57080,-3.01911,-0.09677,-0.44240,0.36640,,
10.2784,1,DESCENDING,-0.0000,1.35075,0.47954,-2.14165,0.09140,1.57080,-3.01911,-0.09677,-0.44240,0.36635,,
10.2875,1,DESCENDING,-0.0000,1.35075,0.47954,-2.14166,0.09140,1.57080,-3.01911,-0.09677,-0.44240,0.36634,,
10.2976,1,DESCENDING,-0.0000,1.35075,0.47953,-2.14172,0.09147,1.57080,-3.01911,-0.09677,-0.44240,0.36631,,
10.3089,1,DESCENDING,-0.0000,1.35075,0.47952,-2.14181,0.09158,1.57080,-3.01911,-0.09677,-0.44240,0.36625,,
10.3217,1,DESCENDING,-0.0000,1.35075,0.47952,-2.14183,0.09159,1.57080,-3.01911,-0.09677,-0.44240,0.36624,,
10.3272,1,DESCENDING,-0.0000,1.35075,0.47952,-2.14184,0.09161,1.57080,-3.01911,-0.09677,-0.44240,0.36623,,
10.3373,1,DESCENDING,-0.0000,1.35075,0.47951,-2.14191,0.09169,1.57080,-3.01911,-0.09677,-0.44240,0.36619,,
10.3604,1,DESCENDING,-0.0000,1.35075,0.47950,-2.14201,0.09180,1.57080,-3.01911,-0.09677,-0.44240,0.36613,,
