Martins-Lucaas/RoboticArm/sensors/Data/20260621_172838__samples.csv
t_rel_s,cycle,phase,force_net_n,q1,q2,q3,q4,q5,q6,tcp_x,tcp_y,tcp_z,touch_value,touch_age_ms
0.0012,0,IDLE,-0.0000,1.35075,0.48284,-2.09940,0.04565,1.57079,-3.01911,-0.09678,-0.44233,0.39120,,
0.0149,1,HOME,-0.0000,1.35075,0.48284,-2.09940,0.04565,1.57079,-3.01911,-0.09678,-0.44233,0.39120,,
0.0233,1,HOME,-0.0000,1.35075,0.48284,-2.09940,0.04565,1.57079,-3.01911,-0.09678,-0.44233,0.39120,,
0.0412,1,HOME,-0.0000,1.35075,0.48284,-2.09940,0.04565,1.57079,-3.01911,-0.09678,-0.44233,0.39120,,
0.0426,1,HOME,-0.0000,1.35075,0.48284,-2.09940,0.04565,1.57079,-3.01911,-0.09678,-0.44233,0.39120,,
0.0529,1,HOME,-0.0000,1.35075,0.48284,-2.09940,0.04565,1.57079,-3.01911,-0.09678,-0.44233,0.39120,,
0.0623,1,HOME,-0.0000,1.35075,0.48284,-2.09940,0.04565,1.57079,-3.01911,-0.09678,-0.44233,0.39120,,
0.0716,1,HOME,-0.0000,1.35075,0.48284,-2.09940,0.04565,1.57079,-3.01911,-0.09678,-0.44233,0.39120,,
0.0819,1,HOME,-0.0000,1.35075,0.48284,-2.09940,0.04565,1.57079,-3.01911,-0.09678,-0.44233,0.39120,,
0.0934,1,HOME,-0.0000,1.35075,0.48284,-2.09940,0.04565,1.57079,-3.01911,-0.09678,-0.44233,0.39120,,
0.1030,1,HOME,-0.0000,1.35075,0.48284,-2.09940,0.04565,1.57079,-3.01911,-0.09678,-0.44233,0.39120,,
0.1124,1,HOME,-0.0000,1.35075,0.48284,-2.09940,0.04565,1.57079,-3.01911,-0.09678,-0.44233,0.39120,,
0.1226,1,HOME,-0.0000,1.35075,0.48284,-2.09940,0.04565,1.57079,-3.01911,-0.09678,-0.44233,0.39120,,
0.1337,1,HOME,-0.0000,1.35075,0.48284,-2.09940,0.04565,1.57079,-3.01911,-0.09678,-0.44233,0.39120,,
0.1439,1,HOME,-0.0000,1.35075,0.48284,-2.09940,0.04565,1.57079,-3.01911,-0.09678,-0.44233,0.39120,,
0.1549,1,HOME,-0.0000,1.35075,0.48284,-2.09940,0.04565,1.57079,-3.01911,-0.09678,-0.44233,0.39120,,
0.1618,1,HOME,-0.0000,1.35075,0.48284,-2.09940,0.04565,1.57079,-3.01911,-0.09678,-0.44233,0.39120,,
0.1724,1,HOME,-0.0000,1.35075,0.48284,-2.09940,0.04565,1.57079,-3.01911,-0.09678,-0.44233,0.39120,,
0.1811,1,HOME,-0.0000,1.35075,0.48284,-2.09940,0.04565,1.57079,-3.01911,-0.09678,-0.44233,0.39120,,
0.1941,1,HOME,-0.0000,1.35075,0.48284,-2.09940,0.04565,1.57079,-3.01911,-0.09678,-0.44233,0.39120,,
0.2043,1,HOME,-0.0000,1.35075,0.48284,-2.09940,0.04565,1.57079,-3.01911,-0.09678,-0.44233,0.39120,,
0.2134,1,HOME,-0.0000,1.35075,0.48284,-2.09940,0.04565,1.57079,-3.01911,-0.09678,-0.44233,0.39120,,
0.2218,1,HOME,-0.0000,1.35075,0.48284,-2.09940,0.04565,1.57079,-3.01911,-0.09678,-0.44233,0.39120,,
0.2332,1,HOME,-0.0000,1.35075,0.48284,-2.09940,0.04565,1.57079,-3.01911,-0.09678,-0.44233,0.39120,,
0.2482,1,HOME,-0.0000,1.35075,0.48284,-2.09940,0.04565,1.57079,-3.01911,-0.09678,-0.44233,0.39120,,
0.2548,1,HOME,-0.0000,1.35075,0.48284,-2.09940,0.04565,1.57079,-3.01911,-0.09678,-0.44233,0.39120,,
0.2622,1,HOME,-0.0000,1.35075,0.48284,-2.09940,0.04565,1.57079,-3.01911,-0.09678,-0.44233,0.39120,,
0.2723,1,HOME,-0.0000,1.35075,0.48284,-2.09940,0.04565,1.57079,-3.01911,-0.09678,-0.44233,0.39120,,
0.2863,1,HOME,-0.0000,1.35075,0.48284,-2.09940,0.04565,1.57079,-3.01911,-0.09678,-0.44233,0.39120,,
0.2966,1,HOME,-0.0000,1.35075,0.48284,-2.09940,0.04565,1.57079,-3.01911,-0.09678,-0.44233,0.39120,,
0.3041,1,HOME,-0.0000,1.35075,0.48284,-2.09940,0.04565,1.57079,-3.01911,-0.09678,-0.44233,0.39120,,
0.3132,1,HOME,-0.0000,1.35075,0.48284,-2.09940,0.04565,1.57079,-3.01911,-0.09678,-0.44233,0.39120,,
0.3239,1,HOME,-0.0000,1.35075,0.48284,-2.09940,0.04565,1.57079,-3.01911,-0.09678,-0.44233,0.39120,,
0.3370,1,HOME,-0.0000,1.35075,0.48284,-2.09940,0.04565,1.57079,-3.01911,-0.09678,-0.44233,0.39120,,
0.3448,1,HOME,-0.0000,1.35075,0.48284,-2.09940,0.04565,1.57079,-3.01911,-0.09678,-0.44233,0.39120,,
0.3546,1,HOME,-0.0000,1.35075,0.48284,-2.09940,0.04565,1.57079,-3.01911,-0.09678,-0.44233,0.39120,,
0.3657,1,HOME,-0.0000,1.35075,0.48284,-2.09940,0.04565,1.57079,-3.01911,-0.09678,-0.44233,0.39120,,
0.3709,1,HOME,-0.0000,1.35075,0.48284,-2.09940,0.04565,1.57079,-3.01911,-0.09678,-0.44233,0.39120,,
0.3818,1,HOME,-0.0000,1.35075,0.48284,-2.09940,0.04565,1.57079,-3.01911,-0.09678,-0.44233,0.39120,,
0.4069,1,HOME,-0.0000,1.35075,0.48284,-2.09940,0.04565,1.57079,-3.01911,-0.09678,-0.44233,0.39120,,
0.4073,1,HOME,-0.0000,1.35075,0.48284,-2.09940,0.04565,1.57079,-3.01911,-0.09678,-0.44233,0.39120,,
0.4118,1,HOME,-0.0000,1.35075,0.48284,-2.09940,0.04565,1.57079,-3.01911,-0.09678,-0.44233,0.39120,,
0.4253,1,HOME,-0.0000,1.35075,0.48284,-2.09940,0.04565,1.57079,-3.01911,-0.09678,-0.44233,0.39120,,
0.4332,1,HOME,-0.0000,1.35075,0.48284,-2.09940,0.04565,1.57079,-3.01911,-0.09678,-0.44233,0.39120,,
0.4455,1,HOME,-0.0000,1.35075,0.48284,-2.09940,0.04565,1.57079,-3.01911,-0.09678,-0.44233,0.39120,,
0.4520,1,HOME,-0.0000,1.35075,0.48284,-2.09940,0.04565,1.57079,-3.01911,-0.09678,-0.44233,0.39120,,
0.4628,1,HOME,-0.0000,1.35075,0.48284,-2.09940,0.04565,1.57079,-3.01911,-0.09678,-0.44233,0.39120,,
0.4731,1,HOME,-0.0000,1.35075,0.48284,-2.09940,0.04565,1.57079,-3.01911,-0.09678,-0.44233,0.39120,,
0.4836,1,HOME,-0.0000,1.35075,0.48284,-2.09940,0.04565,1.57079,-3.01911,-0.09678,-0.44233,0.39120,,
0.4928,1,HOME,-0.0000,1.35075,0.48284,-2.09940,0.04565,1.57079,-3.01911,-0.09678,-0.44233,0.39120,,
0.5041,1,HOME,-0.0000,1.35075,0.48284,-2.09940,0.04565,1.57079,-3.01911,-0.09678,-0.44233,0.39120,,
0.5146,1,HOME,-0.0000,1.35075,0.48284,-2.09940,0.04565,1.57079,-3.01911,-0.09678,-0.44233,0.39120,,
0.5213,1,HOME,-0.0000,1.35075,0.48284,-2.09940,0.04565,1.57079,-3.01911,-0.09678,-0.44233,0.39120,,
0.5325,1,HOME,-0.0000,1.35075,0.48284,-2.09940,0.04565,1.57079,-3.01911,-0.09678,-0.44233,0.39120,,
0.5423,1,HOME,-0.0000,1.35075,0.48284,-2.09940,0.04565,1.57079,-3.01911,-0.09678,-0.44233,0.39120,,
0.5635,1,HOME,-0.0000,1.35075,0.48284,-2.09940,0.04565,1.57079,-3.01911,-0.09678,-0.44233,0.39120,,
0.5651,1,HOME,-0.0000,1.35075,0.48284,-2.09940,0.04565,1.57079,-3.01911,-0.09678,-0.44233,0.39120,,
0.5820,1,HOME,-0.0000,1.35075,0.48284,-2.09940,0.04565,1.57079,-3.01911,-0.09678,-0.44233,0.39120,,
0.5934,1,HOME,-0.0000,1.35075,0.48284,-2.09940,0.04565,1.57079,-3.01911,-0.09678,-0.44233,0.39120,,
0.6222,1,HOME,-0.0000,1.35075,0.48284,-2.09940,0.04565,1.57079,-3.01911,-0.09678,-0.44233,0.39120,,
0.6225,1,HOME,-0.0000,1.35075,0.48284,-2.09940,0.04565,1.57079,-3.01911,-0.09678,-0.44233,0.39120,,
0.6232,1,HOME,-0.0000,1.35075,0.48284,-2.09940,0.04565,1.57079,-3.01911,-0.09678,-0.44233,0.39120,,
0.6378,1,HOME,-0.0000,1.35075,0.48284,-2.09940,0.04565,1.57079,-3.01911,-0.09678,-0.44233,0.39120,,
0.6427,1,HOME,-0.0000,1.35075,0.48284,-2.09940,0.04565,1.57079,-3.01911,-0.09678,-0.44233,0.39120,,
0.6558,1,HOME,-0.0000,1.35075,0.48284,-2.09940,0.04565,1.57079,-3.01911,-0.09678,-0.44233,0.39120,,
0.6708,1,HOME,-0.0000,1.35075,0.48284,-2.09940,0.04565,1.57079,-3.01911,-0.09678,-0.44233,0.39120,,
0.6719,1,HOME,-0.0000,1.35075,0.48284,-2.09940,0.04565,1.57079,-3.01911,-0.09678,-0.44233,0.39120,,
0.6820,1,HOME,-0.0000,1.35075,0.48284,-2.09940,0.04565,1.57079,-3.01911,-0.09678,-0.44233,0.39120,,
0.6957,1,HOME,-0.0000,1.35075,0.48284,-2.09940,0.04565,1.57079,-3.01911,-0.09678,-0.44233,0.39120,,
0.7075,1,HOME,-0.0000,1.35075,0.48284,-2.09940,0.04565,1.57079,-3.01911,-0.09678,-0.44233,0.39120,,
0.7141,1,HOME,-0.0000,1.35075,0.48284,-2.09940,0.04565,1.57079,-3.01911,-0.09678,-0.44233,0.39120,,
0.7219,1,HOME,-0.0000,1.35075,0.48284,-2.09940,0.04565,1.57079,-3.01911,-0.09678,-0.44233,0.39120,,
0.7337,1,DESCENDING,-0.0000,1.35075,0.48284,-2.09940,0.04565,1.57079,-3.01911,-0.09678,-0.44233,0.39120,,
0.7456,1,DESCENDING,-0.0000,1.35075,0.48284,-2.09940,0.04565,1.57079,-3.01911,-0.09678,-0.44233,0.39120,,
0.7536,1,DESCENDING,-0.0000,1.35075,0.48284,-2.09940,0.04565,1.57079,-3.01911,-0.09678,-0.44233,0.39120,,
0.7697,1,DESCENDING,-0.0000,1.35075,0.48284,-2.09940,0.04565,1.57079,-3.01911,-0.09678,-0.44233,0.39120,,
0.7776,1,DESCENDING,-0.0000,1.35075,0.48284,-2.09940,0.04565,1.57079,-3.01911,-0.09678,-0.44233,0.39120,,
0.7830,1,DESCENDING,-0.0000,1.35075,0.48284,-2.09940,0.04565,1.57079,-3.01911,-0.09678,-0.44233,0.39120,,
0.7959,1,DESCENDING,-0.0000,1.35075,0.48284,-2.09940,0.04565,1.57079,-3.01911,-0.09678,-0.44233,0.39120,,
0.8157,1,DESCENDING,-0.0000,1.35075,0.48284,-2.09940,0.04565,1.57079,-3.01911,-0.09678,-0.44233,0.39120,,
0.8167,1,DESCENDING,-0.0000,1.35075,0.48284,-2.09940,0.04565,1.57079,-3.01911,-0.09678,-0.44233,0.39120,,
0.8227,1,DESCENDING,-0.0000,1.35075,0.48284,-2.09940,0.04565,1.57079,-3.01911,-0.09678,-0.44233,0.39120,,
0.8379,1,DESCENDING,-0.0000,1.35075,0.48284,-2.09940,0.04565,1.57079,-3.01911,-0.09678,-0.44233,0.39120,,
0.8457,1,DESCENDING,-0.0000,1.35075,0.48284,-2.09940,0.04565,1.57079,-3.01911,-0.09678,-0.44233,0.39120,,
0.8608,1,DESCENDING,-0.0000,1.35075,0.48284,-2.09940,0.04565,1.57079,-3.01911,-0.09678,-0.44233,0.39120,,
0.8617,1,DESCENDING,-0.0000,1.35075,0.48284,-2.09940,0.04565,1.57079,-3.01911,-0.09678,-0.44233,0.39120,,
0.8726,1,DESCENDING,-0.0000,1.35075,0.48284,-2.09940,0.04565,1.57079,-3.01911,-0.09678,-0.44233,0.39120,,
0.8833,1,DESCENDING,-0.0000,1.35075,0.48284,-2.09940,0.04565,1.57079,-3.01911,-0.09678,-0.44233,0.39120,,
0.8944,1,DESCENDING,-0.0000,1.35075,0.48284,-2.09940,0.04565,1.57079,-3.01911,-0.09678,-0.44233,0.39120,,
0.9227,1,DESCENDING,-0.0000,1.35075,0.48284,-2.09940,0.04565,1.57079,-3.01911,-0.09678,-0.44233,0.39120,,
0.9247,1,DESCENDING,-0.0000,1.35075,0.48284,-2.09940,0.04565,1.57079,-3.01911,-0.09678,-0.44233,0.39120,,
0.9257,1,DESCENDING,-0.0000,1.35075,0.48284,-2.09941,0.04565,1.57079,-3.01911,-0.09678,-0.44233,0.39120,,
0.9324,1,DESCENDING,-0.0000,1.35075,0.48284,-2.09942,0.04566,1.57079,-3.01911,-0.09678,-0.44233,0.39120,,
0.9422,1,DESCENDING,-0.0000,1.35075,0.48283,-2.09946,0.04571,1.57079,-3.01911,-0.09678,-0.44233,0.39117,,
0.9547,1,DESCENDING,-0.0000,1.35075,0.48283,-2.09949,0.04574,1.57079,-3.01911,-0.09678,-0.44233,0.39116,,
0.9751,1,DESCENDING,-0.0000,1.35075,0.48283,-2.09955,0.04580,1.57079,-3.01911,-0.09678,-0.44233,0.39112,,
0.9756,1,DESCENDING,-0.0000,1.35075,0.48283,-2.09955,0.04580,1.57079,-3.01911,-0.09678,-0.44233,0.39112,,
0.9831,1,DESCENDING,-0.0000,1.35075,0.48283,-2.09956,0.04582,1.57079,-3.01911,-0.09678,-0.44233,0.39111,,
0.9915,1,DESCENDING,-0.0000,1.35075,0.48283,-2.09955,0.04581,1.57079,-3.01911,-0.09678,-0.44233,0.39112,,
1.0036,1,DESCENDING,-0.0000,1.35075,0.48283,-2.09952,0.04577,1.57079,-3.01911,-0.09678,-0.44233,0.39114,,
1.0133,1,DESCENDING,-0.0000,1.35075,0.48283,-2.09951,0.04576,1.57079,-3.01911,-0.09678,-0.44233,0.39115,,
1.0223,1,DESCENDING,-0.0000,1.35075,0.48283,-2.09952,0.04577,1.57079,-3.01911,-0.09678,-0.44233,0.39114,,
1.0328,1,DESCENDING,-0.0000,1.35075,0.48283,-2.09952,0.04577,1.57079,-3.01911,-0.09678,-0.44233,0.39114,,
1.0418,1,DESCENDING,-0.0000,1.35075,0.48283,-2.09951,0.04576,1.57079,-3.01911,-0.09678,-0.44233,0.39114,,
1.0540,1,DESCENDING,-0.0000,1.35075,0.48283,-2.09954,0.04579,1.57079,-3.01911,-0.09678,-0.44233,0.39113,,
1.0703,1,DESCENDING,-0.0000,1.35075,0.48283,-2.09959,0.04585,1.57079,-3.01911,-0.09678,-0.44233,0.39109,,
1.0754,1,DESCENDING,-0.0000,1.35075,0.48283,-2.09960,0.04585,1.57079,-3.01911,-0.09678,-0.44233,0.39109,,
1.0829,1,DESCENDING,-0.0000,1.35075,0.48283,-2.09961,0.04587,1.57079,-3.01911,-0.09678,-0.44233,0.39108,,
1.0927,1,DESCENDING,-0.0000,1.35075,0.48282,-2.09964,0.04590,1.57079,-3.01911,-0.09678,-0.44233,0.39107,,
1.1014,1,DESCENDING,-0.0000,1.35075,0.48282,-2.09967,0.04593,1.57079,-3.01911,-0.09678,-0.44233,0.39105,,
1.1360,1,DESCENDING,-0.0000,1.35075,0.48282,-2.09973,0.04599,1.57079,-3.01911,-0.09678,-0.44233,0.39102,,
1.1606,1,DESCENDING,-0.0000,1.35075,0.48282,-2.09981,0.04607,1.57079,-3.01911,-0.09678,-0.44233,0.39097,,
1.1630,1,DESCENDING,-0.0000,1.35075,0.48282,-2.09981,0.04607,1.57079,-3.01911,-0.09678,-0.44233,0.39097,,
1.1851,1,DESCENDING,-0.0000,1.35075,0.48281,-2.09984,0.04611,1.57079,-3.01911,-0.09678,-0.44233,0.39095,,
1.1938,1,DESCENDING,-0.0000,1.35075,0.48281,-2.09985,0.04612,1.57079,-3.01911,-0.09678,-0.44233,0.39095,,
1.2029,1,DESCENDING,-0.0000,1.35075,0.48281,-2.09986,0.04612,1.57079,-3.01911,-0.09678,-0.44233,0.39094,,
1.2051,1,DESCENDING,-0.0000,1.35075,0.48281,-2.09986,0.04612,1.57079,-3.01911,-0.09678,-0.44233,0.39094,,
1.2091,1,DESCENDING,-0.0000,1.35075,0.48281,-2.09985,0.04612,1.57079,-3.01911,-0.09678,-0.44233,0.39095,,
1.2350,1,DESCENDING,-0.0000,1.35075,0.48282,-2.09979,0.04606,1.57079,-3.01911,-0.09678,-0.44233,0.39098,,
1.2373,1,DESCENDING,-0.0000,1.35075,0.48282,-2.09979,0.04606,1.57079,-3.01911,-0.09678,-0.44233,0.39098,,
1.2467,1,DESCENDING,-0.0000,1.35075,0.48282,-2.09975,0.04602,1.57079,-3.01911,-0.09678,-0.44233,0.39100,,
1.2561,1,DESCENDING,-0.0000,1.35075,0.48282,-2.09976,0.04602,1.57079,-3.01911,-0.09678,-0.44233,0.39100,,
1.2699,1,DESCENDING,-0.0000,1.35075,0.48282,-2.09981,0.04608,1.57079,-3.01911,-0.09678,-0.44233,0.39097,,
1.2752,1,DESCENDING,-0.0000,1.35075,0.48282,-2.09980,0.04607,1.57079,-3.01911,-0.09678,-0.44233,0.39097,,
1.2844,1,DESCENDING,-0.0000,1.35075,0.48282,-2.09979,0.04606,1.57079,-3.01911,-0.09678,-0.44233,0.39098,,
1.2935,1,DESCENDING,-0.0000,1.35075,0.48282,-2.09979,0.04606,1.57079,-3.01911,-0.09678,-0.44233,0.39098,,
1.3031,1,DESCENDING,-0.0000,1.35075,0.48282,-2.09975,0.04602,1.57079,-3.01911,-0.09678,-0.44233,0.39100,,
1.3183,1,DESCENDING,-0.0000,1.35075,0.48282,-2.09974,0.04601,1.57079,-3.01911,-0.09678,-0.44233,0.39101,,
1.3269,1,DESCENDING,-0.0000,1.35075,0.48282,-2.09976,0.04603,1.57079,-3.01911,-0.09678,-0.44233,0.39100,,
1.3366,1,DESCENDING,-0.0000,1.35075,0.48282,-2.09974,0.04601,1.57079,-3.01911,-0.09678,-0.44233,0.39101,,
1.3493,1,DESCENDING,-0.0000,1.35075,0.48282,-2.09973,0.04599,1.57079,-3.01911,-0.09678,-0.44233,0.39102,,
1.3521,1,DESCENDING,-0.0000,1.35075,0.48282,-2.09974,0.04600,1.57079,-3.01911,-0.09678,-0.44233,0.39101,,
1.3619,1,DESCENDING,-0.0000,1.35075,0.48282,-2.09975,0.04602,1.57079,-3.01911,-0.09678,-0.44233,0.39100,,
1.3778,1,DESCENDING,-0.0000,1.35075,0.48282,-2.09976,0.04602,1.57079,-3.01911,-0.09678,-0.44233,0.39100,,
1.3855,1,DESCENDING,-0.0000,1.35075,0.48282,-2.09977,0.04604,1.57079,-3.01911,-0.09678,-0.44233,0.39099,,
1.3966,1,DESCENDING,-0.0000,1.35075,0.48282,-2.09975,0.04602,1.57079,-3.01911,-0.09678,-0.44233,0.39100,,
1.4020,1,DESCENDING,-0.0000,1.35075,0.48282,-2.09973,0.04600,1.57079,-3.01911,-0.09678,-0.44233,0.39101,,
1.4133,1,DESCENDING,-0.0000,1.35075,0.48282,-2.09975,0.04601,1.57079,-3.01911,-0.09678,-0.44233,0.39100,,
1.4231,1,DESCENDING,-0.0000,1.35075,0.48282,-2.09973,0.04600,1.57079,-3.01911,-0.09678,-0.44233,0.39101,,
1.4374,1,DESCENDING,-0.0000,1.35075,0.48282,-2.09972,0.04598,1.57079,-3.01911,-0.09678,-0.44233,0.39102,,
1.4420,1,DESCENDING,-0.0000,1.35075,0.48282,-2.09975,0.04601,1.57079,-3.01911,-0.09678,-0.44233,0.39101,,
1.4522,1,DESCENDING,-0.0000,1.35075,0.48282,-2.09974,0.04601,1.57079,-3.01911,-0.09678,-0.44233,0.39101,,
1.4621,1,DESCENDING,-0.0000,1.35075,0.48282,-2.09971,0.04597,1.57079,-3.01911,-0.09678,-0.44233,0.39103,,
1.4760,1,DESCENDING,-0.0000,1.35075,0.48282,-2.09973,0.04599,1.57079,-3.01911,-0.09678,-0.44233,0.39102,,
1.4868,1,DESCENDING,-0.0000,1.35075,0.48282,-2.09969,0.04595,1.57079,-3.01911,-0.09678,-0.44233,0.39104,,
1.4932,1,DESCENDING,-0.0000,1.35075,0.48282,-2.09967,0.04593,1.57079,-3.01911,-0.09678,-0.44233,0.39105,,
1.5100,1,DESCENDING,-0.0000,1.35075,0.48282,-2.09969,0.04595,1.57079,-3.01911,-0.09678,-0.44233,0.39104,,
1.5133,1,DESCENDING,-0.0000,1.35075,0.48282,-2.09969,0.04595,1.57079,-3.01911,-0.09678,-0.44233,0.39104,,
1.5308,1,DESCENDING,-0.0000,1.35075,0.48282,-2.09968,0.04594,1.57079,-3.01911,-0.09678,-0.44233,0.39105,,
1.5316,1,DESCENDING,-0.0000,1.35075,0.48282,-2.09968,0.04594,1.57079,-3.01911,-0.09678,-0.44233,0.39105,,
1.5421,1,DESCENDING,-0.0000,1.35075,0.48282,-2.09966,0.04592,1.57079,-3.01911,-0.09678,-0.44233,0.39105,,
1.5521,1,DESCENDING,-0.0000,1.35075,0.48283,-2.09963,0.04589,1.57079,-3.01911,-0.09678,-0.44233,0.39107,,
1.5648,1,DESCENDING,-0.0000,1.35075,0.48283,-2.09963,0.04589,1.57079,-3.01911,-0.09678,-0.44233,0.39107,,
1.5733,1,DESCENDING,-0.0000,1.35075,0.48283,-2.09962,0.04588,1.57079,-3.01911,-0.09678,-0.44233,0.39108,,
1.5864,1,DESCENDING,-0.0000,1.35075,0.48283,-2.09960,0.04585,1.57079,-3.01911,-0.09678,-0.44233,0.39109,,
1.5933,1,DESCENDING,-0.0000,1.35075,0.48283,-2.09961,0.04587,1.57079,-3.01911,-0.09678,-0.44233,0.39109,,
1.6021,1,DESCENDING,-0.0000,1.35075,0.48283,-2.09960,0.04585,1.57079,-3.01911,-0.09678,-0.44233,0.39109,,
1.6121,1,DESCENDING,-0.0000,1.35075,0.48283,-2.09957,0.04583,1.57079,-3.01911,-0.09678,-0.44233,0.39111,,
1.6388,1,DESCENDING,-0.0000,1.35075,0.48283,-2.09963,0.04588,1.57079,-3.01911,-0.09678,-0.44233,0.39107,,
1.6426,1,DESCENDING,-0.0000,1.35075,0.48283,-2.09963,0.04588,1.57079,-3.01911,-0.09678,-0.44233,0.39107,,
1.6471,1,DESCENDING,-0.0000,1.35075,0.48283,-2.09963,0.04589,1.57079,-3.01911,-0.09678,-0.44233,0.39107,,
1.6584,1,DESCENDING,-0.0000,1.35075,0.48283,-2.09964,0.04590,1.57079,-3.01911,-0.09678,-0.44233,0.39107,,
1.6753,1,DESCENDING,-0.0000,1.35075,0.48283,-2.09960,0.04585,1.57079,-3.01911,-0.09678,-0.44233,0.39109,,
1.6855,1,DESCENDING,-0.0000,1.35075,0.48283,-2.09962,0.04587,1.57079,-3.01911,-0.09678,-0.44233,0.39108,,
1.6860,1,DESCENDING,-0.0000,1.35075,0.48283,-2.09962,0.04587,1.57079,-3.01911,-0.09678,-0.44233,0.39108,,
1.6965,1,DESCENDING,-0.0000,1.35075,0.48282,-2.09968,0.04594,1.57079,-3.01911,-0.09678,-0.44233,0.39104,,
1.7020,1,DESCENDING,-0.0000,1.35075,0.48282,-2.09970,0.04597,1.57079,-3.01911,-0.09678,-0.44233,0.39103,,
1.7125,1,DESCENDING,-0.0000,1.35075,0.48282,-2.09971,0.04598,1.57079,-3.01911,-0.09678,-0.44233,0.39102,,
1.7492,1,DESCENDING,-0.0000,1.35075,0.48282,-2.09969,0.04595,1.57079,-3.01911,-0.09678,-0.44233,0.39104,,
1.7580,1,DESCENDING,-0.0000,1.35075,0.48282,-2.09964,0.04590,1.57079,-3.01911,-0.09678,-0.44233,0.39107,,
1.7584,1,DESCENDING,-0.0000,1.35075,0.48282,-2.09964,0.04590,1.57079,-3.01911,-0.09678,-0.44233,0.39107,,
1.7638,1,DESCENDING,-0.0000,1.35075,0.48282,-2.09964,0.04590,1.57079,-3.01911,-0.09678,-0.44233,0.39107,,
1.7649,1,DESCENDING,-0.0000,1.35075,0.48282,-2.09964,0.04590,1.57079,-3.01911,-0.09678,-0.44233,0.39107,,
1.7769,1,DESCENDING,-0.0000,1.35075,0.48282,-2.09966,0.04592,1.57079,-3.01911,-0.09678,-0.44233,0.39106,,
1.7875,1,DESCENDING,-0.0000,1.35075,0.48283,-2.09963,0.04589,1.57079,-3.01911,-0.09678,-0.44233,0.39107,,
1.7933,1,DESCENDING,-0.0000,1.35075,0.48283,-2.09962,0.04587,1.57079,-3.01911,-0.09678,-0.44233,0.39108,,
1.8018,1,DESCENDING,-0.0000,1.35075,0.48283,-2.09962,0.04588,1.57079,-3.01911,-0.09678,-0.44233,0.39108,,
1.8118,1,DESCENDING,-0.0000,1.35075,0.48283,-2.09961,0.04587,1.57079,-3.01911,-0.09678,-0.44233,0.39109,,
1.8219,1,DESCENDING,-0.0000,1.35075,0.48283,-2.09958,0.04584,1.57079,-3.01911,-0.09678,-0.44233,0.39110,,
1.8381,1,DESCENDING,-0.0000,1.35075,0.48283,-2.09961,0.04587,1.57079,-3.01911,-0.09678,-0.44233,0.39108,,
1.8441,1,DESCENDING,-0.0000,1.35075,0.48283,-2.09961,0.04587,1.57079,-3.01911,-0.09678,-0.44233,0.39108,,
1.8666,1,DESCENDING,-0.0000,1.35075,0.48283,-2.09962,0.04588,1.57079,-3.01911,-0.09678,-0.44233,0.39108,,
1.8680,1,DESCENDING,-0.0000,1.35075,0.48283,-2.09962,0.04588,1.57079,-3.01911,-0.09678,-0.44233,0.39108,,
1.8719,1,DESCENDING,-0.0000,1.35075,0.48282,-2.09964,0.04590,1.57079,-3.01911,-0.09678,-0.44233,0.39107,,
1.8859,1,DESCENDING,-0.0000,1.35075,0.48282,-2.09964,0.04590,1.57079,-3.01911,-0.09678,-0.44233,0.39107,,
1.8934,1,DESCENDING,-0.0000,1.35075,0.48282,-2.09964,0.04590,1.57079,-3.01911,-0.09678,-0.44233,0.39107,,
1.9024,1,DESCENDING,-0.0000,1.35075,0.48283,-2.09962,0.04587,1.57079,-3.01911,-0.09678,-0.44233,0.39108,,
1.9305,1,DESCENDING,-0.0000,1.35075,0.48283,-2.09961,0.04587,1.57079,-3.01911,-0.09678,-0.44233,0.39108,,
1.9406,1,DESCENDING,-0.0000,1.35075,0.48283,-2.09960,0.04586,1.57079,-3.01911,-0.09678,-0.44233,0.39109,,
1.9429,1,DESCENDING,-0.0000,1.35075,0.48283,-2.09960,0.04586,1.57079,-3.01911,-0.09678,-0.44233,0.39109,,
1.9467,1,DESCENDING,-0.0000,1.35075,0.48283,-2.09961,0.04586,1.57079,-3.01911,-0.09678,-0.44233,0.39109,,
1.9531,1,DESCENDING,-0.0000,1.35075,0.48283,-2.09962,0.04587,1.57079,-3.01911,-0.09678,-0.44233,0.39108,,
1.9621,1,DESCENDING,-0.0000,1.35075,0.48283,-2.09963,0.04589,1.57079,-3.01911,-0.09678,-0.44233,0.39107,,
1.9743,1,DESCENDING,-0.0000,1.35075,0.48283,-2.09961,0.04587,1.57079,-3.01911,-0.09678,-0.44233,0.39109,,
1.9821,1,DESCENDING,-0.0000,1.35075,0.48283,-2.09961,0.04587,1.57079,-3.01911,-0.09678,-0.44233,0.39108,,
1.9951,1,DESCENDING,-0.0000,1.35075,0.48283,-2.09959,0.04585,1.57079,-3.01911,-0.09678,-0.44233,0.39110,,
2.0026,1,DESCENDING,-0.0000,1.35075,0.48283,-2.09958,0.04583,1.57079,-3.01911,-0.09678,-0.44233,0.39110,,
2.0130,1,DESCENDING,-0.0000,1.35075,0.48283,-2.09959,0.04585,1.57079,-3.01911,-0.09678,-0.44233,0.39110,,
2.0230,1,DESCENDING,-0.0000,1.35075,0.48283,-2.09958,0.04584,1.57079,-3.01911,-0.09678,-0.44233,0.39110,,
2.0391,1,DESCENDING,-0.0000,1.35075,0.48283,-2.09956,0.04582,1.57079,-3.01911,-0.09678,-0.44233,0.39111,,
2.0450,1,DESCENDING,-0.0000,1.35075,0.48283,-2.09957,0.04583,1.57079,-3.01911,-0.09678,-0.44233,0.39111,,
2.0521,1,DESCENDING,-0.0000,1.35075,0.48283,-2.09957,0.04583,1.57079,-3.01911,-0.09678,-0.44233,0.39111,,
2.0648,1,DESCENDING,-0.0000,1.35075,0.48283,-2.09956,0.04581,1.57079,-3.01911,-0.09678,-0.44233,0.39112,,
2.0719,1,DESCENDING,-0.0000,1.35075,0.48283,-2.09956,0.04581,1.57079,-3.01911,-0.09678,-0.44233,0.39111,,
2.0845,1,DESCENDING,-0.0000,1.35075,0.48283,-2.09954,0.04580,1.57079,-3.01911,-0.09678,-0.44233,0.39112,,
2.0943,1,DESCENDING,-0.0000,1.35075,0.48283,-2.09952,0.04577,1.57079,-3.01911,-0.09678,-0.44233,0.39114,,
2.1043,1,DESCENDING,-0.0000,1.35075,0.48283,-2.09953,0.04579,1.57079,-3.01911,-0.09678,-0.44233,0.39113,,
2.1158,1,DESCENDING,-0.0000,1.35075,0.48283,-2.09953,0.04578,1.57079,-3.01911,-0.09678,-0.44233,0.39113,,
2.1220,1,DESCENDING,-0.0000,1.35075,0.48283,-2.09951,0.04576,1.57079,-3.01911,-0.09678,-0.44233,0.39114,,
2.1391,1,DESCENDING,-0.0000,1.35075,0.48283,-2.09953,0.04578,1.57079,-3.01911,-0.09678,-0.44233,0.39113,,
2.1484,1,DESCENDING,-0.0000,1.35075,0.48283,-2.09952,0.04577,1.57079,-3.01911,-0.09678,-0.44233,0.39114,,
2.1517,1,DESCENDING,-0.0000,1.35075,0.48283,-2.09951,0.04577,1.57079,-3.01911,-0.09678,-0.44233,0.39114,,
2.1655,1,DESCENDING,-0.0000,1.35075,0.48283,-2.09952,0.04577,1.57079,-3.01911,-0.09678,-0.44233,0.39114,,
2.1742,1,DESCENDING,-0.0000,1.35075,0.48283,-2.09951,0.04576,1.57079,-3.01911,-0.09678,-0.44233,0.39115,,
2.1912,1,DESCENDING,-0.0000,1.35075,0.48283,-2.09949,0.04574,1.57079,-3.01911,-0.09678,-0.44233,0.39115,,
2.1932,1,DESCENDING,-0.0000,1.35075,0.48283,-2.09949,0.04574,1.57079,-3.01911,-0.09678,-0.44233,0.39115,,
2.2070,1,DESCENDING,-0.0000,1.35075,0.48283,-2.09950,0.04575,1.57079,-3.01911,-0.09678,-0.44233,0.39115,,
2.2131,1,DESCENDING,-0.0000,1.35075,0.48283,-2.09949,0.04574,1.57079,-3.01911,-0.09678,-0.44233,0.39115,,
2.2222,1,DESCENDING,-0.0000,1.35075,0.48283,-2.09951,0.04576,1.57079,-3.01911,-0.09678,-0.44233,0.39114,,
2.2317,1,DESCENDING,-0.0000,1.35075,0.48283,-2.09951,0.04576,1.57079,-3.01911,-0.09678,-0.44233,0.39115,,
2.2429,1,DESCENDING,-0.0000,1.35075,0.48283,-2.09949,0.04574,1.57079,-3.01911,-0.09678,-0.44233,0.39116,,
2.2520,1,DESCENDING,-0.0000,1.35075,0.48283,-2.09949,0.04574,1.57079,-3.01911,-0.09678,-0.44233,0.39115,,
2.2620,1,DESCENDING,-0.0000,1.35075,0.48283,-2.09949,0.04574,1.57079,-3.01911,-0.09678,-0.44233,0.39116,,
2.2725,1,DESCENDING,-0.0000,1.35075,0.48283,-2.09948,0.04573,1.57079,-3.01911,-0.09678,-0.44233,0.39116,,
2.2821,1,DESCENDING,-0.0000,1.35075,0.48283,-2.09948,0.04573,1.57079,-3.01911,-0.09678,-0.44233,0.39116,,
2.2964,1,DESCENDING,-0.0000,1.35075,0.48283,-2.09947,0.04572,1.57079,-3.01911,-0.09678,-0.44233,0.39116,,
2.3033,1,DESCENDING,-0.0000,1.35075,0.48283,-2.09946,0.04571,1.57079,-3.01911,-0.09678,-0.44233,0.39117,,
2.3122,1,DESCENDING,-0.0000,1.35075,0.48283,-2.09947,0.04571,1.57079,-3.01911,-0.09678,-0.44233,0.39117,,
2.3219,1,DESCENDING,-0.0000,1.35075,0.48283,-2.09948,0.04573,1.57079,-3.01911,-0.09678,-0.44233,0.39116,,
2.3316,1,DESCENDING,-0.0000,1.35075,0.48283,-2.09947,0.04572,1.57079,-3.01911,-0.09678,-0.44233,0.39117,,
2.3599,1,DESCENDING,-0.0000,1.35075,0.48283,-2.09946,0.04571,1.57079,-3.01911,-0.09678,-0.44233,0.39117,,
2.3621,1,DESCENDING,-0.0000,1.35075,0.48283,-2.09945,0.04570,1.57079,-3.01911,-0.09678,-0.44233,0.39118,,
2.3624,1,DESCENDING,-0.0000,1.35075,0.48283,-2.09945,0.04570,1.57079,-3.01911,-0.09678,-0.44233,0.39118,,
2.3719,1,DESCENDING,-0.0000,1.35075,0.48283,-2.09946,0.04571,1.57079,-3.01911,-0.09678,-0.44233,0.39117,,
2.3824,1,DESCENDING,-0.0000,1.35075,0.48283,-2.09947,0.04572,1.57079,-3.01911,-0.09678,-0.44233,0.39117,,
2.3921,1,DESCENDING,-0.0000,1.35075,0.48283,-2.09946,0.04571,1.57079,-3.01911,-0.09678,-0.44233,0.39117,,
2.4051,1,DESCENDING,-0.0000,1.35075,0.48283,-2.09948,0.04573,1.57079,-3.01911,-0.09678,-0.44233,0.39116,,
2.4141,1,DESCENDING,-0.0000,1.35075,0.48283,-2.09949,0.04574,1.57079,-3.01911,-0.09678,-0.44233,0.39116,,
2.4235,1,DESCENDING,-0.0000,1.35075,0.48283,-2.09948,0.04573,1.57079,-3.01911,-0.09678,-0.44233,0.39116,,
2.4368,1,DESCENDING,-0.0000,1.35075,0.48283,-2.09948,0.04573,1.57079,-3.01911,-0.09678,-0.44233,0.39116,,
2.4576,1,DESCENDING,-0.0000,1.35075,0.48283,-2.09946,0.04571,1.57079,-3.01911,-0.09678,-0.44233,0.39117,,
2.4582,1,DESCENDING,-0.0000,1.35075,0.48283,-2.09946,0.04571,1.57079,-3.01911,-0.09678,-0.44233,0.39117,,
2.4622,1,DESCENDING,-0.0000,1.35075,0.48283,-2.09947,0.04572,1.57079,-3.01911,-0.09678,-0.44233,0.39116,,
2.4741,1,DESCENDING,-0.0000,1.35075,0.48283,-2.09947,0.04572,1.57079,-3.01911,-0.09678,-0.44233,0.39117,,
2.4827,1,DESCENDING,-0.0000,1.35075,0.48283,-2.09946,0.04571,1.57079,-3.01911,-0.09678,-0.44233,0.39117,,
2.4941,1,DESCENDING,-0.0000,1.35075,0.48283,-2.09948,0.04573,1.57079,-3.01911,-0.09678,-0.44233,0.39116,,
2.5042,1,DESCENDING,-0.0000,1.35075,0.48283,-2.09948,0.04572,1.57079,-3.01911,-0.09678,-0.44233,0.39116,,
2.5142,1,DESCENDING,-0.0000,1.35075,0.48283,-2.09947,0.04572,1.57079,-3.01911,-0.09678,-0.44233,0.39117,,
2.5225,1,DESCENDING,-0.0000,1.35075,0.48283,-2.09947,0.04572,1.57079,-3.01911,-0.09678,-0.44233,0.39117,,
2.5320,1,DESCENDING,-0.0000,1.35075,0.48283,-2.09947,0.04572,1.57079,-3.01911,-0.09678,-0.44233,0.39117,,
2.5532,1,DESCENDING,-0.0000,1.35075,0.48283,-2.09946,0.04571,1.57079,-3.01911,-0.09678,-0.44233,0.39117,,
2.5583,1,DESCENDING,-0.0000,1.35075,0.48283,-2.09946,0.04571,1.57079,-3.01911,-0.09678,-0.44233,0.39117,,
2.5623,1,DESCENDING,-0.0000,1.35075,0.48283,-2.09946,0.04570,1.57079,-3.01911,-0.09678,-0.44233,0.39117,,
2.5760,1,DESCENDING,-0.0000,1.35075,0.48283,-2.09945,0.04570,1.57079,-3.01911,-0.09678,-0.44233,0.39118,,
2.5828,1,DESCENDING,-0.0000,1.35075,0.48283,-2.09945,0.04570,1.57079,-3.01911,-0.09678,-0.44233,0.39118,,
2.6010,1,DESCENDING,-0.0000,1.35075,0.48283,-2.09944,0.04569,1.57079,-3.01911,-0.09678,-0.44233,0.39118,,
2.6023,1,DESCENDING,-0.0000,1.35075,0.48284,-2.09944,0.04569,1.57079,-3.01911,-0.09678,-0.44233,0.39118,,
2.6142,1,DESCENDING,-0.0000,1.35075,0.48283,-2.09944,0.04569,1.57079,-3.01911,-0.09678,-0.44233,0.39118,,
2.6223,1,DESCENDING,-0.0000,1.35075,0.48284,-2.09944,0.04569,1.57079,-3.01911,-0.09678,-0.44233,0.39118,,
2.6313,1,DESCENDING,-0.0000,1.35075,0.48284,-2.09944,0.04568,1.57079,-3.01911,-0.09678,-0.44233,0.39119,,
2.6431,1,DESCENDING,-0.0000,1.35075,0.48284,-2.09944,0.04568,1.57079,-3.01911,-0.09678,-0.44233,0.39119,,
2.6531,1,DESCENDING,-0.0000,1.35075,0.48284,-2.09944,0.04568,1.57079,-3.01911,-0.09678,-0.44233,0.39119,,
2.6620,1,DESCENDING,-0.0000,1.35075,0.48284,-2.09943,0.04568,1.57079,-3.01911,-0.09678,-0.44233,0.39119,,
2.6715,1,DESCENDING,-0.0000,1.35075,0.48284,-2.09943,0.04568,1.57079,-3.01911,-0.09678,-0.44233,0.39119,,
2.6821,1,DESCENDING,-0.0000,1.35075,0.48283,-2.09944,0.04569,1.57079,-3.01911,-0.09678,-0.44233,0.39118,,
2.6924,1,DESCENDING,-0.0000,1.35075,0.48284,-2.09944,0.04569,1.57079,-3.01911,-0.09678,-0.44233,0.39118,,
2.7047,1,DESCENDING,-0.0000,1.35075,0.48284,-2.09944,0.04569,1.57079,-3.01911,-0.09678,-0.44233,0.39118,,
2.7138,1,DESCENDING,-0.0000,1.35075,0.48284,-2.09944,0.04569,1.57079,-3.01911,-0.09678,-0.44233,0.39118,,
2.7238,1,DESCENDING,-0.0000,1.35075,0.48284,-2.09943,0.04568,1.57079,-3.01911,-0.09678,-0.44233,0.39119,,
2.7324,1,DESCENDING,-0.0000,1.35075,0.48284,-2.09944,0.04569,1.57079,-3.01911,-0.09678,-0.44233,0.39119,,
2.7409,1,DESCENDING,-0.0000,1.35075,0.48284,-2.09944,0.04569,1.57079,-3.01911,-0.09678,-0.44233,0.39119,,
2.7581,1,DESCENDING,-0.0000,1.35075,0.48284,-2.09943,0.04568,1.57079,-3.01911,-0.09678,-0.44233,0.39119,,
2.7630,1,DESCENDING,-0.0000,1.35075,0.48284,-2.09943,0.04568,1.57079,-3.01911,-0.09678,-0.44233,0.39119,,
2.7734,1,DESCENDING,-0.0000,1.35075,0.48284,-2.09944,0.04569,1.57079,-3.01911,-0.09678,-0.44233,0.39118,,
2.7878,1,DESCENDING,-0.0000,1.35075,0.48284,-2.09944,0.04569,1.57079,-3.01911,-0.09678,-0.44233,0.39118,,
2.8000,1,DESCENDING,-0.0000,1.35075,0.48284,-2.09944,0.04569,1.57079,-3.01911,-0.09678,-0.44233,0.39118,,
2.8017,1,DESCENDING,-0.0000,1.35075,0.48284,-2.09944,0.04569,1.57079,-3.01911,-0.09678,-0.44233,0.39118,,
2.8151,1,DESCENDING,-0.0000,1.35075,0.48284,-2.09943,0.04568,1.57079,-3.01911,-0.09678,-0.44233,0.39119,,
2.8232,1,DESCENDING,-0.0000,1.35075,0.48284,-2.09944,0.04568,1.57079,-3.01911,-0.09678,-0.44233,0.39119,,
2.8313,1,DESCENDING,-0.0000,1.35075,0.48284,-2.09944,0.04568,1.57079,-3.01911,-0.09678,-0.44233,0.39119,,
2.8414,1,DESCENDING,-0.0000,1.35075,0.48284,-2.09943,0.04568,1.57079,-3.01911,-0.09678,-0.44233,0.39119,,
2.8633,1,DESCENDING,-0.0000,1.35075,0.48284,-2.09943,0.04567,1.57079,-3.01911,-0.09678,-0.44233,0.39119,,
2.8638,1,DESCENDING,-0.0000,1.35075,0.48284,-2.09943,0.04567,1.57079,-3.01911,-0.09678,-0.44233,0.39119,,
2.8775,1,DESCENDING,-0.0000,1.35075,0.48284,-2.09942,0.04567,1.57079,-3.01911,-0.09678,-0.44233,0.39119,,
2.8847,1,DESCENDING,-0.0000,1.35075,0.48284,-2.09942,0.04567,1.57079,-3.01911,-0.09678,-0.44233,0.39119,,
2.8935,1,DESCENDING,-0.0000,1.35075,0.48284,-2.09942,0.04567,1.57079,-3.01911,-0.09678,-0.44233,0.39119,,
2.9032,1,DESCENDING,-0.0000,1.35075,0.48284,-2.09942,0.04567,1.57079,-3.01911,-0.09678,-0.44233,0.39119,,
2.9192,1,DESCENDING,-0.0000,1.35075,0.48284,-2.09942,0.04567,1.57079,-3.01911,-0.09678,-0.44233,0.39119,,
2.9270,1,DESCENDING,-0.0000,1.35075,0.48284,-2.09942,0.04567,1.57079,-3.01911,-0.09678,-0.44233,0.39119,,
2.9311,1,DESCENDING,-0.0000,1.35075,0.48284,-2.09942,0.04567,1.57079,-3.01911,-0.09678,-0.44233,0.39119,,
3.0227,1,DESCENDING,-0.0000,1.35075,0.48283,-2.09953,0.04579,1.57079,-3.01911,-0.09678,-0.44233,0.39113,,
3.0485,1,DESCENDING,-0.0000,1.35075,0.48283,-2.09952,0.04578,1.57079,-3.01911,-0.09678,-0.44233,0.39114,,
3.0614,1,DESCENDING,-0.0000,1.35075,0.48283,-2.09950,0.04575,1.57079,-3.01911,-0.09678,-0.44233,0.39115,,
3.2982,1,DESCENDING,-0.0000,1.35075,0.48283,-2.09950,0.04575,1.57079,-3.01911,-0.09678,-0.44233,0.39115,,
3.3037,1,DESCENDING,-0.0000,1.35075,0.48283,-2.09950,0.04575,1.57079,-3.01911,-0.09678,-0.44233,0.39115,,
3.3060,1,DESCENDING,-0.0000,1.35075,0.48283,-2.09950,0.04575,1.57079,-3.01911,-0.09678,-0.44233,0.39115,,
3.3119,1,DESCENDING,-0.0000,1.35075,0.48283,-2.09949,0.04575,1.57079,-3.01911,-0.09678,-0.44233,0.39115,,
3.3126,1,DESCENDING,-0.0000,1.35075,0.48283,-2.09949,0.04575,1.57079,-3.01911,-0.09678,-0.44233,0.39115,,
3.3132,1,DESCENDING,-0.0000,1.35075,0.48283,-2.09949,0.04575,1.57079,-3.01911,-0.09678,-0.44233,0.39115,,
3.3203,1,DESCENDING,-0.0000,1.35075,0.48283,-2.09948,0.04573,1.57079,-3.01911,-0.09678,-0.44233,0.39116,,
3.3237,1,DESCENDING,-0.0000,1.35075,0.48283,-2.09947,0.04572,1.57079,-3.01911,-0.09678,-0.44233,0.39116,,
3.3381,1,DESCENDING,-0.0000,1.35075,0.48283,-2.09947,0.04572,1.57079,-3.01911,-0.09678,-0.44233,0.39117,,
3.3428,1,DESCENDING,-0.0000,1.35075,0.48283,-2.09947,0.04572,1.57079,-3.01911,-0.09678,-0.44233,0.39117,,
3.3474,1,DESCENDING,-0.0000,1.35075,0.48283,-2.09947,0.04572,1.57079,-3.01911,-0.09678,-0.44233,0.39117,,
3.3477,1,DESCENDING,-0.0000,1.35075,0.48283,-2.09947,0.04572,1.57079,-3.01911,-0.09678,-0.44233,0.39117,,
3.3525,1,DESCENDING,-0.0000,1.35075,0.48283,-2.09946,0.04571,1.57079,-3.01911,-0.09678,-0.44233,0.39117,,
3.3530,1,DESCENDING,-0.0000,1.35075,0.48283,-2.09946,0.04571,1.57079,-3.01911,-0.09678,-0.44233,0.39117,,
3.3579,1,DESCENDING,-0.0000,1.35075,0.48283,-2.09946,0.04571,1.57079,-3.01911,-0.09678,-0.44233,0.39117,,
3.3583,1,DESCENDING,-0.0000,1.35075,0.48283,-2.09946,0.04571,1.57079,-3.01911,-0.09678,-0.44233,0.39117,,
3.3607,1,DESCENDING,-0.0000,1.35075,0.48283,-2.09946,0.04571,1.57079,-3.01911,-0.09678,-0.44233,0.39117,,
3.3617,1,DESCENDING,-0.0000,1.35075,0.48283,-2.09946,0.04571,1.57079,-3.01911,-0.09678,-0.44233,0.39117,,
3.3769,1,DESCENDING,-0.0000,1.35075,0.48283,-2.09947,0.04572,1.57079,-3.01911,-0.09678,-0.44233,0.39117,,
3.3774,1,DESCENDING,-0.0000,1.35075,0.48283,-2.09947,0.04572,1.57079,-3.01911,-0.09678,-0.44233,0.39117,,
3.3781,1,DESCENDING,-0.0000,1.35075,0.48283,-2.09947,0.04572,1.57079,-3.01911,-0.09678,-0.44233,0.39117,,
3.3784,1,DESCENDING,-0.0000,1.35075,0.48283,-2.09947,0.04572,1.57079,-3.01911,-0.09678,-0.44233,0.39117,,
3.3825,1,DESCENDING,-0.0000,1.35075,0.48283,-2.09946,0.04571,1.57079,-3.01911,-0.09678,-0.44233,0.39117,,
3.3851,1,DESCENDING,-0.0000,1.35075,0.48283,-2.09946,0.04571,1.57079,-3.01911,-0.09678,-0.44233,0.39117,,
3.3878,1,DESCENDING,-0.0000,1.35075,0.48283,-2.09946,0.04571,1.57079,-3.01911,-0.09678,-0.44233,0.39117,,
3.3883,1,DESCENDING,-0.0000,1.35075,0.48283,-2.09946,0.04571,1.57079,-3.01911,-0.09678,-0.44233,0.39117,,
3.3886,1,DESCENDING,-0.0000,1.35075,0.48283,-2.09946,0.04571,1.57079,-3.01911,-0.09678,-0.44233,0.39117,,
3.3947,1,DESCENDING,-0.0000,1.35075,0.48283,-2.09946,0.04571,1.57079,-3.01911,-0.09678,-0.44233,0.39117,,
3.3982,1,DESCENDING,-0.0000,1.35075,0.48283,-2.09946,0.04571,1.57079,-3.01911,-0.09678,-0.44233,0.39117,,
3.4031,1,DESCENDING,-0.0000,1.35075,0.48283,-2.09945,0.04570,1.57079,-3.01911,-0.09678,-0.44233,0.39118,,
3.4165,1,DESCENDING,-0.0000,1.35075,0.48284,-2.09944,0.04569,1.57079,-3.01911,-0.09678,-0.44233,0.39118,,
3.4220,1,DESCENDING,-0.0000,1.35075,0.48284,-2.09944,0.04569,1.57079,-3.01911,-0.09678,-0.44233,0.39118,,
3.4375,1,DESCENDING,-0.0000,1.35075,0.48284,-2.09944,0.04569,1.57079,-3.01911,-0.09678,-0.44233,0.39118,,
3.4433,1,DESCENDING,-0.0000,1.35075,0.48284,-2.09944,0.04568,1.57079,-3.01911,-0.09678,-0.44233,0.39119,,
3.4517,1,DESCENDING,-0.0000,1.35075,0.48284,-2.09943,0.04568,1.57079,-3.01911,-0.09678,-0.44233,0.39119,,
3.4620,1,DESCENDING,-0.0000,1.35075,0.48284,-2.09944,0.04568,1.57079,-3.01911,-0.09678,-0.44233,0.39119,,
3.4717,1,DESCENDING,-0.0000,1.35075,0.48284,-2.09943,0.04568,1.57079,-3.01911,-0.09678,-0.44233,0.39119,,
3.4819,1,DESCENDING,-0.0000,1.35075,0.48284,-2.09943,0.04568,1.57079,-3.01911,-0.09678,-0.44233,0.39119,,
3.4926,1,DESCENDING,-0.0000,1.35075,0.48284,-2.09943,0.04568,1.57079,-3.01911,-0.09678,-0.44233,0.39119,,
3.5050,1,DESCENDING,-0.0000,1.35075,0.48284,-2.09943,0.04568,1.57079,-3.01911,-0.09678,-0.44233,0.39119,,
3.5147,1,DESCENDING,-0.0000,1.35075,0.48284,-2.09943,0.04567,1.57079,-3.01911,-0.09678,-0.44233,0.39119,,
3.5251,1,DESCENDING,-0.0000,1.35075,0.48284,-2.09943,0.04567,1.57079,-3.01911,-0.09678,-0.44233,0.39119,,
3.5346,1,DESCENDING,-0.0000,1.35075,0.48284,-2.09942,0.04567,1.57079,-3.01911,-0.09678,-0.44233,0.39119,,
3.5424,1,DESCENDING,-0.0000,1.35075,0.48284,-2.09942,0.04567,1.57079,-3.01911,-0.09678,-0.44233,0.39119,,
3.5522,1,DESCENDING,-0.0000,1.35075,0.48284,-2.09942,0.04567,1.57079,-3.01911,-0.09678,-0.44233,0.39119,,
3.5646,1,DESCENDING,-0.0000,1.35075,0.48284,-2.09942,0.04567,1.57079,-3.01911,-0.09678,-0.44233,0.39120,,
3.5763,1,DESCENDING,-0.0000,1.35075,0.48284,-2.09942,0.04567,1.57079,-3.01911,-0.09678,-0.44233,0.39119,,
3.5833,1,DESCENDING,-0.0000,1.35075,0.48284,-2.09942,0.04567,1.57079,-3.01911,-0.09678,-0.44233,0.39119,,
3.5917,1,DESCENDING,-0.0000,1.35075,0.48284,-2.09942,0.04567,1.57079,-3.01911,-0.09678,-0.44233,0.39120,,
3.6019,1,DESCENDING,-0.0000,1.35075,0.48284,-2.09942,0.04567,1.57079,-3.01911,-0.09678,-0.44233,0.39119,,
3.6118,1,DESCENDING,-0.0000,1.35075,0.48284,-2.09942,0.04567,1.57079,-3.01911,-0.09678,-0.44233,0.39119,,
3.6306,1,DESCENDING,-0.0000,1.35075,0.48284,-2.09942,0.04566,1.57079,-3.01911,-0.09678,-0.44233,0.39120,,
3.6380,1,DESCENDING,-0.0000,1.35075,0.48284,-2.09942,0.04566,1.57079,-3.01911,-0.09678,-0.44233,0.39120,,
3.6423,1,DESCENDING,-0.0000,1.35075,0.48284,-2.09942,0.04566,1.57079,-3.01911,-0.09678,-0.44233,0.39120,,
3.6545,1,DESCENDING,-0.0000,1.35075,0.48284,-2.09941,0.04566,1.57079,-3.01911,-0.09678,-0.44233,0.39120,,
3.6623,1,DESCENDING,-0.0000,1.35075,0.48284,-2.09941,0.04566,1.57079,-3.01911,-0.09678,-0.44233,0.39120,,
3.6981,1,DESCENDING,-0.0000,1.35075,0.48284,-2.09941,0.04566,1.57079,-3.01911,-0.09678,-0.44233,0.39120,,
3.7064,1,DESCENDING,-0.0000,1.35075,0.48284,-2.09941,0.04566,1.57079,-3.01911,-0.09678,-0.44233,0.39120,,
3.7067,1,DESCENDING,-0.0000,1.35075,0.48284,-2.09941,0.04566,1.57079,-3.01911,-0.09678,-0.44233,0.39120,,
3.7153,1,DESCENDING,-0.0000,1.35075,0.48284,-2.09941,0.04565,1.57079,-3.01911,-0.09678,-0.44233,0.39120,,
3.7224,1,DESCENDING,-0.0000,1.35075,0.48284,-2.09941,0.04565,1.57079,-3.01911,-0.09678,-0.44233,0.39120,,
3.7364,1,DESCENDING,-0.0000,1.35075,0.48284,-2.09941,0.04565,1.57079,-3.01911,-0.09678,-0.44233,0.39120,,
3.7446,1,DESCENDING,-0.0000,1.35075,0.48284,-2.09941,0.04565,1.57079,-3.01911,-0.09678,-0.44233,0.39120,,
3.7520,1,DESCENDING,-0.0000,1.35075,0.48284,-2.09941,0.04565,1.57079,-3.01911,-0.09678,-0.44233,0.39120,,
3.7620,1,DESCENDING,-0.0000,1.35075,0.48284,-2.09941,0.04565,1.57079,-3.01911,-0.09678,-0.44233,0.39120,,
3.7878,1,DESCENDING,-0.0000,1.35075,0.48284,-2.09941,0.04565,1.57079,-3.01911,-0.09678,-0.44233,0.39120,,
3.7888,1,DESCENDING,-0.0000,1.35075,0.48284,-2.09941,0.04565,1.57079,-3.01911,-0.09678,-0.44233,0.39120,,
3.7958,1,DESCENDING,-0.0000,1.35075,0.48284,-2.09941,0.04565,1.57079,-3.01911,-0.09678,-0.44233,0.39120,,
3.8046,1,DESCENDING,-0.0000,1.35075,0.48284,-2.09941,0.04565,1.57079,-3.01911,-0.09678,-0.44233,0.39120,,
3.8129,1,DESCENDING,-0.0000,1.35075,0.48284,-2.09941,0.04565,1.57079,-3.01911,-0.09678,-0.44233,0.39120,,
3.8245,1,DESCENDING,-0.0000,1.35075,0.48284,-2.09941,0.04565,1.57079,-3.01911,-0.09678,-0.44233,0.39120,,
3.8352,1,DESCENDING,-0.0000,1.35075,0.48284,-2.09940,0.04565,1.57079,-3.01911,-0.09678,-0.44233,0.39120,,
3.8468,1,DESCENDING,-0.0000,1.35075,0.48284,-2.09940,0.04565,1.57079,-3.01911,-0.09678,-0.44233,0.39120,,
3.8541,1,DESCENDING,-0.0000,1.35075,0.48284,-2.09940,0.04565,1.57079,-3.01911,-0.09678,-0.44233,0.39120,,
3.8633,1,DESCENDING,-0.0000,1.35075,0.48284,-2.09940,0.04565,1.57079,-3.01911,-0.09678,-0.44233,0.39120,,
3.8965,1,DESCENDING,-0.0000,1.35075,0.48284,-2.09940,0.04565,1.57079,-3.01911,-0.09678,-0.44233,0.39120,,
3.9069,1,DESCENDING,-0.0000,1.35075,0.48284,-2.09941,0.04565,1.57079,-3.01911,-0.09678,-0.44233,0.39120,,
3.9117,1,DESCENDING,-0.0000,1.35075,0.48284,-2.09942,0.04566,1.57079,-3.01911,-0.09678,-0.44233,0.39120,,
3.9220,1,DESCENDING,-0.0000,1.35075,0.48283,-2.09947,0.04571,1.57079,-3.01911,-0.09678,-0.44233,0.39117,,
3.9478,1,DESCENDING,-0.0000,1.35075,0.48283,-2.09952,0.04577,1.57079,-3.01911,-0.09678,-0.44233,0.39114,,
3.9534,1,DESCENDING,-0.0000,1.35075,0.48283,-2.09953,0.04578,1.57079,-3.01911,-0.09678,-0.44233,0.39113,,
3.9620,1,DESCENDING,-0.0000,1.35075,0.48283,-2.09956,0.04582,1.57079,-3.01911,-0.09678,-0.44233,0.39111,,
3.9829,1,DESCENDING,-0.0000,1.35075,0.48283,-2.09956,0.04581,1.57079,-3.01911,-0.09678,-0.44233,0.39111,,
3.9857,1,DESCENDING,-0.0000,1.35075,0.48283,-2.09956,0.04581,1.57079,-3.01911,-0.09678,-0.44233,0.39111,,
4.0041,1,DESCENDING,-0.0000,1.35075,0.48283,-2.09954,0.04579,1.57079,-3.01911,-0.09678,-0.44233,0.39113,,
4.0161,1,DESCENDING,-0.0000,1.35075,0.48283,-2.09950,0.04575,1.57079,-3.01911,-0.09678,-0.44233,0.39115,,
4.0171,1,DESCENDING,-0.0000,1.35075,0.48283,-2.09950,0.04575,1.57079,-3.01911,-0.09678,-0.44233,0.39115,,
4.0403,1,DESCENDING,-0.0000,1.35075,0.48283,-2.09947,0.04572,1.57079,-3.01911,-0.09678,-0.44233,0.39117,,
4.0499,1,DESCENDING,-0.0000,1.35075,0.48283,-2.09946,0.04571,1.57079,-3.01911,-0.09678,-0.44233,0.39117,,
4.0829,1,DESCENDING,-0.0000,1.35075,0.48284,-2.09943,0.04568,1.57079,-3.01912,-0.09678,-0.44233,0.39119,,
4.1074,1,DESCENDING,-0.0000,1.35075,0.48284,-2.09942,0.04567,1.57079,-3.01912,-0.09678,-0.44233,0.39119,,
4.1080,1,DESCENDING,-0.0000,1.35075,0.48284,-2.09942,0.04567,1.57079,-3.01912,-0.09678,-0.44233,0.39119,,
4.1174,1,DESCENDING,-0.0000,1.35075,0.48284,-2.09942,0.04567,1.57079,-3.01912,-0.09678,-0.44233,0.39119,,
4.1248,1,DESCENDING,-0.0000,1.35075,0.48284,-2.09942,0.04567,1.57079,-3.01911,-0.09678,-0.44233,0.39119,,
4.1399,1,DESCENDING,-0.0000,1.35075,0.48284,-2.09942,0.04566,1.57079,-3.01911,-0.09678,-0.44233,0.39120,,
4.1580,1,DESCENDING,-0.0000,1.35075,0.48284,-2.09942,0.04566,1.57079,-3.01911,-0.09678,-0.44233,0.39120,,
4.1751,1,DESCENDING,-0.0000,1.35075,0.48284,-2.09942,0.04566,1.57079,-3.01911,-0.09678,-0.44233,0.39120,,
4.1870,1,DESCENDING,-0.0000,1.35075,0.48284,-2.09943,0.04567,1.57079,-3.01911,-0.09678,-0.44233,0.39119,,
4.2078,1,DESCENDING,-0.0000,1.35075,0.48284,-2.09943,0.04567,1.57079,-3.01911,-0.09678,-0.44233,0.39119,,
4.2259,1,DESCENDING,-0.0000,1.35075,0.48284,-2.09942,0.04567,1.57079,-3.01911,-0.09678,-0.44233,0.39119,,
4.2696,1,DESCENDING,-0.0000,1.35075,0.48284,-2.09942,0.04567,1.57079,-3.01911,-0.09678,-0.44233,0.39120,,
4.2818,1,DESCENDING,-0.0000,1.35075,0.48284,-2.09943,0.04568,1.57079,-3.01911,-0.09678,-0.44233,0.39119,,
4.4187,1,DESCENDING,-0.0000,1.35075,0.48284,-2.09943,0.04568,1.57079,-3.01911,-0.09678,-0.44233,0.39119,,
4.4509,1,DESCENDING,-0.0000,1.35075,0.48283,-2.09952,0.04578,1.57079,-3.01911,-0.09678,-0.44233,0.39113,,
4.4572,1,DESCENDING,-0.0000,1.35075,0.48283,-2.09954,0.04579,1.57079,-3.01911,-0.09678,-0.44233,0.39113,,
4.4619,1,DESCENDING,-0.0000,1.35075,0.48283,-2.09954,0.04579,1.57079,-3.01911,-0.09678,-0.44233,0.39113,,
4.4663,1,DESCENDING,-0.0000,1.35075,0.48283,-2.09953,0.04579,1.57079,-3.01911,-0.09678,-0.44233,0.39113,,
4.4721,1,DESCENDING,-0.0000,1.35075,0.48283,-2.09953,0.04578,1.57079,-3.01911,-0.09678,-0.44233,0.39113,,
4.4761,1,DESCENDING,-0.0000,1.35075,0.48283,-2.09953,0.04579,1.57079,-3.01911,-0.09678,-0.44233,0.39113,,
4.4797,1,DESCENDING,-0.0000,1.35075,0.48283,-2.09954,0.04580,1.57079,-3.01911,-0.09678,-0.44233,0.39112,,
4.4928,1,DESCENDING,-0.0000,1.35075,0.48283,-2.09959,0.04585,1.57079,-3.01911,-0.09678,-0.44233,0.39109,,
4.5281,1,DESCENDING,-0.0000,1.35075,0.48283,-2.09959,0.04585,1.57079,-3.01911,-0.09678,-0.44233,0.39110,,
4.5423,1,DESCENDING,-0.0000,1.35075,0.48283,-2.09959,0.04585,1.57079,-3.01911,-0.09678,-0.44233,0.39110,,
4.5761,1,DESCENDING,-0.0000,1.35075,0.48283,-2.09956,0.04581,1.57079,-3.01911,-0.09678,-0.44233,0.39111,,
4.5886,1,DESCENDING,-0.0000,1.35075,0.48283,-2.09958,0.04583,1.57079,-3.01911,-0.09678,-0.44233,0.39110,,
4.5889,1,DESCENDING,-0.0000,1.35075,0.48283,-2.09958,0.04583,1.57079,-3.01911,-0.09678,-0.44233,0.39110,,
4.6065,1,DESCENDING,-0.0000,1.35075,0.48283,-2.09960,0.04586,1.57079,-3.01911,-0.09678,-0.44233,0.39109,,
4.6072,1,DESCENDING,-0.0000,1.35075,0.48283,-2.09962,0.04588,1.57079,-3.01911,-0.09678,-0.44233,0.39108,,
4.6087,1,DESCENDING,-0.0000,1.35075,0.48283,-2.09962,0.04588,1.57079,-3.01911,-0.09678,-0.44233,0.39108,,
4.6092,1,DESCENDING,-0.0000,1.35075,0.48283,-2.09962,0.04588,1.57079,-3.01911,-0.09678,-0.44233,0.39108,,
4.6121,1,DESCENDING,-0.0000,1.35075,0.48283,-2.09964,0.04590,1.57079,-3.01911,-0.09678,-0.44233,0.39107,,
4.6150,1,DESCENDING,-0.0000,1.35075,0.48282,-2.09966,0.04592,1.57079,-3.01911,-0.09678,-0.44233,0.39106,,
4.6159,1,DESCENDING,-0.0000,1.35075,0.48282,-2.09966,0.04592,1.57079,-3.01911,-0.09678,-0.44233,0.39106,,
4.6172,1,DESCENDING,-0.0000,1.35075,0.48282,-2.09966,0.04592,1.57079,-3.01911,-0.09678,-0.44233,0.39106,,
4.6232,1,DESCENDING,-0.0000,1.35075,0.48282,-2.09967,0.04593,1.57079,-3.01911,-0.09678,-0.44233,0.39105,,
4.6235,1,DESCENDING,-0.0000,1.35075,0.48282,-2.09967,0.04593,1.57079,-3.01911,-0.09678,-0.44233,0.39105,,
4.6278,1,DESCENDING,-0.0000,1.35075,0.48282,-2.09968,0.04594,1.57079,-3.01911,-0.09678,-0.44233,0.39105,,
4.6282,1,DESCENDING,-0.0000,1.35075,0.48282,-2.09968,0.04594,1.57079,-3.01911,-0.09678,-0.44233,0.39105,,
4.6319,1,DESCENDING,-0.0000,1.35075,0.48282,-2.09968,0.04594,1.57079,-3.01911,-0.09678,-0.44233,0.39104,,
4.6453,1,DESCENDING,-0.0000,1.35075,0.48282,-2.09972,0.04599,1.57079,-3.01911,-0.09678,-0.44233,0.39102,,
4.6655,1,DESCENDING,-0.0000,1.35075,0.48282,-2.09974,0.04600,1.57079,-3.01911,-0.09678,-0.44233,0.39101,,
4.6663,1,DESCENDING,-0.0000,1.35075,0.48282,-2.09974,0.04600,1.57079,-3.01911,-0.09678,-0.44233,0.39101,,
4.6727,1,DESCENDING,-0.0000,1.35075,0.48282,-2.09969,0.04595,1.57079,-3.01911,-0.09678,-0.44233,0.39104,,
4.6823,1,DESCENDING,-0.0000,1.35075,0.48283,-2.09963,0.04589,1.57079,-3.01911,-0.09678,-0.44233,0.39107,,
4.7189,1,DESCENDING,-0.0000,1.35075,0.48283,-2.09955,0.04580,1.57079,-3.01911,-0.09678,-0.44233,0.39112,,
4.7276,1,DESCENDING,-0.0000,1.35075,0.48283,-2.09954,0.04579,1.57079,-3.01911,-0.09678,-0.44233,0.39113,,
4.7281,1,DESCENDING,-0.0000,1.35075,0.48283,-2.09954,0.04579,1.57079,-3.01911,-0.09678,-0.44233,0.39113,,
4.7344,1,DESCENDING,-0.0000,1.35075,0.48283,-2.09952,0.04578,1.57079,-3.01911,-0.09678,-0.44233,0.39113,,
4.7569,1,DESCENDING,-0.0000,1.35075,0.48283,-2.09949,0.04574,1.57079,-3.01911,-0.09678,-0.44233,0.39116,,
4.7674,1,DESCENDING,-0.0000,1.35075,0.48283,-2.09947,0.04571,1.57079,-3.01911,-0.09678,-0.44233,0.39117,,
4.7736,1,DESCENDING,-0.0000,1.35075,0.48283,-2.09946,0.04571,1.57079,-3.01911,-0.09678,-0.44233,0.39117,,
4.7836,1,DESCENDING,-0.0000,1.35075,0.48283,-2.09945,0.04570,1.57079,-3.01911,-0.09678,-0.44233,0.39118,,
4.7915,1,DESCENDING,-0.0000,1.35075,0.48283,-2.09945,0.04570,1.57079,-3.01911,-0.09678,-0.44233,0.39118,,
4.8024,1,DESCENDING,-0.0000,1.35075,0.48284,-2.09944,0.04569,1.57079,-3.01911,-0.09678,-0.44233,0.39118,,
4.8124,1,DESCENDING,-0.0000,1.35075,0.48283,-2.09946,0.04570,1.57079,-3.01911,-0.09678,-0.44233,0.39117,,
4.8295,1,DESCENDING,-0.0000,1.35075,0.48283,-2.09952,0.04577,1.57079,-3.01911,-0.09678,-0.44233,0.39114,,
4.8318,1,DESCENDING,-0.0000,1.35075,0.48283,-2.09954,0.04579,1.57079,-3.01911,-0.09678,-0.44233,0.39113,,
4.8431,1,DESCENDING,-0.0000,1.35075,0.48283,-2.09953,0.04578,1.57079,-3.01911,-0.09678,-0.44233,0.39113,,
4.8566,1,DESCENDING,-0.0000,1.35075,0.48283,-2.09950,0.04575,1.57079,-3.01911,-0.09678,-0.44233,0.39115,,
4.8662,1,DESCENDING,-0.0000,1.35075,0.48283,-2.09949,0.04574,1.57079,-3.01911,-0.09678,-0.44233,0.39115,,
4.8739,1,DESCENDING,-0.0000,1.35075,0.48283,-2.09949,0.04574,1.57079,-3.01911,-0.09678,-0.44233,0.39115,,
4.9255,1,DESCENDING,-0.0000,1.35075,0.48283,-2.09955,0.04581,1.57079,-3.01911,-0.09678,-0.44233,0.39112,,
4.9335,1,DESCENDING,-0.0000,1.35075,0.48283,-2.09955,0.04581,1.57079,-3.01911,-0.09678,-0.44233,0.39112,,
4.9342,1,DESCENDING,-0.0000,1.35075,0.48283,-2.09955,0.04581,1.57079,-3.01911,-0.09678,-0.44233,0.39112,,
4.9380,1,DESCENDING,-0.0000,1.35075,0.48283,-2.09955,0.04581,1.57079,-3.01911,-0.09678,-0.44233,0.39112,,
4.9453,1,DESCENDING,-0.0000,1.35075,0.48283,-2.09954,0.04580,1.57079,-3.01911,-0.09678,-0.44233,0.39112,,
4.9456,1,DESCENDING,-0.0000,1.35075,0.48283,-2.09954,0.04580,1.57079,-3.01911,-0.09678,-0.44233,0.39112,,
4.9522,1,DESCENDING,-0.0000,1.35075,0.48283,-2.09953,0.04578,1.57079,-3.01911,-0.09678,-0.44233,0.39113,,
4.9831,1,DESCENDING,-0.0000,1.35075,0.48283,-2.09949,0.04574,1.57079,-3.01911,-0.09678,-0.44233,0.39115,,
4.9915,1,DESCENDING,-0.0000,1.35075,0.48283,-2.09951,0.04576,1.57079,-3.01911,-0.09678,-0.44233,0.39114,,
5.0154,1,DESCENDING,-0.0000,1.35075,0.48283,-2.09958,0.04584,1.57079,-3.01911,-0.09678,-0.44233,0.39110,,
5.0157,1,DESCENDING,-0.0000,1.35075,0.48283,-2.09958,0.04584,1.57079,-3.01911,-0.09678,-0.44233,0.39110,,
5.0228,1,DESCENDING,-0.0000,1.35075,0.48283,-2.09959,0.04585,1.57079,-3.01911,-0.09678,-0.44233,0.39110,,
5.0373,1,DESCENDING,-0.0000,1.35075,0.48283,-2.09963,0.04589,1.57079,-3.01911,-0.09678,-0.44233,0.39107,,
5.0431,1,DESCENDING,-0.0000,1.35075,0.48282,-2.09964,0.04590,1.57079,-3.01911,-0.09678,-0.44233,0.39107,,
5.0859,1,DESCENDING,-0.0000,1.35075,0.48283,-2.09960,0.04586,1.57079,-3.01911,-0.09678,-0.44233,0.39109,,
5.0865,1,DESCENDING,-0.0000,1.35075,0.48283,-2.09960,0.04586,1.57079,-3.01911,-0.09678,-0.44233,0.39109,,
5.1399,1,DESCENDING,-0.0000,1.35075,0.48282,-2.09969,0.04595,1.57079,-3.01911,-0.09678,-0.44233,0.39104,,
5.1454,1,DESCENDING,-0.0000,1.35075,0.48282,-2.09970,0.04596,1.57079,-3.01911,-0.09678,-0.44233,0.39103,,
5.1457,1,DESCENDING,-0.0000,1.35075,0.48282,-2.09970,0.04596,1.57079,-3.01911,-0.09678,-0.44233,0.39103,,
5.1562,1,DESCENDING,-0.0000,1.35075,0.48282,-2.09975,0.04601,1.57079,-3.01911,-0.09678,-0.44233,0.39101,,
5.1618,1,DESCENDING,-0.0000,1.35075,0.48282,-2.09976,0.04603,1.57079,-3.01911,-0.09678,-0.44233,0.39099,,
5.1764,1,DESCENDING,-0.0000,1.35075,0.48282,-2.09978,0.04605,1.57079,-3.01911,-0.09678,-0.44233,0.39098,,
5.1829,1,DESCENDING,-0.0000,1.35075,0.48282,-2.09981,0.04608,1.57079,-3.01911,-0.09678,-0.44233,0.39097,,
5.1931,1,DESCENDING,-0.0000,1.35075,0.48281,-2.09984,0.04611,1.57079,-3.01911,-0.09678,-0.44233,0.39095,,
5.2179,1,DESCENDING,-0.0000,1.35075,0.48281,-2.09989,0.04616,1.57079,-3.01911,-0.09678,-0.44233,0.39092,,
5.2188,1,DESCENDING,-0.0000,1.35075,0.48281,-2.09991,0.04618,1.57079,-3.01911,-0.09678,-0.44233,0.39091,,
5.2216,1,DESCENDING,-0.0000,1.35075,0.48281,-2.09991,0.04618,1.57079,-3.01911,-0.09678,-0.44233,0.39091,,
5.2318,1,DESCENDING,-0.0000,1.35075,0.48281,-2.09990,0.04617,1.57079,-3.01911,-0.09678,-0.44233,0.39092,,
5.2465,1,DESCENDING,-0.0000,1.35075,0.48282,-2.09982,0.04609,1.57079,-3.01911,-0.09678,-0.44233,0.39096,,
5.2518,1,DESCENDING,-0.0000,1.35075,0.48282,-2.09978,0.04604,1.57079,-3.01911,-0.09678,-0.44233,0.39099,,
5.2850,1,DESCENDING,-0.0000,1.35075,0.48281,-2.09987,0.04614,1.57079,-3.01911,-0.09678,-0.44233,0.39093,,
5.2855,1,DESCENDING,-0.0000,1.35075,0.48281,-2.09987,0.04614,1.57079,-3.01911,-0.09678,-0.44233,0.39093,,
5.2861,1,DESCENDING,-0.0000,1.35075,0.48281,-2.09987,0.04614,1.57079,-3.01911,-0.09678,-0.44233,0.39093,,
5.2933,1,DESCENDING,-0.0000,1.35075,0.48281,-2.09987,0.04614,1.57079,-3.01911,-0.09678,-0.44233,0.39094,,
5.3033,1,DESCENDING,-0.0000,1.35075,0.48282,-2.09979,0.04606,1.57079,-3.01911,-0.09678,-0.44233,0.39098,,
5.3161,1,DESCENDING,-0.0000,1.35075,0.48282,-2.09971,0.04597,1.57079,-3.01911,-0.09678,-0.44233,0.39103,,
5.3217,1,DESCENDING,-0.0000,1.35075,0.48282,-2.09971,0.04597,1.57079,-3.01911,-0.09678,-0.44233,0.39103,,
5.3321,1,DESCENDING,-0.0000,1.35075,0.48282,-2.09968,0.04594,1.57079,-3.01911,-0.09678,-0.44233,0.39105,,
5.3444,1,DESCENDING,-0.0000,1.35075,0.48283,-2.09963,0.04589,1.57079,-3.01911,-0.09678,-0.44233,0.39107,,
5.3553,1,DESCENDING,-0.0000,1.35075,0.48282,-2.09966,0.04592,1.57079,-3.01911,-0.09678,-0.44233,0.39105,,
5.3617,1,DESCENDING,-0.0000,1.35075,0.48282,-2.09969,0.04595,1.57079,-3.01911,-0.09678,-0.44233,0.39104,,
5.3812,1,DESCENDING,-0.0000,1.35075,0.48282,-2.09975,0.04602,1.57079,-3.01911,-0.09678,-0.44233,0.39100,,
5.3823,1,DESCENDING,-0.0000,1.35075,0.48282,-2.09975,0.04602,1.57079,-3.01911,-0.09678,-0.44233,0.39100,,
5.3937,1,DESCENDING,-0.0000,1.35075,0.48282,-2.09978,0.04605,1.57079,-3.01911,-0.09678,-0.44233,0.39098,,
5.4015,1,DESCENDING,-0.0000,1.35075,0.48282,-2.09981,0.04608,1.57079,-3.01911,-0.09678,-0.44233,0.39097,,
5.4166,1,DESCENDING,-0.0000,1.35075,0.48282,-2.09981,0.04607,1.57079,-3.01911,-0.09678,-0.44233,0.39097,,
5.4233,1,DESCENDING,-0.0000,1.35075,0.48282,-2.09975,0.04602,1.57079,-3.01911,-0.09678,-0.44233,0.39100,,
5.4327,1,DESCENDING,-0.0000,1.35075,0.48282,-2.09972,0.04598,1.57079,-3.01911,-0.09678,-0.44233,0.39102,,
5.4429,1,DESCENDING,-0.0000,1.35075,0.48282,-2.09973,0.04599,1.57079,-3.01911,-0.09678,-0.44233,0.39101,,
5.4517,1,DESCENDING,-0.0000,1.35075,0.48282,-2.09976,0.04602,1.57079,-3.01911,-0.09678,-0.44233,0.39100,,
5.4648,1,DESCENDING,-0.0000,1.35075,0.48282,-2.09981,0.04608,1.57079,-3.01911,-0.09678,-0.44233,0.39097,,
5.4789,1,DESCENDING,-0.0000,1.35075,0.48282,-2.09979,0.04606,1.57079,-3.01911,-0.09678,-0.44233,0.39098,,
5.4849,1,DESCENDING,-0.0000,1.35075,0.48282,-2.09977,0.04604,1.57079,-3.01911,-0.09678,-0.44233,0.39099,,
5.4927,1,DESCENDING,-0.0000,1.35075,0.48282,-2.09971,0.04597,1.57079,-3.01911,-0.09678,-0.44233,0.39103,,
5.5077,1,DESCENDING,-0.0000,1.35075,0.48282,-2.09975,0.04601,1.57079,-3.01911,-0.09678,-0.44233,0.39101,,
5.5943,1,DESCENDING,-0.0000,1.35075,0.48281,-2.09996,0.04624,1.57079,-3.01911,-0.09678,-0.44233,0.39088,,
5.5950,1,DESCENDING,-0.0000,1.35075,0.48281,-2.09997,0.04624,1.57079,-3.01911,-0.09678,-0.44233,0.39088,,
5.5977,1,DESCENDING,-0.0000,1.35075,0.48281,-2.09997,0.04624,1.57079,-3.01911,-0.09678,-0.44233,0.39088,,
5.5990,1,DESCENDING,-0.0000,1.35075,0.48281,-2.09997,0.04624,1.57079,-3.01911,-0.09678,-0.44233,0.39088,,
5.6012,1,DESCENDING,-0.0000,1.35075,0.48281,-2.09997,0.04624,1.57079,-3.01911,-0.09678,-0.44233,0.39088,,
5.6015,1,DESCENDING,-0.0000,1.35075,0.48281,-2.09997,0.04624,1.57079,-3.01911,-0.09678,-0.44233,0.39088,,
5.6024,1,DESCENDING,-0.0000,1.35075,0.48281,-2.09997,0.04624,1.57079,-3.01911,-0.09678,-0.44233,0.39088,,
5.6114,1,DESCENDING,-0.0000,1.35075,0.48281,-2.09994,0.04621,1.57079,-3.01911,-0.09678,-0.44233,0.39089,,
5.6237,1,DESCENDING,-0.0000,1.35075,0.48281,-2.09996,0.04623,1.57079,-3.01911,-0.09678,-0.44233,0.39088,,
5.6364,1,DESCENDING,-0.0000,1.35075,0.48281,-2.10000,0.04627,1.57079,-3.01911,-0.09678,-0.44233,0.39086,,
5.6421,1,DESCENDING,-0.0000,1.35075,0.48281,-2.09999,0.04626,1.57079,-3.01911,-0.09678,-0.44233,0.39086,,
5.6574,1,DESCENDING,-0.0000,1.35075,0.48281,-2.09998,0.04626,1.57079,-3.01911,-0.09678,-0.44233,0.39087,,
5.6681,1,DESCENDING,-0.0000,1.35075,0.48281,-2.10000,0.04627,1.57079,-3.01911,-0.09678,-0.44233,0.39086,,
5.6837,1,DESCENDING,-0.0000,1.35075,0.48281,-2.09999,0.04627,1.57079,-3.01911,-0.09678,-0.44233,0.39086,,
5.6941,1,DESCENDING,-0.0000,1.35075,0.48281,-2.10003,0.04631,1.57079,-3.01911,-0.09678,-0.44233,0.39084,,
5.6952,1,DESCENDING,-0.0000,1.35075,0.48281,-2.10003,0.04631,1.57079,-3.01911,-0.09678,-0.44233,0.39084,,
5.7020,1,DESCENDING,-0.0000,1.35075,0.48281,-2.10002,0.04630,1.57079,-3.01911,-0.09678,-0.44233,0.39085,,
5.7118,1,DESCENDING,-0.0000,1.35075,0.48281,-2.10000,0.04628,1.57079,-3.01911,-0.09678,-0.44233,0.39086,,
5.7361,1,DESCENDING,-0.0000,1.35075,0.48280,-2.10005,0.04633,1.57079,-3.01911,-0.09678,-0.44233,0.39083,,
5.7373,1,DESCENDING,-0.0000,1.35075,0.48280,-2.10005,0.04633,1.57079,-3.01911,-0.09678,-0.44233,0.39083,,
5.7436,1,DESCENDING,-0.0000,1.35075,0.48280,-2.10006,0.04634,1.57079,-3.01911,-0.09678,-0.44233,0.39082,,
5.7532,1,DESCENDING,-0.0000,1.35075,0.48280,-2.10008,0.04636,1.57079,-3.01911,-0.09678,-0.44233,0.39081,,
5.7616,1,DESCENDING,-0.0000,1.35075,0.48280,-2.10005,0.04633,1.57079,-3.01911,-0.09678,-0.44233,0.39083,,
5.7715,1,DESCENDING,-0.0000,1.35075,0.48281,-2.10001,0.04629,1.57079,-3.01911,-0.09678,-0.44233,0.39085,,
5.7884,1,DESCENDING,-0.0000,1.35075,0.48280,-2.10004,0.04632,1.57079,-3.01911,-0.09678,-0.44233,0.39083,,
5.7926,1,DESCENDING,-0.0000,1.35075,0.48281,-2.10002,0.04629,1.57079,-3.01911,-0.09678,-0.44233,0.39085,,
5.8032,1,DESCENDING,-0.0000,1.35075,0.48280,-2.10003,0.04631,1.57079,-3.01911,-0.09678,-0.44233,0.39084,,
5.8130,1,DESCENDING,-0.0000,1.35075,0.48280,-2.10007,0.04635,1.57079,-3.01911,-0.09678,-0.44233,0.39082,,
5.8322,1,DESCENDING,-0.0000,1.35075,0.48280,-2.10004,0.04632,1.57079,-3.01911,-0.09678,-0.44233,0.39083,,
5.8334,1,DESCENDING,-0.0000,1.35075,0.48280,-2.10004,0.04632,1.57079,-3.01911,-0.09678,-0.44233,0.39083,,
5.8416,1,DESCENDING,-0.0000,1.35075,0.48280,-2.10008,0.04636,1.57079,-3.01911,-0.09678,-0.44233,0.39081,,
5.8522,1,DESCENDING,-0.0000,1.35075,0.48280,-2.10004,0.04632,1.57079,-3.01911,-0.09678,-0.44233,0.39083,,
5.8618,1,DESCENDING,-0.0000,1.35075,0.48280,-2.10005,0.04633,1.57079,-3.01911,-0.09678,-0.44233,0.39083,,
5.8728,1,DESCENDING,-0.0000,1.35075,0.48280,-2.10010,0.04638,1.57079,-3.01911,-0.09678,-0.44233,0.39080,,
5.8940,1,DESCENDING,-0.0000,1.35075,0.48280,-2.10007,0.04635,1.57079,-3.01911,-0.09678,-0.44233,0.39082,,
5.8952,1,DESCENDING,-0.0000,1.35075,0.48280,-2.10008,0.04636,1.57079,-3.01911,-0.09678,-0.44233,0.39081,,
5.9027,1,DESCENDING,-0.0000,1.35075,0.48280,-2.10010,0.04638,1.57079,-3.01911,-0.09678,-0.44233,0.39080,,
5.9160,1,DESCENDING,-0.0000,1.35075,0.48280,-2.10011,0.04639,1.57079,-3.01911,-0.09678,-0.44233,0.39079,,
5.9357,1,DESCENDING,-0.0000,1.35075,0.48280,-2.10016,0.04645,1.57079,-3.01911,-0.09678,-0.44233,0.39076,,
5.9362,1,DESCENDING,-0.0000,1.35075,0.48280,-2.10016,0.04645,1.57079,-3.01911,-0.09678,-0.44233,0.39076,,
5.9414,1,DESCENDING,-0.0000,1.35075,0.48280,-2.10015,0.04644,1.57079,-3.01911,-0.09678,-0.44233,0.39077,,
5.9546,1,DESCENDING,-0.0000,1.35075,0.48280,-2.10013,0.04641,1.57079,-3.01911,-0.09678,-0.44233,0.39078,,
5.9633,1,DESCENDING,-0.0000,1.35075,0.48280,-2.10016,0.04644,1.57079,-3.01911,-0.09678,-0.44233,0.39076,,
5.9754,1,DESCENDING,-0.0000,1.35075,0.48280,-2.10012,0.04641,1.57079,-3.01911,-0.09678,-0.44233,0.39079,,
5.9856,1,DESCENDING,-0.0000,1.35075,0.48280,-2.10014,0.04642,1.57079,-3.01911,-0.09678,-0.44233,0.39078,,
5.9960,1,DESCENDING,-0.0000,1.35075,0.48280,-2.10020,0.04649,1.57079,-3.01911,-0.09678,-0.44233,0.39074,,
6.0018,1,DESCENDING,-0.0000,1.35075,0.48279,-2.10023,0.04651,1.57079,-3.01911,-0.09678,-0.44233,0.39073,,
6.0143,1,DESCENDING,-0.0000,1.35075,0.48279,-2.10023,0.04652,1.57079,-3.01911,-0.09678,-0.44233,0.39072,,
6.0218,1,DESCENDING,-0.0000,1.35075,0.48279,-2.10024,0.04653,1.57079,-3.01911,-0.09678,-0.44233,0.39072,,
6.0319,1,DESCENDING,-0.0000,1.35075,0.48280,-2.10020,0.04649,1.57079,-3.01911,-0.09678,-0.44233,0.39074,,
6.0465,1,DESCENDING,-0.0000,1.35075,0.48280,-2.10016,0.04645,1.57079,-3.01911,-0.09678,-0.44233,0.39076,,
6.0517,1,DESCENDING,-0.0000,1.35075,0.48280,-2.10021,0.04650,1.57079,-3.01911,-0.09678,-0.44233,0.39074,,
6.0643,1,DESCENDING,-0.0000,1.35075,0.48280,-2.10017,0.04646,1.57079,-3.01911,-0.09678,-0.44233,0.39076,,
6.0781,1,DESCENDING,-0.0000,1.35075,0.48280,-2.10019,0.04648,1.57079,-3.01911,-0.09678,-0.44233,0.39075,,
6.0847,1,DESCENDING,-0.0000,1.35075,0.48280,-2.10021,0.04650,1.57079,-3.01911,-0.09678,-0.44233,0.39074,,
6.0985,1,DESCENDING,-0.0000,1.35075,0.48280,-2.10012,0.04641,1.57079,-3.01911,-0.09678,-0.44233,0.39079,,
6.1037,1,DESCENDING,-0.0000,1.35075,0.48280,-2.10013,0.04641,1.57079,-3.01911,-0.09678,-0.44233,0.39078,,
6.1116,1,DESCENDING,-0.0000,1.35075,0.48280,-2.10015,0.04643,1.57079,-3.01911,-0.09678,-0.44233,0.39077,,
6.1235,1,DESCENDING,-0.0000,1.35075,0.48280,-2.10007,0.04635,1.57079,-3.01911,-0.09678,-0.44233,0.39082,,
6.1349,1,DESCENDING,-0.0000,1.35075,0.48280,-2.10008,0.04636,1.57079,-3.01911,-0.09678,-0.44233,0.39081,,
6.1433,1,DESCENDING,-0.0000,1.35075,0.48280,-2.10014,0.04642,1.57079,-3.01911,-0.09678,-0.44233,0.39078,,
6.1530,1,DESCENDING,-0.0000,1.35075,0.48280,-2.10019,0.04647,1.57079,-3.01911,-0.09678,-0.44233,0.39075,,
6.1614,1,DESCENDING,-0.0000,1.35075,0.48280,-2.10021,0.04650,1.57079,-3.01911,-0.09678,-0.44233,0.39074,,
6.1719,1,DESCENDING,-0.0000,1.35075,0.48280,-2.10022,0.04651,1.57079,-3.01911,-0.09678,-0.44233,0.39073,,
6.1877,1,DESCENDING,-0.0000,1.35075,0.48280,-2.10018,0.04647,1.57079,-3.01911,-0.09678,-0.44233,0.39075,,
6.1986,1,DESCENDING,-0.0000,1.35075,0.48280,-2.10020,0.04648,1.57079,-3.01911,-0.09678,-0.44233,0.39074,,
6.2040,1,DESCENDING,-0.0000,1.35075,0.48280,-2.10022,0.04650,1.57079,-3.01911,-0.09678,-0.44233,0.39073,,
6.2124,1,DESCENDING,-0.0000,1.35075,0.48280,-2.10018,0.04646,1.57079,-3.01911,-0.09678,-0.44233,0.39075,,
6.2224,1,DESCENDING,-0.0000,1.35075,0.48280,-2.10013,0.04642,1.57079,-3.01911,-0.09678,-0.44233,0.39078,,
6.2415,1,DESCENDING,-0.0000,1.35075,0.48280,-2.10017,0.04646,1.57079,-3.01911,-0.09678,-0.44233,0.39076,,
6.2424,1,DESCENDING,-0.0000,1.35075,0.48280,-2.10017,0.04646,1.57079,-3.01911,-0.09678,-0.44233,0.39076,,
6.2519,1,DESCENDING,-0.0000,1.35075,0.48280,-2.10015,0.04644,1.57079,-3.01911,-0.09678,-0.44233,0.39077,,
6.2620,1,DESCENDING,-0.0000,1.35075,0.48280,-2.10018,0.04647,1.57079,-3.01911,-0.09678,-0.44233,0.39075,,
6.2734,1,DESCENDING,-0.0000,1.35075,0.48280,-2.10019,0.04648,1.57079,-3.01911,-0.09678,-0.44233,0.39074,,
6.2928,1,DESCENDING,-0.0000,1.35075,0.48280,-2.10021,0.04649,1.57079,-3.01911,-0.09678,-0.44233,0.39074,,
6.3218,1,DESCENDING,-0.0000,1.35075,0.48280,-2.10020,0.04649,1.57079,-3.01911,-0.09678,-0.44233,0.39074,,
6.3386,1,DESCENDING,-0.0000,1.35075,0.48279,-2.10029,0.04658,1.57079,-3.01911,-0.09678,-0.44233,0.39069,,
6.3492,1,DESCENDING,-0.0000,1.35075,0.48279,-2.10030,0.04659,1.57079,-3.01911,-0.09678,-0.44233,0.39069,,
6.3669,1,DESCENDING,-0.0000,1.35075,0.48279,-2.10033,0.04663,1.57079,-3.01911,-0.09678,-0.44233,0.39066,,
6.3973,1,DESCENDING,-0.0000,1.35075,0.48278,-2.10042,0.04672,1.57079,-3.01911,-0.09678,-0.44233,0.39062,,
6.4051,1,DESCENDING,-0.0000,1.35075,0.48278,-2.10042,0.04672,1.57079,-3.01911,-0.09678,-0.44233,0.39061,,
6.4156,1,DESCENDING,-0.0000,1.35075,0.48278,-2.10044,0.04674,1.57079,-3.01911,-0.09678,-0.44233,0.39060,,
6.4159,1,DESCENDING,-0.0000,1.35075,0.48278,-2.10044,0.04674,1.57079,-3.01911,-0.09678,-0.44233,0.39060,,
6.4176,1,DESCENDING,-0.0000,1.35075,0.48278,-2.10044,0.04674,1.57079,-3.01911,-0.09678,-0.44233,0.39060,,
6.4178,1,DESCENDING,-0.0000,1.35075,0.48278,-2.10044,0.04674,1.57079,-3.01911,-0.09678,-0.44233,0.39060,,
6.4229,1,DESCENDING,-0.0000,1.35075,0.48278,-2.10045,0.04675,1.57079,-3.01911,-0.09678,-0.44233,0.39059,,
6.4254,1,DESCENDING,-0.0000,1.35075,0.48278,-2.10047,0.04677,1.57079,-3.01911,-0.09678,-0.44233,0.39059,,
6.4534,1,DESCENDING,-0.0000,1.35075,0.48278,-2.10054,0.04684,1.57079,-3.01911,-0.09678,-0.44233,0.39055,,
6.4562,1,DESCENDING,-0.0000,1.35075,0.48278,-2.10054,0.04684,1.57079,-3.01911,-0.09678,-0.44233,0.39055,,
6.4566,1,DESCENDING,-0.0000,1.35075,0.48278,-2.10054,0.04684,1.57079,-3.01911,-0.09678,-0.44233,0.39055,,
6.4659,1,DESCENDING,-0.0000,1.35075,0.48278,-2.10054,0.04684,1.57079,-3.01911,-0.09678,-0.44233,0.39055,,
6.4719,1,DESCENDING,-0.0000,1.35075,0.48278,-2.10052,0.04682,1.57079,-3.01911,-0.09678,-0.44233,0.39055,,
6.4843,1,DESCENDING,-0.0000,1.35075,0.48279,-2.10040,0.04670,1.57079,-3.01911,-0.09678,-0.44233,0.39062,,
6.4937,1,DESCENDING,-0.0000,1.35075,0.48278,-2.10041,0.04671,1.57079,-3.01911,-0.09678,-0.44233,0.39062,,
6.5031,1,DESCENDING,-0.0000,1.35075,0.48278,-2.10047,0.04677,1.57079,-3.01911,-0.09678,-0.44233,0.39059,,
6.5148,1,DESCENDING,-0.0000,1.35075,0.48278,-2.10057,0.04688,1.57079,-3.01911,-0.09678,-0.44233,0.39052,,
6.5263,1,DESCENDING,-0.0000,1.35075,0.48278,-2.10060,0.04691,1.57079,-3.01911,-0.09678,-0.44233,0.39051,,
6.5311,1,DESCENDING,-0.0000,1.35075,0.48278,-2.10060,0.04691,1.57079,-3.01911,-0.09678,-0.44233,0.39051,,
6.6151,1,DESCENDING,-0.0000,1.35075,0.48277,-2.10075,0.04706,1.57079,-3.01911,-0.09678,-0.44233,0.39042,,
6.6437,1,DESCENDING,-0.0000,1.35075,0.48278,-2.10053,0.04683,1.57079,-3.01911,-0.09678,-0.44233,0.39055,,
6.7060,1,DESCENDING,-0.0000,1.35075,0.48278,-2.10053,0.04683,1.57079,-3.01911,-0.09678,-0.44233,0.39055,,
6.7079,1,DESCENDING,-0.0000,1.35075,0.48278,-2.10053,0.04683,1.57079,-3.01911,-0.09678,-0.44233,0.39055,,
6.7088,1,DESCENDING,-0.0000,1.35075,0.48278,-2.10053,0.04683,1.57079,-3.01911,-0.09678,-0.44233,0.39055,,
6.7138,1,DESCENDING,-0.0000,1.35075,0.48278,-2.10051,0.04682,1.57079,-3.01911,-0.09678,-0.44233,0.39056,,
6.7156,1,DESCENDING,-0.0000,1.35075,0.48278,-2.10047,0.04677,1.57079,-3.01911,-0.09678,-0.44233,0.39058,,
6.7177,1,DESCENDING,-0.0000,1.35075,0.48278,-2.10047,0.04677,1.57079,-3.01911,-0.09678,-0.44233,0.39058,,
6.7238,1,DESCENDING,-0.0000,1.35075,0.48279,-2.10033,0.04662,1.57079,-3.01912,-0.09678,-0.44233,0.39067,,
6.7243,1,DESCENDING,-0.0000,1.35075,0.48279,-2.10033,0.04662,1.57079,-3.01912,-0.09678,-0.44233,0.39067,,
6.7253,1,DESCENDING,-0.0000,1.35075,0.48279,-2.10033,0.04662,1.57079,-3.01912,-0.09678,-0.44233,0.39067,,
6.7257,1,DESCENDING,-0.0000,1.35075,0.48279,-2.10033,0.04662,1.57079,-3.01912,-0.09678,-0.44233,0.39067,,
6.7261,1,DESCENDING,-0.0000,1.35075,0.48279,-2.10033,0.04662,1.57079,-3.01912,-0.09678,-0.44233,0.39067,,
6.7271,1,DESCENDING,-0.0000,1.35075,0.48279,-2.10033,0.04662,1.57079,-3.01912,-0.09678,-0.44233,0.39067,,
6.7286,1,DESCENDING,-0.0000,1.35075,0.48279,-2.10033,0.04662,1.57079,-3.01912,-0.09678,-0.44233,0.39067,,
6.7348,1,DESCENDING,-0.0000,1.35075,0.48279,-2.10034,0.04663,1.57079,-3.01912,-0.09678,-0.44233,0.39066,,
6.7360,1,DESCENDING,-0.0000,1.35075,0.48279,-2.10036,0.04665,1.57079,-3.01912,-0.09678,-0.44233,0.39065,,
6.7479,1,DESCENDING,-0.0000,1.35075,0.48279,-2.10037,0.04667,1.57079,-3.01912,-0.09678,-0.44233,0.39064,,
6.7547,1,DESCENDING,-0.0000,1.35075,0.48279,-2.10034,0.04663,1.57079,-3.01912,-0.09678,-0.44233,0.39066,,
6.7618,1,DESCENDING,-0.0000,1.35075,0.48279,-2.10028,0.04657,1.57079,-3.01912,-0.09678,-0.44233,0.39069,,
6.7740,1,DESCENDING,-0.0000,1.35075,0.48279,-2.10033,0.04662,1.57079,-3.01912,-0.09678,-0.44233,0.39067,,
6.7823,1,DESCENDING,-0.0000,1.35075,0.48279,-2.10032,0.04661,1.57079,-3.01912,-0.09678,-0.44233,0.39067,,
6.7938,1,DESCENDING,-0.0000,1.35075,0.48279,-2.10023,0.04652,1.57079,-3.01912,-0.09678,-0.44233,0.39072,,
6.8021,1,DESCENDING,-0.0000,1.35075,0.48279,-2.10024,0.04653,1.57079,-3.01912,-0.09678,-0.44233,0.39072,,
6.8159,1,DESCENDING,-0.0000,1.35075,0.48280,-2.10009,0.04638,1.57079,-3.01912,-0.09678,-0.44233,0.39080,,
6.8244,1,DESCENDING,-0.0000,1.35075,0.48280,-2.10010,0.04638,1.57079,-3.01912,-0.09678,-0.44233,0.39080,,
6.8372,1,DESCENDING,-0.0000,1.35075,0.48280,-2.10011,0.04639,1.57079,-3.01912,-0.09678,-0.44233,0.39080,,
6.8577,1,DESCENDING,-0.0000,1.35075,0.48281,-2.10000,0.04628,1.57079,-3.01911,-0.09678,-0.44233,0.39086,,
6.8657,1,DESCENDING,-0.0000,1.35075,0.48281,-2.10002,0.04630,1.57079,-3.01911,-0.09678,-0.44233,0.39085,,
6.8662,1,DESCENDING,-0.0000,1.35075,0.48281,-2.10002,0.04630,1.57079,-3.01911,-0.09678,-0.44233,0.39085,,
6.8787,1,DESCENDING,-0.0000,1.35075,0.48281,-2.09996,0.04623,1.57079,-3.01911,-0.09678,-0.44233,0.39088,,
6.8818,1,DESCENDING,-0.0000,1.35075,0.48281,-2.09996,0.04623,1.57079,-3.01911,-0.09678,-0.44233,0.39088,,
6.8938,1,DESCENDING,-0.0000,1.35075,0.48281,-2.09997,0.04625,1.57079,-3.01911,-0.09678,-0.44233,0.39087,,
6.9038,1,DESCENDING,-0.0000,1.35075,0.48281,-2.09992,0.04619,1.57079,-3.01911,-0.09678,-0.44233,0.39091,,
6.9136,1,DESCENDING,-0.0000,1.35075,0.48281,-2.09987,0.04615,1.57079,-3.01911,-0.09678,-0.44233,0.39093,,
6.9230,1,DESCENDING,-0.0000,1.35075,0.48281,-2.09990,0.04617,1.57079,-3.01911,-0.09678,-0.44233,0.39092,,
6.9363,1,DESCENDING,-0.0000,1.35075,0.48281,-2.09985,0.04612,1.57079,-3.01912,-0.09678,-0.44233,0.39095,,
6.9438,1,DESCENDING,-0.0000,1.35075,0.48281,-2.09985,0.04612,1.57079,-3.01912,-0.09678,-0.44233,0.39094,,
6.9543,1,DESCENDING,-0.0000,1.35075,0.48281,-2.09988,0.04616,1.57079,-3.01912,-0.09678,-0.44233,0.39093,,
6.9683,1,DESCENDING,-0.0000,1.35075,0.48281,-2.09988,0.04615,1.57079,-3.01911,-0.09678,-0.44233,0.39093,,
6.9723,1,DESCENDING,-0.0000,1.35075,0.48281,-2.09988,0.04615,1.57079,-3.01911,-0.09678,-0.44233,0.39093,,
6.9815,1,DESCENDING,-0.0000,1.35075,0.48281,-2.09990,0.04617,1.57079,-3.01911,-0.09678,-0.44233,0.39092,,
6.9935,1,DESCENDING,-0.0000,1.35075,0.48281,-2.09996,0.04624,1.57079,-3.01911,-0.09678,-0.44233,0.39088,,
7.0058,1,DESCENDING,-0.0000,1.35075,0.48281,-2.09999,0.04626,1.57079,-3.01911,-0.09678,-0.44233,0.39087,,
7.0202,1,DESCENDING,-0.0000,1.35075,0.48280,-2.10003,0.04631,1.57079,-3.01911,-0.09678,-0.44233,0.39084,,
7.0224,1,DESCENDING,-0.0000,1.35075,0.48280,-2.10003,0.04631,1.57079,-3.01911,-0.09678,-0.44233,0.39084,,
7.0325,1,DESCENDING,-0.0000,1.35075,0.48280,-2.10006,0.04634,1.57079,-3.01911,-0.09678,-0.44233,0.39082,,
7.0426,1,DESCENDING,-0.0000,1.35075,0.48280,-2.10006,0.04634,1.57079,-3.01911,-0.09678,-0.44233,0.39082,,
7.0612,1,DESCENDING,-0.0000,1.35075,0.48280,-2.10011,0.04639,1.57079,-3.01911,-0.09678,-0.44233,0.39079,,
7.0616,1,DESCENDING,-0.0000,1.35075,0.48280,-2.10011,0.04639,1.57079,-3.01911,-0.09678,-0.44233,0.39079,,
7.0728,1,DESCENDING,-0.0000,1.35075,0.48280,-2.10013,0.04642,1.57079,-3.01911,-0.09678,-0.44233,0.39078,,
7.0819,1,DESCENDING,-0.0000,1.35075,0.48280,-2.10016,0.04645,1.57079,-3.01911,-0.09678,-0.44233,0.39076,,
7.0925,1,DESCENDING,-0.0000,1.35075,0.48280,-2.10019,0.04648,1.57079,-3.01911,-0.09678,-0.44233,0.39075,,
7.1014,1,DESCENDING,-0.0000,1.35075,0.48280,-2.10020,0.04649,1.57079,-3.01911,-0.09678,-0.44233,0.39074,,
7.1159,1,DESCENDING,-0.0000,1.35075,0.48279,-2.10024,0.04653,1.57079,-3.01911,-0.09678,-0.44233,0.39072,,
7.1232,1,DESCENDING,-0.0000,1.35075,0.48279,-2.10024,0.04653,1.57079,-3.01911,-0.09678,-0.44233,0.39072,,
7.1322,1,DESCENDING,-0.0000,1.35075,0.48279,-2.10027,0.04656,1.57079,-3.01911,-0.09678,-0.44233,0.39070,,
7.1443,1,DESCENDING,-0.0000,1.35075,0.48279,-2.10031,0.04660,1.57079,-3.01911,-0.09678,-0.44233,0.39068,,
7.1569,1,DESCENDING,-0.0000,1.35075,0.48279,-2.10033,0.04662,1.57079,-3.01911,-0.09678,-0.44233,0.39067,,
7.1639,1,DESCENDING,-0.0000,1.35075,0.48279,-2.10034,0.04664,1.57079,-3.01911,-0.09678,-0.44233,0.39066,,
7.1728,1,DESCENDING,-0.0000,1.35075,0.48279,-2.10036,0.04666,1.57079,-3.01911,-0.09678,-0.44233,0.39065,,
7.1882,1,DESCENDING,-0.0000,1.35075,0.48279,-2.10039,0.04668,1.57079,-3.01911,-0.09678,-0.44233,0.39063,,
7.1936,1,DESCENDING,-0.0000,1.35075,0.48279,-2.10040,0.04670,1.57079,-3.01911,-0.09678,-0.44233,0.39063,,
7.2036,1,DESCENDING,-0.0000,1.35075,0.48278,-2.10043,0.04673,1.57079,-3.01911,-0.09678,-0.44233,0.39061,,
7.2115,1,DESCENDING,-0.0000,1.35075,0.48278,-2.10046,0.04676,1.57079,-3.01911,-0.09678,-0.44233,0.39059,,
7.2249,1,DESCENDING,-0.0000,1.35075,0.48279,-2.10041,0.04671,1.57079,-3.01911,-0.09678,-0.44233,0.39062,,
7.2328,1,DESCENDING,-0.0000,1.35075,0.48279,-2.10027,0.04657,1.57079,-3.01911,-0.09678,-0.44233,0.39070,,
7.2418,1,DESCENDING,-0.0000,1.35075,0.48280,-2.10019,0.04647,1.57079,-3.01911,-0.09678,-0.44233,0.39075,,
7.2514,1,DESCENDING,-0.0000,1.35075,0.48280,-2.10018,0.04646,1.57079,-3.01911,-0.09678,-0.44233,0.39076,,
7.2684,1,DESCENDING,-0.0000,1.35075,0.48281,-2.09991,0.04618,1.57079,-3.01911,-0.09678,-0.44233,0.39091,,
7.2749,1,DESCENDING,-0.0000,1.35075,0.48281,-2.09991,0.04618,1.57079,-3.01911,-0.09678,-0.44233,0.39091,,
7.2883,1,DESCENDING,-0.0000,1.35075,0.48281,-2.09986,0.04613,1.57079,-3.01911,-0.09678,-0.44233,0.39094,,
7.2949,1,DESCENDING,-0.0000,1.35075,0.48282,-2.09982,0.04609,1.57079,-3.01911,-0.09678,-0.44233,0.39096,,
7.3059,1,DESCENDING,-0.0000,1.35075,0.48282,-2.09978,0.04605,1.57079,-3.01911,-0.09678,-0.44233,0.39098,,
7.3124,1,DESCENDING,-0.0000,1.35075,0.48282,-2.09978,0.04605,1.57079,-3.01911,-0.09678,-0.44233,0.39099,,
7.3227,1,DESCENDING,-0.0000,1.35075,0.48282,-2.09975,0.04601,1.57079,-3.01911,-0.09678,-0.44233,0.39101,,
7.3352,1,DESCENDING,-0.0000,1.35075,0.48282,-2.09969,0.04595,1.57079,-3.01911,-0.09678,-0.44233,0.39104,,
7.3479,1,DESCENDING,-0.0000,1.35075,0.48282,-2.09968,0.04594,1.57079,-3.01911,-0.09678,-0.44233,0.39105,,
7.3517,1,DESCENDING,-0.0000,1.35075,0.48282,-2.09968,0.04594,1.57079,-3.01911,-0.09678,-0.44233,0.39105,,
7.3617,1,DESCENDING,-0.0000,1.35075,0.48282,-2.09964,0.04590,1.57079,-3.01911,-0.09678,-0.44233,0.39107,,
7.3720,1,DESCENDING,-0.0000,1.35075,0.48282,-2.09964,0.04590,1.57079,-3.01911,-0.09678,-0.44233,0.39107,,
7.3823,1,DESCENDING,-0.0000,1.35075,0.48283,-2.09962,0.04588,1.57079,-3.01911,-0.09678,-0.44233,0.39108,,
7.3911,1,DESCENDING,-0.0000,1.35075,0.48283,-2.09958,0.04584,1.57079,-3.01911,-0.09678,-0.44233,0.39110,,
7.4034,1,DESCENDING,-0.0000,1.35075,0.48283,-2.09958,0.04584,1.57079,-3.01911,-0.09678,-0.44233,0.39110,,
7.4140,1,DESCENDING,-0.0000,1.35075,0.48283,-2.09955,0.04581,1.57079,-3.01911,-0.09678,-0.44233,0.39112,,
7.4290,1,DESCENDING,-0.0000,1.35075,0.48283,-2.09954,0.04579,1.57079,-3.01911,-0.09678,-0.44233,0.39113,,
7.4319,1,DESCENDING,-0.0000,1.35075,0.48283,-2.09954,0.04579,1.57079,-3.01911,-0.09678,-0.44233,0.39113,,
7.4420,1,DESCENDING,-0.0000,1.35075,0.48283,-2.09953,0.04578,1.57079,-3.01911,-0.09678,-0.44233,0.39113,,
7.4539,1,DESCENDING,-0.0000,1.35075,0.48283,-2.09951,0.04576,1.57079,-3.01911,-0.09678,-0.44233,0.39115,,
7.4666,1,DESCENDING,-0.0000,1.35075,0.48283,-2.09949,0.04575,1.57079,-3.01911,-0.09678,-0.44233,0.39115,,
7.4720,1,DESCENDING,-0.0000,1.35075,0.48283,-2.09948,0.04573,1.57079,-3.01911,-0.09678,-0.44233,0.39116,,
7.4819,1,DESCENDING,-0.0000,1.35075,0.48283,-2.09946,0.04571,1.57079,-3.01911,-0.09678,-0.44233,0.39117,,
7.4921,1,DESCENDING,-0.0000,1.35075,0.48283,-2.09946,0.04571,1.57079,-3.01911,-0.09678,-0.44233,0.39117,,
7.5027,1,DESCENDING,-0.0000,1.35075,0.48283,-2.09945,0.04570,1.57079,-3.01911,-0.09678,-0.44233,0.39118,,
7.5120,1,DESCENDING,-0.0000,1.35075,0.48283,-2.09945,0.04569,1.57079,-3.01911,-0.09678,-0.44233,0.39118,,
7.5282,1,DESCENDING,-0.0000,1.35075,0.48283,-2.09945,0.04569,1.57079,-3.01911,-0.09678,-0.44233,0.39118,,
7.5335,1,DESCENDING,-0.0000,1.35075,0.48283,-2.09944,0.04569,1.57079,-3.01911,-0.09678,-0.44233,0.39118,,
7.5463,1,DESCENDING,-0.0000,1.35075,0.48284,-2.09944,0.04568,1.57079,-3.01911,-0.09678,-0.44233,0.39119,,
7.5522,1,DESCENDING,-0.0000,1.35075,0.48284,-2.09944,0.04568,1.57079,-3.01911,-0.09678,-0.44233,0.39119,,
7.5687,1,DESCENDING,-0.0000,1.35075,0.48284,-2.09943,0.04567,1.57079,-3.01912,-0.09678,-0.44233,0.39119,,
7.5754,1,DESCENDING,-0.0000,1.35075,0.48284,-2.09943,0.04567,1.57079,-3.01912,-0.09678,-0.44233,0.39119,,
7.5845,1,DESCENDING,-0.0000,1.35075,0.48284,-2.09942,0.04567,1.57079,-3.01912,-0.09678,-0.44233,0.39119,,
7.5964,1,DESCENDING,-0.0000,1.35075,0.48284,-2.09942,0.04566,1.57079,-3.01912,-0.09678,-0.44233,0.39120,,
7.6038,1,DESCENDING,-0.0000,1.35075,0.48284,-2.09942,0.04566,1.57079,-3.01912,-0.09678,-0.44233,0.39120,,
7.6372,1,DESCENDING,-0.0000,1.35075,0.48284,-2.09941,0.04566,1.57079,-3.01912,-0.09678,-0.44233,0.39120,,
7.6377,1,DESCENDING,-0.0000,1.35075,0.48284,-2.09941,0.04566,1.57079,-3.01912,-0.09678,-0.44233,0.39120,,
7.6429,1,DESCENDING,-0.0000,1.35075,0.48284,-2.09941,0.04566,1.57079,-3.01912,-0.09678,-0.44233,0.39120,,
7.6522,1,DESCENDING,-0.0000,1.35075,0.48284,-2.09941,0.04566,1.57079,-3.01912,-0.09678,-0.44233,0.39120,,
7.6606,1,DESCENDING,-0.0000,1.35075,0.48284,-2.09941,0.04566,1.57079,-3.01912,-0.09678,-0.44233,0.39120,,
7.6761,1,DESCENDING,-0.0000,1.35075,0.48284,-2.09941,0.04565,1.57079,-3.01912,-0.09678,-0.44233,0.39120,,
7.6811,1,DESCENDING,-0.0000,1.35075,0.48284,-2.09941,0.04565,1.57079,-3.01912,-0.09678,-0.44233,0.39120,,
7.7016,1,DESCENDING,-0.0000,1.35075,0.48284,-2.09942,0.04567,1.57079,-3.01912,-0.09678,-0.44233,0.39120,,
7.7027,1,DESCENDING,-0.0000,1.35075,0.48284,-2.09942,0.04567,1.57079,-3.01912,-0.09678,-0.44233,0.39120,,
7.7155,1,DESCENDING,-0.0000,1.35075,0.48283,-2.09947,0.04572,1.57079,-3.01912,-0.09678,-0.44233,0.39117,,
7.7212,1,DESCENDING,-0.0000,1.35075,0.48283,-2.09950,0.04575,1.57079,-3.01912,-0.09678,-0.44233,0.39115,,
7.7370,1,DESCENDING,-0.0000,1.35075,0.48283,-2.09950,0.04575,1.57079,-3.01912,-0.09678,-0.44233,0.39115,,
7.7423,1,DESCENDING,-0.0000,1.35075,0.48283,-2.09950,0.04575,1.57079,-3.01912,-0.09678,-0.44233,0.39115,,
7.7514,1,DESCENDING,-0.0000,1.35075,0.48283,-2.09949,0.04574,1.57079,-3.01912,-0.09678,-0.44233,0.39116,,
7.7630,1,DESCENDING,-0.0000,1.35075,0.48283,-2.09949,0.04574,1.57079,-3.01912,-0.09678,-0.44233,0.39116,,
7.7801,1,DESCENDING,-0.0000,1.35075,0.48283,-2.09946,0.04571,1.57079,-3.01911,-0.09678,-0.44233,0.39117,,
7.7862,1,DESCENDING,-0.0000,1.35075,0.48283,-2.09946,0.04571,1.57079,-3.01911,-0.09678,-0.44233,0.39117,,
7.7918,1,DESCENDING,-0.0000,1.35075,0.48283,-2.09946,0.04571,1.57079,-3.01911,-0.09678,-0.44233,0.39117,,
7.8052,1,DESCENDING,-0.0000,1.35075,0.48283,-2.09945,0.04570,1.57079,-3.01911,-0.09678,-0.44233,0.39118,,
7.8178,1,DESCENDING,-0.0000,1.35075,0.48283,-2.09944,0.04569,1.57079,-3.01911,-0.09678,-0.44233,0.39118,,
7.8251,1,DESCENDING,-0.0000,1.35075,0.48284,-2.09944,0.04569,1.57079,-3.01911,-0.09678,-0.44233,0.39118,,
7.8373,1,DESCENDING,-0.0000,1.35075,0.48284,-2.09943,0.04568,1.57079,-3.01911,-0.09678,-0.44233,0.39119,,
7.8416,1,DESCENDING,-0.0000,1.35075,0.48284,-2.09943,0.04567,1.57079,-3.01911,-0.09678,-0.44233,0.39119,,
7.8537,1,DESCENDING,-0.0000,1.35075,0.48284,-2.09943,0.04567,1.57079,-3.01911,-0.09678,-0.44233,0.39119,,
7.8612,1,DESCENDING,-0.0000,1.35075,0.48284,-2.09942,0.04567,1.57079,-3.01911,-0.09678,-0.44233,0.39119,,
7.8747,1,DESCENDING,-0.0000,1.35075,0.48284,-2.09942,0.04567,1.57079,-3.01911,-0.09678,-0.44233,0.39120,,
7.8827,1,DESCENDING,-0.0000,1.35075,0.48284,-2.09942,0.04567,1.57079,-3.01911,-0.09678,-0.44233,0.39119,,
7.8932,1,DESCENDING,-0.0000,1.35075,0.48284,-2.09942,0.04567,1.57079,-3.01911,-0.09678,-0.44233,0.39119,,
7.9033,1,DESCENDING,-0.0000,1.35075,0.48284,-2.09942,0.04567,1.57079,-3.01911,-0.09678,-0.44233,0.39120,,
7.9121,1,DESCENDING,-0.0000,1.35075,0.48284,-2.09942,0.04566,1.57079,-3.01911,-0.09678,-0.44233,0.39120,,
7.9260,1,DESCENDING,-0.0000,1.35075,0.48284,-2.09941,0.04566,1.57079,-3.01911,-0.09678,-0.44233,0.39120,,
7.9410,1,DESCENDING,-0.0000,1.35075,0.48284,-2.09943,0.04567,1.57079,-3.01911,-0.09678,-0.44233,0.39119,,
7.9429,1,DESCENDING,-0.0000,1.35075,0.48284,-2.09943,0.04567,1.57079,-3.01911,-0.09678,-0.44233,0.39119,,
7.9519,1,DESCENDING,-0.0000,1.35075,0.48283,-2.09948,0.04573,1.57079,-3.01911,-0.09678,-0.44233,0.39116,,
7.9630,1,DESCENDING,-0.0000,1.35075,0.48283,-2.09949,0.04574,1.57079,-3.01911,-0.09678,-0.44233,0.39115,,
7.9840,1,DESCENDING,-0.0000,1.35075,0.48283,-2.09955,0.04581,1.57079,-3.01911,-0.09678,-0.44233,0.39112,,
7.9934,1,DESCENDING,-0.0000,1.35075,0.48283,-2.09959,0.04585,1.57079,-3.01911,-0.09678,-0.44233,0.39110,,
8.0046,1,DESCENDING,-0.0000,1.35075,0.48283,-2.09958,0.04584,1.57079,-3.01911,-0.09678,-0.44233,0.39110,,
8.0147,1,DESCENDING,-0.0000,1.35075,0.48283,-2.09956,0.04581,1.57079,-3.01911,-0.09678,-0.44233,0.39112,,
8.0231,1,DESCENDING,-0.0000,1.35075,0.48283,-2.09952,0.04578,1.57079,-3.01911,-0.09678,-0.44233,0.39113,,
8.0460,1,DESCENDING,-0.0000,1.35075,0.48283,-2.09950,0.04575,1.57079,-3.01911,-0.09678,-0.44233,0.39115,,
8.0465,1,DESCENDING,-0.0000,1.35075,0.48283,-2.09950,0.04575,1.57079,-3.01911,-0.09678,-0.44233,0.39115,,
8.0525,1,DESCENDING,-0.0000,1.35075,0.48283,-2.09948,0.04573,1.57079,-3.01911,-0.09678,-0.44233,0.39116,,
8.0622,1,DESCENDING,-0.0000,1.35075,0.48283,-2.09949,0.04574,1.57079,-3.01911,-0.09678,-0.44233,0.39116,,
8.0869,1,DESCENDING,-0.0000,1.35075,0.48283,-2.09958,0.04584,1.57079,-3.01911,-0.09678,-0.44233,0.39110,,
8.0873,1,DESCENDING,-0.0000,1.35075,0.48283,-2.09958,0.04584,1.57079,-3.01911,-0.09678,-0.44233,0.39110,,
8.0970,1,DESCENDING,-0.0000,1.35075,0.48283,-2.09956,0.04582,1.57079,-3.01911,-0.09678,-0.44233,0.39111,,
8.1046,1,DESCENDING,-0.0000,1.35075,0.48283,-2.09953,0.04579,1.57079,-3.01911,-0.09678,-0.44233,0.39113,,
8.1129,1,DESCENDING,-0.0000,1.35075,0.48283,-2.09950,0.04575,1.57079,-3.01911,-0.09678,-0.44233,0.39115,,
8.1264,1,DESCENDING,-0.0000,1.35075,0.48283,-2.09950,0.04575,1.57079,-3.01911,-0.09678,-0.44233,0.39115,,
8.1310,1,DESCENDING,-0.0000,1.35075,0.48283,-2.09950,0.04575,1.57079,-3.01911,-0.09678,-0.44233,0.39115,,
8.1440,1,DESCENDING,-0.0000,1.35075,0.48283,-2.09948,0.04573,1.57079,-3.01911,-0.09678,-0.44233,0.39116,,
8.1525,1,DESCENDING,-0.0000,1.35075,0.48283,-2.09949,0.04574,1.57079,-3.01911,-0.09678,-0.44233,0.39115,,
8.1604,1,DESCENDING,-0.0000,1.35075,0.48283,-2.09952,0.04578,1.57079,-3.01911,-0.09678,-0.44233,0.39114,,
8.1723,1,DESCENDING,-0.0000,1.35075,0.48283,-2.09958,0.04583,1.57079,-3.01911,-0.09678,-0.44233,0.39110,,
8.1820,1,DESCENDING,-0.0000,1.35075,0.48283,-2.09958,0.04584,1.57079,-3.01911,-0.09678,-0.44233,0.39110,,
8.1919,1,DESCENDING,-0.0000,1.35075,0.48283,-2.09960,0.04586,1.57079,-3.01911,-0.09678,-0.44233,0.39109,,
8.2021,1,DESCENDING,-0.0000,1.35075,0.48283,-2.09963,0.04588,1.57079,-3.01911,-0.09678,-0.44233,0.39108,,
8.2129,1,DESCENDING,-0.0000,1.35075,0.48283,-2.09962,0.04588,1.57079,-3.01911,-0.09678,-0.44233,0.39108,,
8.2223,1,DESCENDING,-0.0000,1.35075,0.48283,-2.09960,0.04586,1.57079,-3.01911,-0.09678,-0.44233,0.39109,,
8.2385,1,DESCENDING,-0.0000,1.35075,0.48283,-2.09955,0.04580,1.57079,-3.01912,-0.09678,-0.44233,0.39112,,
8.2445,1,DESCENDING,-0.0000,1.35075,0.48283,-2.09957,0.04582,1.57079,-3.01911,-0.09678,-0.44233,0.39111,,
8.2536,1,DESCENDING,-0.0000,1.35075,0.48283,-2.09961,0.04587,1.57079,-3.01911,-0.09678,-0.44233,0.39108,,
8.2624,1,DESCENDING,-0.0000,1.35075,0.48282,-2.09966,0.04592,1.57079,-3.01911,-0.09678,-0.44233,0.39105,,
8.2726,1,DESCENDING,-0.0000,1.35075,0.48282,-2.09967,0.04593,1.57079,-3.01911,-0.09678,-0.44233,0.39105,,
8.2838,1,DESCENDING,-0.0000,1.35075,0.48282,-2.09969,0.04595,1.57079,-3.01911,-0.09678,-0.44233,0.39104,,
8.2916,1,DESCENDING,-0.0000,1.35075,0.48282,-2.09972,0.04598,1.57079,-3.01911,-0.09678,-0.44233,0.39102,,
8.3019,1,DESCENDING,-0.0000,1.35075,0.48282,-2.09973,0.04599,1.57079,-3.01911,-0.09678,-0.44233,0.39102,,
8.3121,1,DESCENDING,-0.0000,1.35075,0.48282,-2.09968,0.04594,1.57079,-3.01911,-0.09678,-0.44233,0.39105,,
8.3216,1,DESCENDING,-0.0000,1.35075,0.48283,-2.09962,0.04587,1.57079,-3.01912,-0.09678,-0.44233,0.39108,,
8.3379,1,DESCENDING,-0.0000,1.35075,0.48282,-2.09965,0.04591,1.57079,-3.01912,-0.09678,-0.44233,0.39106,,
8.3507,1,DESCENDING,-0.0000,1.35075,0.48282,-2.09972,0.04599,1.57079,-3.01912,-0.09678,-0.44233,0.39102,,
8.3523,1,DESCENDING,-0.0000,1.35075,0.48282,-2.09974,0.04601,1.57079,-3.01912,-0.09678,-0.44233,0.39101,,
8.3615,1,DESCENDING,-0.0000,1.35075,0.48282,-2.09974,0.04601,1.57079,-3.01912,-0.09678,-0.44233,0.39101,,
8.3728,1,DESCENDING,-0.0000,1.35075,0.48282,-2.09971,0.04597,1.57079,-3.01911,-0.09678,-0.44233,0.39103,,
8.3853,1,DESCENDING,-0.0000,1.35075,0.48282,-2.09966,0.04591,1.57079,-3.01911,-0.09678,-0.44233,0.39106,,
8.3927,1,DESCENDING,-0.0000,1.35075,0.48282,-2.09966,0.04592,1.57079,-3.01911,-0.09678,-0.44233,0.39106,,
8.4016,1,DESCENDING,-0.0000,1.35075,0.48282,-2.09965,0.04591,1.57079,-3.01911,-0.09678,-0.44233,0.39106,,
8.4163,1,DESCENDING,-0.0000,1.35075,0.48283,-2.09962,0.04587,1.57079,-3.01911,-0.09678,-0.44233,0.39108,,
8.4213,1,DESCENDING,-0.0000,1.35075,0.48283,-2.09962,0.04588,1.57079,-3.01911,-0.09678,-0.44233,0.39108,,
8.4384,1,DESCENDING,-0.0000,1.35075,0.48282,-2.09969,0.04595,1.57079,-3.01911,-0.09678,-0.44233,0.39104,,
8.4474,1,DESCENDING,-0.0000,1.35075,0.48282,-2.09971,0.04597,1.57079,-3.01911,-0.09678,-0.44233,0.39103,,
8.4532,1,DESCENDING,-0.0000,1.35075,0.48282,-2.09970,0.04596,1.57079,-3.01911,-0.09678,-0.44233,0.39103,,
8.4641,1,DESCENDING,-0.0000,1.35075,0.48283,-2.09963,0.04589,1.57079,-3.01912,-0.09678,-0.44233,0.39107,,
8.4753,1,DESCENDING,-0.0000,1.35075,0.48283,-2.09957,0.04583,1.57079,-3.01912,-0.09678,-0.44233,0.39111,,
8.4951,1,DESCENDING,-0.0000,1.35075,0.48283,-2.09954,0.04580,1.57079,-3.01912,-0.09678,-0.44233,0.39112,,
8.5017,1,DESCENDING,-0.0000,1.35075,0.48283,-2.09951,0.04577,1.57079,-3.01912,-0.09678,-0.44233,0.39114,,
8.5046,1,DESCENDING,-0.0000,1.35075,0.48283,-2.09951,0.04577,1.57079,-3.01912,-0.09678,-0.44233,0.39114,,
8.5179,1,DESCENDING,-0.0000,1.35075,0.48283,-2.09955,0.04580,1.57079,-3.01912,-0.09678,-0.44233,0.39112,,
8.5236,1,DESCENDING,-0.0000,1.35075,0.48283,-2.09956,0.04582,1.57079,-3.01912,-0.09678,-0.44233,0.39111,,
8.5368,1,DESCENDING,-0.0000,1.35075,0.48283,-2.09962,0.04588,1.57079,-3.01912,-0.09678,-0.44233,0.39108,,
8.5423,1,DESCENDING,-0.0000,1.35075,0.48283,-2.09963,0.04588,1.57079,-3.01912,-0.09678,-0.44233,0.39108,,
8.5578,1,DESCENDING,-0.0000,1.35075,0.48282,-2.09967,0.04593,1.57079,-3.01912,-0.09678,-0.44233,0.39105,,
8.5653,1,DESCENDING,-0.0000,1.35075,0.48282,-2.09969,0.04595,1.57079,-3.01912,-0.09678,-0.44233,0.39104,,
8.5714,1,DESCENDING,-0.0000,1.35075,0.48282,-2.09969,0.04595,1.57079,-3.01912,-0.09678,-0.44233,0.39104,,
8.5823,1,DESCENDING,-0.0000,1.35075,0.48282,-2.09966,0.04592,1.57079,-3.01912,-0.09678,-0.44233,0.39106,,
8.5913,1,DESCENDING,-0.0000,1.35075,0.48283,-2.09961,0.04587,1.57079,-3.01912,-0.09678,-0.44233,0.39108,,
8.6015,1,DESCENDING,-0.0000,1.35075,0.48283,-2.09959,0.04584,1.57079,-3.01912,-0.09678,-0.44233,0.39110,,
8.6139,1,DESCENDING,-0.0000,1.35075,0.48283,-2.09956,0.04581,1.57079,-3.01912,-0.09678,-0.44233,0.39112,,
8.6277,1,DESCENDING,-0.0000,1.35075,0.48283,-2.09952,0.04578,1.57079,-3.01912,-0.09678,-0.44233,0.39114,,
8.6320,1,DESCENDING,-0.0000,1.35075,0.48283,-2.09953,0.04578,1.57079,-3.01912,-0.09678,-0.44233,0.39113,,
8.6445,1,DESCENDING,-0.0000,1.35075,0.48283,-2.09960,0.04585,1.57079,-3.01912,-0.09678,-0.44233,0.39109,,
8.6545,1,DESCENDING,-0.0000,1.35075,0.48283,-2.09964,0.04589,1.57079,-3.01912,-0.09678,-0.44233,0.39107,,
8.6631,1,DESCENDING,-0.0000,1.35075,0.48283,-2.09963,0.04589,1.57079,-3.01912,-0.09678,-0.44233,0.39107,,
8.6769,1,DESCENDING,-0.0000,1.35075,0.48283,-2.09958,0.04583,1.57079,-3.01911,-0.09678,-0.44233,0.39111,,
8.6818,1,DESCENDING,-0.0000,1.35075,0.48283,-2.09955,0.04581,1.57079,-3.01911,-0.09678,-0.44233,0.39112,,
8.7023,1,DESCENDING,-0.0000,1.35075,0.48283,-2.09961,0.04587,1.57079,-3.01911,-0.09678,-0.44233,0.39109,,
8.7116,1,DESCENDING,-0.0000,1.35075,0.48282,-2.09965,0.04591,1.57079,-3.01911,-0.09678,-0.44233,0.39106,,
8.7129,1,DESCENDING,-0.0000,1.35075,0.48282,-2.09967,0.04593,1.57079,-3.01911,-0.09678,-0.44233,0.39105,,
8.7211,1,DESCENDING,-0.0000,1.35075,0.48282,-2.09967,0.04593,1.57079,-3.01911,-0.09678,-0.44233,0.39105,,
8.7337,1,DESCENDING,-0.0000,1.35075,0.48282,-2.09970,0.04597,1.57079,-3.01911,-0.09678,-0.44233,0.39103,,
8.7459,1,DESCENDING,-0.0000,1.35075,0.48282,-2.09973,0.04600,1.57079,-3.01911,-0.09678,-0.44233,0.39101,,
8.7611,1,DESCENDING,-0.0000,1.35075,0.48282,-2.09970,0.04596,1.57079,-3.01912,-0.09678,-0.44233,0.39103,,
8.7628,1,DESCENDING,-0.0000,1.35075,0.48282,-2.09970,0.04596,1.57079,-3.01912,-0.09678,-0.44233,0.39103,,
8.7727,1,DESCENDING,-0.0000,1.35075,0.48282,-2.09965,0.04591,1.57079,-3.01912,-0.09678,-0.44233,0.39106,,
8.8245,1,DESCENDING,-0.0000,1.35075,0.48282,-2.09977,0.04604,1.57079,-3.01912,-0.09678,-0.44233,0.39099,,
8.8485,1,DESCENDING,-0.0000,1.35075,0.48282,-2.09983,0.04609,1.57079,-3.01912,-0.09678,-0.44233,0.39096,,
8.8489,1,DESCENDING,-0.0000,1.35075,0.48282,-2.09983,0.04609,1.57079,-3.01912,-0.09678,-0.44233,0.39096,,
8.8587,1,DESCENDING,-0.0000,1.35075,0.48281,-2.09984,0.04611,1.57079,-3.01912,-0.09678,-0.44233,0.39095,,
8.8631,1,DESCENDING,-0.0000,1.35075,0.48282,-2.09983,0.04610,1.57079,-3.01912,-0.09678,-0.44233,0.39095,,
8.8715,1,DESCENDING,-0.0000,1.35075,0.48281,-2.09984,0.04611,1.57079,-3.01912,-0.09678,-0.44233,0.39095,,
8.8818,1,DESCENDING,-0.0000,1.35075,0.48281,-2.09988,0.04615,1.57079,-3.01912,-0.09678,-0.44233,0.39093,,
8.9049,1,DESCENDING,-0.0000,1.35075,0.48281,-2.09995,0.04622,1.57079,-3.01912,-0.09678,-0.44233,0.39089,,
8.9054,1,DESCENDING,-0.0000,1.35075,0.48281,-2.09995,0.04622,1.57079,-3.01912,-0.09678,-0.44233,0.39089,,
8.9120,1,DESCENDING,-0.0000,1.35075,0.48281,-2.09996,0.04623,1.57079,-3.01912,-0.09678,-0.44233,0.39088,,
8.9250,1,DESCENDING,-0.0000,1.35075,0.48281,-2.10001,0.04629,1.57079,-3.01912,-0.09678,-0.44233,0.39085,,
8.9328,1,DESCENDING,-0.0000,1.35075,0.48281,-2.10001,0.04628,1.57079,-3.01912,-0.09678,-0.44233,0.39085,,
8.9446,1,DESCENDING,-0.0000,1.35075,0.48281,-2.09991,0.04618,1.57079,-3.01911,-0.09678,-0.44233,0.39091,,
8.9522,1,DESCENDING,-0.0000,1.35075,0.48281,-2.09986,0.04613,1.57079,-3.01911,-0.09678,-0.44233,0.39094,,
8.9753,1,DESCENDING,-0.0000,1.35075,0.48281,-2.09990,0.04617,1.57079,-3.01911,-0.09678,-0.44233,0.39092,,
8.9761,1,DESCENDING,-0.0000,1.35075,0.48281,-2.09990,0.04617,1.57079,-3.01911,-0.09678,-0.44233,0.39092,,
8.9813,1,DESCENDING,-0.0000,1.35075,0.48281,-2.09994,0.04621,1.57079,-3.01911,-0.09678,-0.44233,0.39090,,
8.9923,1,DESCENDING,-0.0000,1.35075,0.48281,-2.09994,0.04621,1.57079,-3.01911,-0.09678,-0.44233,0.39090,,
9.0026,1,DESCENDING,-0.0000,1.35075,0.48281,-2.09996,0.04623,1.57079,-3.01911,-0.09678,-0.44233,0.39088,,
9.0127,1,DESCENDING,-0.0000,1.35075,0.48281,-2.09998,0.04626,1.57079,-3.01911,-0.09678,-0.44233,0.39087,,
9.0262,1,DESCENDING,-0.0000,1.35075,0.48281,-2.10000,0.04627,1.57079,-3.01911,-0.09678,-0.44233,0.39086,,
9.0374,1,DESCENDING,-0.0000,1.35075,0.48280,-2.10004,0.04632,1.57079,-3.01911,-0.09678,-0.44233,0.39083,,
9.0474,1,DESCENDING,-0.0000,1.35075,0.48280,-2.10006,0.04634,1.57079,-3.01911,-0.09678,-0.44233,0.39082,,
9.0534,1,DESCENDING,-0.0000,1.35075,0.48280,-2.10006,0.04634,1.57079,-3.01911,-0.09678,-0.44233,0.39082,,
9.0654,1,DESCENDING,-0.0000,1.35075,0.48280,-2.10009,0.04638,1.57079,-3.01911,-0.09678,-0.44233,0.39080,,
9.0731,1,DESCENDING,-0.0000,1.35075,0.48280,-2.10012,0.04641,1.57079,-3.01911,-0.09678,-0.44233,0.39079,,
9.0847,1,DESCENDING,-0.0000,1.35075,0.48280,-2.10013,0.04642,1.57079,-3.01911,-0.09678,-0.44233,0.39078,,
9.0928,1,DESCENDING,-0.0000,1.35075,0.48280,-2.10016,0.04644,1.57079,-3.01911,-0.09678,-0.44233,0.39077,,
9.1020,1,DESCENDING,-0.0000,1.35075,0.48280,-2.10019,0.04648,1.57079,-3.01911,-0.09678,-0.44233,0.39075,,
9.1150,1,DESCENDING,-0.0000,1.35075,0.48280,-2.10020,0.04648,1.57079,-3.01911,-0.09678,-0.44233,0.39074,,
9.1229,1,DESCENDING,-0.0000,1.35075,0.48280,-2.10012,0.04641,1.57079,-3.01911,-0.09678,-0.44233,0.39079,,
9.1606,1,DESCENDING,-0.0000,1.35075,0.48280,-2.10004,0.04632,1.57079,-3.01911,-0.09678,-0.44233,0.39083,,
9.1613,1,DESCENDING,-0.0000,1.35075,0.48280,-2.10007,0.04635,1.57079,-3.01911,-0.09678,-0.44233,0.39082,,
9.1766,1,DESCENDING,-0.0000,1.35075,0.48280,-2.10009,0.04637,1.57079,-3.01911,-0.09678,-0.44233,0.39080,,
9.1851,1,DESCENDING,-0.0000,1.35075,0.48280,-2.10011,0.04639,1.57079,-3.01911,-0.09678,-0.44233,0.39080,,
9.1916,1,DESCENDING,-0.0000,1.35075,0.48280,-2.10011,0.04640,1.57079,-3.01911,-0.09678,-0.44233,0.39079,,
9.2140,1,DESCENDING,-0.0000,1.35075,0.48281,-2.10000,0.04627,1.57079,-3.01911,-0.09678,-0.44233,0.39086,,
9.2143,1,DESCENDING,-0.0000,1.35075,0.48281,-2.10000,0.04627,1.57079,-3.01911,-0.09678,-0.44233,0.39086,,
9.2257,1,DESCENDING,-0.0000,1.35075,0.48281,-2.09987,0.04614,1.57079,-3.01911,-0.09678,-0.44233,0.39093,,
9.2333,1,DESCENDING,-0.0000,1.35075,0.48281,-2.09988,0.04615,1.57079,-3.01911,-0.09678,-0.44233,0.39093,,
9.2412,1,DESCENDING,-0.0000,1.35075,0.48281,-2.09992,0.04619,1.57079,-3.01911,-0.09678,-0.44233,0.39090,,
9.2539,1,DESCENDING,-0.0000,1.35075,0.48281,-2.10001,0.04629,1.57079,-3.01911,-0.09678,-0.44233,0.39085,,
9.2681,1,DESCENDING,-0.0000,1.35075,0.48281,-2.10002,0.04629,1.57079,-3.01911,-0.09678,-0.44233,0.39085,,
9.2732,1,DESCENDING,-0.0000,1.35075,0.48280,-2.10004,0.04632,1.57079,-3.01911,-0.09678,-0.44233,0.39084,,
9.2838,1,DESCENDING,-0.0000,1.35075,0.48280,-2.10006,0.04634,1.57079,-3.01911,-0.09678,-0.44233,0.39082,,
9.2944,1,DESCENDING,-0.0000,1.35075,0.48280,-2.10007,0.04635,1.57079,-3.01911,-0.09678,-0.44233,0.39082,,
9.3016,1,DESCENDING,-0.0000,1.35075,0.48281,-2.10001,0.04628,1.57079,-3.01911,-0.09678,-0.44233,0.39085,,
9.3139,1,DESCENDING,-0.0000,1.35075,0.48281,-2.09990,0.04617,1.57079,-3.01911,-0.09678,-0.44233,0.39091,,
9.3233,1,DESCENDING,-0.0000,1.35075,0.48281,-2.09991,0.04618,1.57079,-3.01911,-0.09678,-0.44233,0.39091,,
9.3344,1,DESCENDING,-0.0000,1.35075,0.48281,-2.09995,0.04622,1.57079,-3.01911,-0.09678,-0.44233,0.39089,,
9.3420,1,DESCENDING,-0.0000,1.35075,0.48281,-2.09998,0.04626,1.57079,-3.01911,-0.09678,-0.44233,0.39087,,
9.3544,1,DESCENDING,-0.0000,1.35075,0.48281,-2.10000,0.04628,1.57079,-3.01911,-0.09678,-0.44233,0.39086,,
9.3616,1,DESCENDING,-0.0000,1.35075,0.48281,-2.10001,0.04629,1.57079,-3.01911,-0.09678,-0.44233,0.39085,,
9.3714,1,DESCENDING,-0.0000,1.35075,0.48280,-2.10003,0.04631,1.57079,-3.01911,-0.09678,-0.44233,0.39084,,
9.3819,1,DESCENDING,-0.0000,1.35075,0.48280,-2.10004,0.04632,1.57079,-3.01911,-0.09678,-0.44233,0.39084,,
9.3914,1,DESCENDING,-0.0000,1.35075,0.48280,-2.10006,0.04634,1.57079,-3.01911,-0.09678,-0.44233,0.39082,,
9.4100,1,DESCENDING,-0.0000,1.35075,0.48280,-2.10011,0.04640,1.57079,-3.01911,-0.09678,-0.44233,0.39079,,
9.4182,1,DESCENDING,-0.0000,1.35075,0.48280,-2.10012,0.04641,1.57079,-3.01911,-0.09678,-0.44233,0.39079,,
9.4213,1,DESCENDING,-0.0000,1.35075,0.48280,-2.10013,0.04642,1.57079,-3.01911,-0.09678,-0.44233,0.39078,,
9.4316,1,DESCENDING,-0.0000,1.35075,0.48280,-2.10016,0.04645,1.57079,-3.01911,-0.09678,-0.44233,0.39076,,
9.4460,1,DESCENDING,-0.0000,1.35075,0.48280,-2.10019,0.04647,1.57079,-3.01911,-0.09678,-0.44233,0.39075,,
9.4510,1,DESCENDING,-0.0000,1.35075,0.48280,-2.10020,0.04648,1.57079,-3.01911,-0.09678,-0.44233,0.39074,,
9.4676,1,DESCENDING,-0.0000,1.35075,0.48279,-2.10026,0.04655,1.57079,-3.01911,-0.09678,-0.44233,0.39071,,
9.4781,1,DESCENDING,-0.0000,1.35075,0.48279,-2.10027,0.04656,1.57079,-3.01911,-0.09678,-0.44233,0.39070,,
9.4834,1,DESCENDING,-0.0000,1.35075,0.48279,-2.10028,0.04657,1.57079,-3.01911,-0.09678,-0.44233,0.39070,,
9.4913,1,DESCENDING,-0.0000,1.35075,0.48279,-2.10031,0.04660,1.57079,-3.01911,-0.09678,-0.44233,0.39068,,
9.5184,1,DESCENDING,-0.0000,1.35075,0.48279,-2.10037,0.04667,1.57079,-3.01911,-0.09678,-0.44233,0.39064,,
9.5186,1,DESCENDING,-0.0000,1.35075,0.48279,-2.10037,0.04667,1.57079,-3.01911,-0.09678,-0.44233,0.39064,,
9.5236,1,DESCENDING,-0.0000,1.35075,0.48279,-2.10039,0.04668,1.57079,-3.01911,-0.09678,-0.44233,0.39063,,
9.5325,1,DESCENDING,-0.0000,1.35075,0.48279,-2.10040,0.04670,1.57079,-3.01911,-0.09678,-0.44233,0.39062,,
9.5585,1,DESCENDING,-0.0000,1.35075,0.48278,-2.10047,0.04677,1.57079,-3.01911,-0.09678,-0.44233,0.39059,,
9.5588,1,DESCENDING,-0.0000,1.35075,0.48278,-2.10047,0.04677,1.57079,-3.01911,-0.09678,-0.44233,0.39059,,
9.5645,1,DESCENDING,-0.0000,1.35075,0.48278,-2.10047,0.04677,1.57079,-3.01911,-0.09678,-0.44233,0.39058,,
9.5776,1,DESCENDING,-0.0000,1.35075,0.48278,-2.10052,0.04682,1.57079,-3.01911,-0.09678,-0.44233,0.39056,,
9.5835,1,DESCENDING,-0.0000,1.35075,0.48278,-2.10053,0.04684,1.57079,-3.01911,-0.09678,-0.44233,0.39055,,
9.5924,1,DESCENDING,-0.0000,1.35075,0.48278,-2.10055,0.04685,1.57079,-3.01911,-0.09678,-0.44233,0.39054,,
9.8624,1,DESCENDING,-0.0000,1.35075,0.48277,-2.10076,0.04708,1.57079,-3.01911,-0.09678,-0.44233,0.39041,,
9.8627,1,DESCENDING,-0.0000,1.35075,0.48277,-2.10076,0.04708,1.57079,-3.01911,-0.09678,-0.44233,0.39041,,
9.8630,1,DESCENDING,-0.0000,1.35075,0.48277,-2.10076,0.04708,1.57079,-3.01911,-0.09678,-0.44233,0.39041,,
9.8703,1,DESCENDING,-0.0000,1.35075,0.48277,-2.10077,0.04708,1.57079,-3.01911,-0.09678,-0.44233,0.39041,,
9.8707,1,DESCENDING,-0.0000,1.35075,0.48277,-2.10077,0.04708,1.57079,-3.01911,-0.09678,-0.44233,0.39041,,
9.8865,1,DESCENDING,-0.0000,1.35075,0.48278,-2.10053,0.04683,1.57079,-3.01911,-0.09678,-0.44233,0.39055,,
9.8870,1,DESCENDING,-0.0000,1.35075,0.48278,-2.10053,0.04683,1.57079,-3.01911,-0.09678,-0.44233,0.39055,,
9.8933,1,DESCENDING,-0.0000,1.35075,0.48278,-2.10053,0.04684,1.57079,-3.01911,-0.09678,-0.44233,0.39055,,
9.8938,1,DESCENDING,-0.0000,1.35075,0.48278,-2.10053,0.04684,1.57079,-3.01911,-0.09678,-0.44233,0.39055,,
9.8941,1,DESCENDING,-0.0000,1.35075,0.48278,-2.10053,0.04684,1.57079,-3.01911,-0.09678,-0.44233,0.39055,,
9.9040,1,DESCENDING,-0.0000,1.35075,0.48278,-2.10056,0.04686,1.57079,-3.01911,-0.09678,-0.44233,0.39053,,
9.9119,1,DESCENDING,-0.0000,1.35075,0.48278,-2.10050,0.04680,1.57079,-3.01911,-0.09678,-0.44233,0.39057,,
9.9218,1,DESCENDING,-0.0000,1.35075,0.48279,-2.10035,0.04665,1.57079,-3.01911,-0.09678,-0.44233,0.39065,,
9.9832,1,DESCENDING,-0.0000,1.35075,0.48277,-2.10062,0.04693,1.57079,-3.01911,-0.09678,-0.44233,0.39050,,
9.9923,1,DESCENDING,-0.0000,1.35075,0.48277,-2.10060,0.04691,1.57079,-3.01911,-0.09678,-0.44233,0.39051,,
9.9927,1,DESCENDING,-0.0000,1.35075,0.48277,-2.10060,0.04691,1.57079,-3.01911,-0.09678,-0.44233,0.39051,,
9.9941,1,DESCENDING,-0.0000,1.35075,0.48277,-2.10060,0.04691,1.57079,-3.01911,-0.09678,-0.44233,0.39051,,
10.0012,1,DESCENDING,-0.0000,1.35075,0.48278,-2.10055,0.04685,1.57079,-3.01911,-0.09678,-0.44233,0.39054,,
10.0122,1,DESCENDING,-0.0000,1.35075,0.48278,-2.10048,0.04678,1.57079,-3.01911,-0.09678,-0.44233,0.39058,,
10.0254,1,DESCENDING,-0.0000,1.35075,0.48278,-2.10056,0.04686,1.57079,-3.01911,-0.09678,-0.44233,0.39053,,
10.0773,1,DESCENDING,-0.0000,1.35075,0.48277,-2.10067,0.04698,1.57079,-3.01911,-0.09678,-0.44233,0.39047,,
10.0893,1,DESCENDING,-0.0000,1.35075,0.48277,-2.10064,0.04695,1.57079,-3.01911,-0.09678,-0.44233,0.39049,,
10.0916,1,DESCENDING,-0.0000,1.35075,0.48277,-2.10064,0.04695,1.57079,-3.01911,-0.09678,-0.44233,0.39049,,
10.1012,1,DESCENDING,-0.0000,1.35075,0.48278,-2.10052,0.04683,1.57079,-3.01911,-0.09678,-0.44233,0.39055,,
10.1019,1,DESCENDING,-0.0000,1.35075,0.48278,-2.10052,0.04683,1.57079,-3.01911,-0.09678,-0.44233,0.39055,,
10.1131,1,DESCENDING,-0.0000,1.35075,0.48278,-2.10057,0.04688,1.57079,-3.01911,-0.09678,-0.44233,0.39052,,
10.1269,1,DESCENDING,-0.0000,1.35075,0.48278,-2.10052,0.04682,1.57079,-3.01911,-0.09678,-0.44233,0.39056,,
10.1348,1,DESCENDING,-0.0000,1.35075,0.48278,-2.10052,0.04683,1.57079,-3.01911,-0.09678,-0.44233,0.39055,,
10.1420,1,DESCENDING,-0.0000,1.35075,0.48278,-2.10054,0.04684,1.57079,-3.01911,-0.09678,-0.44233,0.39054,,
10.1531,1,DESCENDING,-0.0000,1.35075,0.48278,-2.10042,0.04672,1.57079,-3.01911,-0.09678,-0.44233,0.39061,,
10.1664,1,DESCENDING,-0.0000,1.35075,0.48279,-2.10035,0.04664,1.57079,-3.01911,-0.09678,-0.44233,0.39066,,
10.1966,1,DESCENDING,-0.0000,1.35075,0.48280,-2.10020,0.04648,1.57079,-3.01911,-0.09678,-0.44233,0.39074,,
10.1972,1,DESCENDING,-0.0000,1.35075,0.48280,-2.10021,0.04649,1.57079,-3.01911,-0.09678,-0.44233,0.39074,,
10.2053,1,DESCENDING,-0.0000,1.35075,0.48279,-2.10023,0.04652,1.57079,-3.01911,-0.09678,-0.44233,0.39072,,
10.2133,1,DESCENDING,-0.0000,1.35075,0.48280,-2.10019,0.04648,1.57079,-3.01911,-0.09678,-0.44233,0.39075,,
10.2374,1,DESCENDING,-0.0000,1.35075,0.48280,-2.10019,0.04647,1.57079,-3.01911,-0.09678,-0.44233,0.39075,,
10.2377,1,DESCENDING,-0.0000,1.35075,0.48280,-2.10019,0.04647,1.57079,-3.01911,-0.09678,-0.44233,0.39075,,
10.2429,1,DESCENDING,-0.0000,1.35075,0.48280,-2.10018,0.04646,1.57079,-3.01911,-0.09678,-0.44233,0.39075,,
10.2654,1,DESCENDING,-0.0000,1.35075,0.48280,-2.10010,0.04639,1.57079,-3.01911,-0.09678,-0.44233,0.39080,,
10.2658,1,DESCENDING,-0.0000,1.35075,0.48280,-2.10010,0.04639,1.57079,-3.01911,-0.09678,-0.44233,0.39080,,
10.2772,1,DESCENDING,-0.0000,1.35075,0.48281,-2.09999,0.04626,1.57079,-3.01911,-0.09678,-0.44233,0.39086,,
10.2835,1,DESCENDING,-0.0000,1.35075,0.48281,-2.09999,0.04626,1.57079,-3.01911,-0.09678,-0.44233,0.39086,,
10.2965,1,DESCENDING,-0.0000,1.35075,0.48280,-2.10003,0.04631,1.57079,-3.01911,-0.09678,-0.44233,0.39084,,
10.3020,1,DESCENDING,-0.0000,1.35075,0.48280,-2.10002,0.04630,1.57079,-3.01911,-0.09678,-0.44233,0.39084,,
10.3124,1,DESCENDING,-0.0000,1.35075,0.48281,-2.09997,0.04624,1.57079,-3.01911,-0.09678,-0.44233,0.39088,,
